betterCam/LUTs/Fujicolor_400.cube
TITLE "Fujicolor 400 Simulation"
LUT_3D_SIZE 33
0.000000 0.000000 0.000000
0.000000 0.000000 0.000000
0.000000 0.000000 0.000000
0.000000 0.000000 0.000000
0.016772 0.000000 0.000000
0.051821 0.000000 0.000000
0.086858 0.000000 0.000000
0.121883 0.000000 0.000000
0.156896 0.000000 0.000000
0.191896 0.000000 0.000000
0.226884 0.000000 0.000000
0.261861 0.000000 0.000000
0.296825 0.000000 0.000000
0.331778 0.000000 0.000000
0.366718 0.000000 0.000000
0.401647 0.000000 0.000000
0.436565 0.000000 0.000000
0.471471 0.000000 0.000000
0.506365 0.000000 0.000000
0.541248 0.000000 0.000000
0.576119 0.000000 0.000000
0.610980 0.000000 0.000000
0.645829 0.000000 0.000000
0.680667 0.000000 0.000000
0.715493 0.000000 0.000000
0.750309 0.000000 0.000000
0.785114 0.000000 0.000000
0.819909 0.000000 0.000000
0.854692 0.000000 0.000000
0.889465 0.000000 0.000000
0.924227 0.000000 0.000000
0.948300 0.000000 0.000000
0.965648 0.000000 0.000000
0.000000 0.000000 0.000000
0.000000 0.000000 0.000000
0.000000 0.000000 0.000000
0.000000 0.000000 0.000000
0.019839 0.000000 0.000000
0.054876 0.000000 0.000000
0.089901 0.000000 0.000000
0.124913 0.000000 0.000000
0.159914 0.000000 0.000000
0.194902 0.000000 0.000000
0.229878 0.000000 0.000000
0.264843 0.000000 0.000000
0.299795 0.000000 0.000000
0.334736 0.000000 0.000000
0.369665 0.000000 0.000000
0.404582 0.000000 0.000000
0.439488 0.000000 0.000000
0.474383 0.000000 0.000000
0.509265 0.000000 0.000000
0.544137 0.000000 0.000000
0.578997 0.000000 0.000000
0.613846 0.000000 0.000000
0.648684 0.000000 0.000000
0.683511 0.000000 0.000000
0.718327 0.000000 0.000000
0.753132 0.000000 0.000000
0.787926 0.000000 0.000000
0.822710 0.000000 0.000000
0.857482 0.000000 0.000000
0.892245 0.000000 0.000000
0.926996 0.000000 0.000000
0.950813 0.000000 0.000000
0.968156 0.000000 0.000000
0.000000 0.031570 0.000000
0.000000 0.031006 0.000000
0.000000 0.030460 0.000000
0.000000 0.029934 0.000000
0.022894 0.029426 0.000000
0.057919 0.028937 0.000000
0.092931 0.028466 0.000000
0.127931 0.028014 0.000000
0.162920 0.027581 0.000000
0.197896 0.027165 0.000000
0.232860 0.026768 0.000000
0.267813 0.026389 0.000000
0.302754 0.026028 0.000000
0.337683 0.025684 0.000000
0.372600 0.025358 0.000000
0.407506 0.025050 0.000000
0.442400 0.024760 0.000000
0.477283 0.024487 0.000000
0.512155 0.024231 0.000000
0.547015 0.023992 0.000000
0.581864 0.023770 0.000000
0.616702 0.023565 0.000000
0.651529 0.023377 0.000000
0.686345 0.023206 0.000000
0.721150 0.023052 0.000000
0.755944 0.022913 0.000000
0.790727 0.022792 0.000000
0.825500 0.022686 0.000000
0.860262 0.022597 0.000000
0.895014 0.022523 0.000000
0.929755 0.022466 0.000000
0.953321 0.022221 0.000000
0.970660 0.021879 0.000000
0.000000 0.069875 0.000000
0.000000 0.069330 0.000000
0.000000 0.068803 0.000000
0.000000 0.068295 0.000000
0.025936 0.067806 0.000000
0.060949 0.067336 0.000000
0.095949 0.066884 0.000000
0.130938 0.066450 0.000000
0.165914 0.066035 0.000000
0.200878 0.065637 0.000000
0.235831 0.065258 0.000000
0.270772 0.064897 0.000000
0.305701 0.064553 0.000000
0.340618 0.064228 0.000000
0.375524 0.063920 0.000000
0.410418 0.063629 0.000000
0.445301 0.063356 0.000000
0.480173 0.063100 0.000000
0.515033 0.062861 0.000000
0.549882 0.062639 0.000000
0.584720 0.062435 0.000000
0.619547 0.062247 0.000000
0.654363 0.062076 0.000000
0.689168 0.061921 0.000000
0.723962 0.061783 0.000000
0.758745 0.061661 0.000000
0.793518 0.061555 0.000000
0.828280 0.061466 0.000000
0.863032 0.061392 0.000000
0.897773 0.061335 0.000000
0.932504 0.061293 0.000000
0.955825 0.061060 0.000000
0.973159 0.060734 0.000000
0.000000 0.108199 0.000000
0.000000 0.107672 0.000000
0.000000 0.107165 0.000000
0.000000 0.106675 0.000000
0.028967 0.106205 0.000000
0.063967 0.105753 0.000000
0.098955 0.105319 0.000000
0.133932 0.104904 0.000000
0.168896 0.104507 0.000000
0.203849 0.104127 0.000000
0.238789 0.103766 0.000000
0.273718 0.103423 0.000000
0.308636 0.103097 0.000000
0.343542 0.102789 0.000000
0.378436 0.102498 0.000000
0.413319 0.102225 0.000000
0.448190 0.101969 0.000000
0.483051 0.101730 0.000000
0.517900 0.101509 0.000000
0.552738 0.101304 0.000000
0.587564 0.101116 0.000000
0.622380 0.100945 0.000000
0.657185 0.100790 0.000000
0.691980 0.100652 0.000000
0.726763 0.100530 0.000000
0.761536 0.100425 0.000000
0.796298 0.100335 0.000000
0.831050 0.100262 0.000000
0.865791 0.100204 0.000000
0.900522 0.100162 0.000000
0.935242 0.100136 0.000000
0.958324 0.099914 0.000000
0.975654 0.099604 0.000000
0.000000 0.146542 0.000000
0.000000 0.146034 0.000000
0.000000 0.145545 0.000000
0.000000 0.145074 0.000000
0.031985 0.144622 0.000000
0.066973 0.144188 0.000000
0.101949 0.143773 0.000000
0.136914 0.143376 0.000000
0.171866 0.142997 0.000000
0.206807 0.142635 0.000000
0.241736 0.142292 0.000000
0.276653 0.141966 0.000000
0.311559 0.141658 0.000000
0.346454 0.141368 0.000000
0.381336 0.141094 0.000000
0.416208 0.140838 0.000000
0.451068 0.140600 0.000000
0.485917 0.140378 0.000000
0.520755 0.140173 0.000000
0.555582 0.139985 0.000000
0.590398 0.139814 0.000000
0.625203 0.139659 0.000000
0.659997 0.139521 0.000000
0.694781 0.139399 0.000000
0.729553 0.139294 0.000000
0.764316 0.139204 0.000000
0.799067 0.139131 0.000000
0.833809 0.139073 0.000000
0.868539 0.139032 0.000000
0.903260 0.139005 0.000000
0.937971 0.138995 0.000000
0.960819 0.138784 0.000000
0.978144 0.138489 0.000000
0.000000 0.184903 0.000000
0.000000 0.184414 0.000000
0.000000 0.183943 0.000000
0.000002 0.183491 0.000000
0.034991 0.183058 0.000000
0.069967 0.182642 0.000000
0.104931 0.182245 0.000000
0.139884 0.181866 0.000000
0.174825 0.181505 0.000000
0.209754 0.181161 0.000000
0.244671 0.180835 0.000000
0.279577 0.180527 0.000000
0.314471 0.180237 0.000000
0.349354 0.179964 0.000000
0.384226 0.179708 0.000000
0.419086 0.179469 0.000000
0.453935 0.179247 0.000000
0.488773 0.179042 0.000000
0.523600 0.178854 0.000000
0.558416 0.178683 0.000000
0.593221 0.178529 0.000000
0.628015 0.178390 0.000000
0.662798 0.178269 0.000000
0.697571 0.178163 0.000000
0.732333 0.178074 0.000000
0.767085 0.178000 0.000000
0.801826 0.177943 0.000000
0.836557 0.177901 0.000000
0.871278 0.177875 0.000000
0.905988 0.177864 0.000000
0.940689 0.177869 0.000000
0.963309 0.177670 0.000000
0.980630 0.177390 0.000000
0.000000 0.223283 0.000000
0.000000 0.222813 0.000000
0.000000 0.222361 0.000000
0.003009 0.221927 0.000000
0.037985 0.221512 0.000000
0.072949 0.221114 0.000000
0.107902 0.220735 0.000000
0.142843 0.220374 0.000000
0.177772 0.220030 0.000000
0.212689 0.219705 0.000000
0.247595 0.219397 0.000000
0.282489 0.219106 0.000000
0.317372 0.218833 0.000000
0.352244 0.218577 0.000000
0.387104 0.218338 0.000000
0.421953 0.218116 0.000000
0.456791 0.217912 0.000000
0.491618 0.217724 0.000000
0.526434 0.217553 0.000000
0.561239 0.217398 0.000000
0.596033 0.217260 0.000000
0.630816 0.217138 0.000000
0.665589 0.217032 0.000000
0.700351 0.216943 0.000000
0.735103 0.216869 0.000000
0.769844 0.216812 0.000000
0.804575 0.216770 0.000000
0.839296 0.216744 0.000000
0.874006 0.216733 0.000000
0.908706 0.216738 0.000000
0.943397 0.216758 0.000000
0.965795 0.216570 0.000000
0.983111 0.216305 0.000000
0.000000 0.261682 0.000000
0.000000 0.261230 0.000000
0.000000 0.260796 0.000000
0.006003 0.260381 0.000000
0.040967 0.259984 0.000000
0.075920 0.259604 0.000000
0.110860 0.259243 0.000000
0.145789 0.258900 0.000000
0.180707 0.258574 0.000000
0.215613 0.258266 0.000000
0.250507 0.257975 0.000000
0.285390 0.257702 0.000000
0.320261 0.257446 0.000000
0.355122 0.257207 0.000000
0.389971 0.256986 0.000000
0.424809 0.256781 0.000000
0.459635 0.256593 0.000000
0.494451 0.256422 0.000000
0.529256 0.256267 0.000000
0.564051 0.256129 0.000000
0.598834 0.256007 0.000000
0.633607 0.255902 0.000000
0.668369 0.255812 0.000000
0.703121 0.255739 0.000000
0.737862 0.255681 0.000000
0.772593 0.255639 0.000000
0.807313 0.255613 0.000000
0.842024 0.255602 0.000000
0.876724 0.255607 0.000000
0.911414 0.255627 0.000000
0.946095 0.255662 0.000000
0.968276 0.255486 0.000000
0.985588 0.255236 0.000000
0.000000 0.300099 0.000000
0.000000 0.299665 0.000000
0.000000 0.299250 0.000000
0.008985 0.298853 0.000000
0.043937 0.298474 0.000000
0.078878 0.298112 0.000000
0.113807 0.297769 0.000000
0.148724 0.297443 0.000000
0.183630 0.297135 0.000000
0.218525 0.296845 0.000000
0.253407 0.296571 0.000000
0.288279 0.296315 0.000000
0.323139 0.296077 0.000000
0.357988 0.295855 0.000000
0.392826 0.295650 0.000000
0.427653 0.295462 0.000000
0.462469 0.295291 0.000000
0.497274 0.295136 0.000000
0.532068 0.294998 0.000000
0.566852 0.294876 0.000000
0.601624 0.294771 0.000000
0.636387 0.294681 0.000000
0.671138 0.294608 0.000000
0.705880 0.294550 0.000000
0.740610 0.294509 0.000000
0.775331 0.294482 0.000000
0.810042 0.294472 0.000000
0.844742 0.294476 0.000000
0.879432 0.294496 0.000000
0.914113 0.294531 0.000000
0.948783 0.294582 0.000000
0.970753 0.294416 0.000000
0.988061 0.294181 0.000000
0.000000 0.338535 0.000000
0.000000 0.338119 0.000000
0.000000 0.337722 0.000000
0.011955 0.337343 0.000000
0.046896 0.336982 0.000000
0.081825 0.336638 0.000000
0.116742 0.336312 0.000000
0.151648 0.336004 0.000000
0.186542 0.335714 0.000000
0.221425 0.335441 0.000000
0.256297 0.335185 0.000000
0.291157 0.334946 0.000000
0.326006 0.334724 0.000000
0.360844 0.334519 0.000000
0.395671 0.334331 0.000000
0.430487 0.334160 0.000000
0.465292 0.334006 0.000000
0.500086 0.333867 0.000000
0.534869 0.333746 0.000000
0.569642 0.333640 0.000000
0.604404 0.333551 0.000000
0.639156 0.333477 0.000000
0.673897 0.333420 0.000000
0.708628 0.333378 0.000000
0.743349 0.333352 0.000000
0.778059 0.333341 0.000000
0.812760 0.333346 0.000000
0.847450 0.333366 0.000000
0.882130 0.333401 0.000000
0.916801 0.333451 0.000000
0.951462 0.333516 0.000000
0.973226 0.333361 0.000000
0.990529 0.333141 0.000000
0.000000 0.376989 0.000000
0.000000 0.376591 0.000000
0.000000 0.376212 0.000000
0.014914 0.375851 0.000000
0.049843 0.375507 0.000000
0.084760 0.375182 0.000000
0.119666 0.374874 0.000000
0.154560 0.374583 0.000000
0.189443 0.374310 0.000000
0.224315 0.374054 0.000000
0.259175 0.373815 0.000000
0.294024 0.373593 0.000000
0.328862 0.373389 0.000000
0.363689 0.373201 0.000000
0.398505 0.373030 0.000000
0.433310 0.372875 0.000000
0.468104 0.372737 0.000000
0.502887 0.372615 0.000000
0.537660 0.372509 0.000000
0.572422 0.372420 0.000000
0.607174 0.372346 0.000000
0.641915 0.372289 0.000000
0.676646 0.372247 0.000000
0.711367 0.372221 0.000000
0.746077 0.372210 0.000000
0.780777 0.372215 0.000000
0.815468 0.372235 0.000000
0.850148 0.372270 0.000000
0.884819 0.372320 0.000000
0.919479 0.372385 0.000000
0.954130 0.372465 0.000000
0.975694 0.372322 0.000000
0.992993 0.372116 0.000000
0.000000 0.415461 0.000000
0.000000 0.415081 0.000000
0.000000 0.414720 0.000000
0.017860 0.414377 0.000000
0.052778 0.414051 0.000000
0.087684 0.413743 0.000000
0.122578 0.413452 0.000000
0.157461 0.413179 0.000000
0.192332 0.412923 0.000000
0.227193 0.412684 0.000000
0.262042 0.412463 0.000000
0.296880 0.412258 0.000000
0.331706 0.412070 0.000000
0.366522 0.411899 0.000000
0.401327 0.411744 0.000000
0.436122 0.411606 0.000000
0.470905 0.411484 0.000000
0.505678 0.411379 0.000000
0.540440 0.411289 0.000000
0.575192 0.411216 0.000000
0.609933 0.411158 0.000000
0.644664 0.411116 0.000000
0.679384 0.411090 0.000000
0.714095 0.411079 0.000000
0.748795 0.411084 0.000000
0.783485 0.411104 0.000000
0.818166 0.411139 0.000000
0.852836 0.411189 0.000000
0.887497 0.411254 0.000000
0.922148 0.411334 0.000000
0.956790 0.411428 0.000000
0.978158 0.411296 0.000000
0.995452 0.411105 0.000000
0.000000 0.453951 0.000000
0.000000 0.453589 0.000000
0.000000 0.453246 0.000000
0.020795 0.452920 0.000000
0.055701 0.452612 0.000000
0.090596 0.452321 0.000000
0.125478 0.452048 0.000000
0.160350 0.451792 0.000000
0.195210 0.451554 0.000000
0.230059 0.451332 0.000000
0.264897 0.451127 0.000000
0.299724 0.450939 0.000000
0.334540 0.450768 0.000000
0.369345 0.450613 0.000000
0.404139 0.450475 0.000000
0.438923 0.450353 0.000000
0.473695 0.450248 0.000000
0.508458 0.450158 0.000000
0.543209 0.450085 0.000000
0.577951 0.450027 0.000000
0.612681 0.449986 0.000000
0.647402 0.449959 0.000000
0.682113 0.449949 0.000000
0.716813 0.449953 0.000000
0.751503 0.449973 0.000000
0.786184 0.450008 0.000000
0.820854 0.450059 0.000000
0.855515 0.450123 0.000000
0.890166 0.450203 0.000000
0.924807 0.450297 0.000000
0.959439 0.450406 0.000000
0.980617 0.450285 0.000000
0.997908 0.450108 0.000000
0.000000 0.492459 0.000000
0.000000 0.492115 0.000000
0.000000 0.491789 0.000000
0.023719 0.491481 0.000000
0.058613 0.491191 0.000000
0.093496 0.490918 0.000000
0.128368 0.490662 0.000000
0.163228 0.490423 0.000000
0.198077 0.490201 0.000000
0.232915 0.489996 0.000000
0.267742 0.489808 0.000000
0.302558 0.489637 0.000000
0.337363 0.489483 0.000000
0.372157 0.489344 0.000000
0.406940 0.489223 0.000000
0.441713 0.489117 0.000000
0.476475 0.489028 0.000000
0.511227 0.488954 0.000000
0.545968 0.488897 0.000000
0.580699 0.488855 0.000000
0.615420 0.488829 0.000000
0.650130 0.488818 0.000000
0.684831 0.488823 0.000000
0.719521 0.488843 0.000000
0.754201 0.488878 0.000000
0.788872 0.488928 0.000000
0.823533 0.488993 0.000000
0.858184 0.489072 0.000000
0.892825 0.489167 0.000000
0.927457 0.489275 0.000000
0.962080 0.489399 0.000000
0.983073 0.489289 0.000000
1.000000 0.489126 0.000000
0.000000 0.530984 0.000000
0.000000 0.530659 0.000000
0.000000 0.530351 0.000000
0.026631 0.530060 0.000000
0.061514 0.529787 0.000000
0.096386 0.529531 0.000000
0.131246 0.529292 0.000000
0.166095 0.529070 0.000000
0.200933 0.528866 0.000000
0.235760 0.528678 0.000000
0.270576 0.528506 0.000000
0.305381 0.528352 0.000000
0.340175 0.528214 0.000000
0.374958 0.528092 0.000000
0.409731 0.527986 0.000000
0.444493 0.527897 0.000000
0.479245 0.527823 0.000000
0.513986 0.527766 0.000000
0.548717 0.527724 0.000000
0.583438 0.527698 0.000000
0.618148 0.527687 0.000000
0.652848 0.527692 0.000000
0.687539 0.527712 0.000000
0.722219 0.527747 0.000000
0.756890 0.527797 0.000000
0.791550 0.527862 0.000000
0.826201 0.527942 0.000000
0.860843 0.528036 0.000000
0.895475 0.528145 0.000000
0.930097 0.528268 0.000000
0.964711 0.528405 0.000000
0.985524 0.528306 0.000000
1.000000 0.528157 0.000000
0.000000 0.569528 0.000000
0.000000 0.569220 0.000000
0.000000 0.568929 0.000000
0.029532 0.568656 0.000000
0.064403 0.568400 0.000000
0.099264 0.568161 0.000000
0.134113 0.567940 0.000000
0.168951 0.567735 0.000000
0.203777 0.567547 0.000000
0.238593 0.567376 0.000000
0.273398 0.567221 0.000000
0.308193 0.567083 0.000000
0.342976 0.566961 0.000000
0.377749 0.566856 0.000000
0.412511 0.566766 0.000000
0.447263 0.566693 0.000000
0.482004 0.566635 0.000000
0.516735 0.566593 0.000000
0.551455 0.566567 0.000000
0.586166 0.566556 0.000000
0.620866 0.566561 0.000000
0.655556 0.566581 0.000000
0.690237 0.566616 0.000000
0.724907 0.566666 0.000000
0.759568 0.566731 0.000000
0.794219 0.566811 0.000000
0.828861 0.566905 0.000000
0.863493 0.567014 0.000000
0.898115 0.567137 0.000000
0.932728 0.567274 0.000000
0.967332 0.567426 0.000000
0.987972 0.567338 0.000000
1.000000 0.567203 0.000000
0.000000 0.608089 0.000000
0.000000 0.607798 0.000000
0.000000 0.607525 0.000000
0.032421 0.607269 0.000000
0.067281 0.607031 0.000000
0.102130 0.606809 0.000000
0.136968 0.606604 0.000000
0.171795 0.606416 0.000000
0.206611 0.606245 0.000000
0.241416 0.606090 0.000000
0.276210 0.605952 0.000000
0.310994 0.605830 0.000000
0.345766 0.605725 0.000000
0.380529 0.605635 0.000000
0.415280 0.605562 0.000000
0.450022 0.605504 0.000000
0.484752 0.605463 0.000000
0.519473 0.605436 0.000000
0.554184 0.605426 0.000000
0.588884 0.605430 0.000000
0.623574 0.605450 0.000000
0.658255 0.605485 0.000000
0.692925 0.605536 0.000000
0.727586 0.605600 0.000000
0.762237 0.605680 0.000000
0.796878 0.605774 0.000000
0.831510 0.605883 0.000000
0.866133 0.606006 0.000000
0.900746 0.606144 0.000000
0.935350 0.606295 0.000000
0.969945 0.606460 0.000000
0.990415 0.606383 0.000000
1.000000 0.606262 0.000000
0.000000 0.646668 0.000000
0.000000 0.646395 0.000000
0.000439 0.646139 0.000000
0.035299 0.645900 0.000000
0.070148 0.645678 0.000000
0.104986 0.645473 0.000000
0.139813 0.645285 0.000000
0.174629 0.645114 0.000000
0.209434 0.644960 0.000000
0.244228 0.644821 0.000000
0.279011 0.644700 0.000000
0.313784 0.644594 0.000000
0.348546 0.644505 0.000000
0.383298 0.644431 0.000000
0.418039 0.644374 0.000000
0.452770 0.644332 0.000000
0.487491 0.644306 0.000000
0.522201 0.644295 0.000000
0.556902 0.644300 0.000000
0.591592 0.644320 0.000000
0.626272 0.644355 0.000000
0.660943 0.644405 0.000000
0.695604 0.644470 0.000000
0.730255 0.644549 0.000000
0.764896 0.644644 0.000000
0.799528 0.644752 0.000000
0.834151 0.644876 0.000000
0.868764 0.645013 0.000000
0.903368 0.645164 0.000000
0.937963 0.645329 0.000000
0.972549 0.645509 0.000000
0.992854 0.645442 0.000000
1.000000 0.645334 0.000000
0.000000 0.685264 0.000000
0.000000 0.685008 0.000000
0.003317 0.684769 0.000000
0.038166 0.684547 0.000000
0.073004 0.684343 0.000000
0.107831 0.684155 0.000000
0.142647 0.683983 0.000000
0.177452 0.683829 0.000000
0.212246 0.683691 0.000000
0.247029 0.683569 0.000000
0.281802 0.683463 0.000000
0.316564 0.683374 0.000000
0.351316 0.683300 0.000000
0.386057 0.683243 0.000000
0.420788 0.683201 0.000000
0.455509 0.683175 0.000000
0.490219 0.683164 0.000000
0.524919 0.683169 0.000000
0.559610 0.683189 0.000000
0.594290 0.683224 0.000000
0.628961 0.683274 0.000000
0.663621 0.683339 0.000000
0.698272 0.683419 0.000000
0.732914 0.683513 0.000000
0.767546 0.683622 0.000000
0.802168 0.683745 0.000000
0.836782 0.683882 0.000000
0.871386 0.684033 0.000000
0.905980 0.684199 0.000000
0.940566 0.684378 0.000000
0.975143 0.684570 0.000000
0.995289 0.684515 0.000000
1.000000 0.684421 0.000000
0.000000 0.723877 0.000000
0.000000 0.723638 0.000000
0.006184 0.723417 0.000000
0.041022 0.723212 0.000000
0.075848 0.723024 0.000000
0.110664 0.722853 0.000000
0.145469 0.722698 0.000000
0.180264 0.722560 0.000000
0.215047 0.722438 0.000000
0.249820 0.722333 0.000000
0.284582 0.722243 0.000000
0.319334 0.722170 0.000000
0.354075 0.722112 0.000000
0.388806 0.722070 0.000000
0.423526 0.722044 0.000000
0.458237 0.722033 0.000000
0.492937 0.722038 0.000000
0.527627 0.722058 0.000000
0.562308 0.722093 0.000000
0.596978 0.722143 0.000000
0.631639 0.722208 0.000000
0.666290 0.722288 0.000000
0.700932 0.722382 0.000000
0.735564 0.722491 0.000000
0.770186 0.722614 0.000000
0.804799 0.722751 0.000000
0.839403 0.722903 0.000000
0.873998 0.723068 0.000000
0.908584 0.723247 0.000000
0.943161 0.723440 0.000000
0.977729 0.723646 0.000000
0.997720 0.723601 0.000000
1.000000 0.723520 0.000000
0.000000 0.762508 0.000000
0.000000 0.762286 0.000000
0.009039 0.762081 0.000000
0.043866 0.761893 0.000000
0.078682 0.761722 0.000000
0.113487 0.761567 0.000000
0.148281 0.761429 0.000000
0.183065 0.761307 0.000000
0.217837 0.761202 0.000000
0.252600 0.761112 0.000000
0.287351 0.761039 0.000000
0.322093 0.760981 0.000000
0.356823 0.760940 0.000000
0.391544 0.760913 0.000000
0.426255 0.760903 0.000000
0.460955 0.760907 0.000000
0.495645 0.760927 0.000000
0.530326 0.760962 0.000000
0.564996 0.761013 0.000000
0.599657 0.761077 0.000000
0.634308 0.761157 0.000000
0.668949 0.761251 0.000000
0.703581 0.761360 0.000000
0.738204 0.761483 0.000000
0.772817 0.761621 0.000000
0.807421 0.761772 0.000000
0.842016 0.761937 0.000000
0.876602 0.762116 0.000000
0.911179 0.762309 0.000000
0.945747 0.762515 0.000000
0.980306 0.762735 0.000000
1.000000 0.762701 0.000000
1.000000 0.762633 0.000000
0.000000 0.801155 0.000000
0.000000 0.800950 0.000000
0.011884 0.800762 0.000000
0.046700 0.800591 0.000000
0.081505 0.800437 0.000000
0.116299 0.800298 0.000000
0.151082 0.800177 0.000000
0.185855 0.800071 0.000000
0.220617 0.799982 0.000000
0.255369 0.799908 0.000000
0.290110 0.799851 0.000000
0.324841 0.799809 0.000000
0.359562 0.799783 0.000000
0.394272 0.799772 0.000000
0.428973 0.799777 0.000000
0.463663 0.799797 0.000000
0.498343 0.799832 0.000000
0.533014 0.799882 0.000000
0.567675 0.799947 0.000000
0.602326 0.800026 0.000000
0.636967 0.800121 0.000000
0.671599 0.800229 0.000000
0.706222 0.800353 0.000000
0.740835 0.800490 0.000000
0.775439 0.800641 0.000000
0.810034 0.800806 0.000000
0.844620 0.800986 0.000000
0.879196 0.801178 0.000000
0.913764 0.801384 0.000000
0.948324 0.801604 0.000000
0.982874 0.801837 0.000000
1.000000 0.801813 0.000000
1.000000 0.801758 0.000000
0.000000 0.839820 0.000000
0.000000 0.839632 0.000000
0.014718 0.839460 0.000000
0.049523 0.839306 0.000000
0.084317 0.839168 0.000000
0.119100 0.839046 0.000000
0.153873 0.838940 0.000000
0.188635 0.838851 0.000000
0.223387 0.838777 0.000000
0.258128 0.838720 0.000000
0.292859 0.838678 0.000000
0.327580 0.838652 0.000000
0.362290 0.838641 0.000000
0.396990 0.838646 0.000000
0.431681 0.838666 0.000000
0.466361 0.838701 0.000000
0.501032 0.838751 0.000000
0.535692 0.838816 0.000000
0.570343 0.838896 0.000000
0.604985 0.838990 0.000000
0.639617 0.839099 0.000000
0.674239 0.839222 0.000000
0.708853 0.839359 0.000000
0.743457 0.839510 0.000000
0.778051 0.839676 0.000000
0.812637 0.839855 0.000000
0.847214 0.840047 0.000000
0.881782 0.840254 0.000000
0.916341 0.840473 0.000000
0.950892 0.840706 0.000000
0.985434 0.840952 0.000000
1.000000 0.840939 0.000000
1.000000 0.840897 0.000000
0.000000 0.878501 0.000000
0.000000 0.878330 0.000000
0.017540 0.878175 0.000000
0.052334 0.878037 0.000000
0.087118 0.877915 0.000000
0.121891 0.877810 0.000000
0.156653 0.877720 0.000000
0.191405 0.877647 0.000000
0.226146 0.877589 0.000000
0.260877 0.877547 0.000000
0.295597 0.877521 0.000000
0.330308 0.877510 0.000000
0.365008 0.877515 0.000000
0.399698 0.877535 0.000000
0.434379 0.877570 0.000000
0.469049 0.877620 0.000000
0.503710 0.877685 0.000000
0.538361 0.877765 0.000000
0.573003 0.877859 0.000000
0.607635 0.877968 0.000000
0.642257 0.878091 0.000000
0.676870 0.878228 0.000000
0.711474 0.878380 0.000000
0.746069 0.878545 0.000000
0.780655 0.878724 0.000000
0.815232 0.878917 0.000000
0.849800 0.879123 0.000000
0.884359 0.879342 0.000000
0.918910 0.879575 0.000000
0.953451 0.879821 0.000000
0.987985 0.880080 0.000000
1.000000 0.880077 0.000000
1.000000 0.880048 0.000000
0.000000 0.917199 0.000000
0.000000 0.917044 0.000000
0.020352 0.916906 0.000000
0.055136 0.916784 0.000000
0.089908 0.916679 0.000000
0.124671 0.916589 0.000000
0.159422 0.916516 0.000000
0.194164 0.916458 0.000000
0.228894 0.916417 0.000000
0.263615 0.916390 0.000000
0.298325 0.916380 0.000000
0.333026 0.916384 0.000000
0.367716 0.916404 0.000000
0.402397 0.916439 0.000000
0.437067 0.916490 0.000000
0.471728 0.916554 0.000000
0.506379 0.916634 0.000000
0.541020 0.916728 0.000000
0.575652 0.916837 0.000000
0.610275 0.916960 0.000000
0.644888 0.917098 0.000000
0.679492 0.917249 0.000000
0.714087 0.917414 0.000000
0.748673 0.917593 0.000000
0.783250 0.917786 0.000000
0.817818 0.917992 0.000000
0.852377 0.918212 0.000000
0.886927 0.918445 0.000000
0.921469 0.918690 0.000000
0.956003 0.918949 0.000000
0.990528 0.919221 0.000000
1.000000 0.919228 0.000000
1.000000 0.919212 0.000000
0.000000 0.955914 0.000000
0.000000 0.955775 0.000000
0.023153 0.955654 0.000000
0.057926 0.955548 0.000000
0.092688 0.955459 0.000000
0.127440 0.955385 0.000000
0.162181 0.955328 0.000000
0.196912 0.955286 0.000000
0.231633 0.955260 0.000000
0.266343 0.955249 0.000000
0.301044 0.955254 0.000000
0.335734 0.955274 0.000000
0.370414 0.955309 0.000000
0.405085 0.955359 0.000000
0.439746 0.955424 0.000000
0.474397 0.955503 0.000000
0.509038 0.955598 0.000000
0.543670 0.955706 0.000000
0.578293 0.955830 0.000000
0.612906 0.955967 0.000000
0.647510 0.956118 0.000000
0.682105 0.956283 0.000000
0.716691 0.956463 0.000000
0.751267 0.956655 0.000000
0.785835 0.956861 0.000000
0.820395 0.957081 0.000000
0.854945 0.957314 0.000000
0.889487 0.957560 0.000000
0.924020 0.957818 0.000000
