betterCam/LUTs/Fujicolor_400.cube
TITLE "Fujicolor 400 Simulation"
LUT_3D_SIZE 5
0.000000 0.000000 0.000000
0.156896 0.000000 0.000000
0.436565 0.000000 0.000000
0.715493 0.000000 0.000000
0.965648 0.000000 0.000000
0.000000 0.261682 0.000000
0.180707 0.258574 0.000000
0.459635 0.256593 0.000000
0.737862 0.255681 0.000000
0.985588 0.255236 0.000000
0.000000 0.569528 0.000000
0.203777 0.567547 0.000000
0.482004 0.566635 0.000000
0.759568 0.566731 0.000000
1.000000 0.567203 0.000000
0.000000 0.878501 0.000000
0.226146 0.877589 0.000000
0.503710 0.877685 0.000000
0.780655 0.878724 0.000000
1.000000 0.880048 0.000000
0.000000 1.000000 0.000000
0.241905 1.000000 0.000000
0.518966 1.000000 0.000000
0.795428 1.000000 0.000000
1.000000 1.000000 0.000000
0.000000 0.000000 0.248434
0.164041 0.000000 0.243411
0.442970 0.000000 0.239783
0.721196 0.000000 0.237476
0.968922 0.000000 0.235875
0.000000 0.255426 0.256929
0.187112 0.253445 0.253301
0.465338 0.252533 0.250994
0.742902 0.252629 0.249934
0.988584 0.253101 0.249473
0.000000 0.564399 0.266819
0.209480 0.563487 0.264512
0.487044 0.563583 0.263452
0.763989 0.564622 0.263558
1.000000 0.565946 0.264156
0.000000 0.874441 0.278030
0.231186 0.874537 0.276970
0.508131 0.875576 0.277076
0.784503 0.877488 0.278262
1.000000 0.879593 0.279829
0.000000 1.000000 0.284541
0.246442 1.000000 0.284763
0.522904 1.000000 0.286039
0.798820 1.000000 0.288276
1.000000 1.000000 0.290760
0.000000 0.000000 0.532088
0.170446 0.000000 0.528459
0.448672 0.000000 0.526153
0.726236 0.000000 0.525093
0.971918 0.000000 0.524631
0.000000 0.250297 0.541977
0.192814 0.249386 0.539671
0.470378 0.249482 0.538611
0.747323 0.250520 0.538717
0.991322 0.251844 0.539314
0.000000 0.560340 0.553189
0.214520 0.560436 0.552129
0.491465 0.561474 0.552235
0.767837 0.563386 0.553420
1.000000 0.565491 0.554987
0.000000 0.871390 0.565647
0.235607 0.872428 0.565753
0.511979 0.874340 0.566938
0.787828 0.877048 0.569108
1.000000 0.879855 0.571546
0.000000 1.000000 0.573439
0.250380 1.000000 0.574715
0.526296 1.000000 0.576952
0.801723 1.000000 0.580049
1.000000 1.000000 0.583270
0.000000 0.000000 0.817135
0.176148 0.000000 0.814829
0.453713 0.000000 0.813769
0.730658 0.000000 0.813875
0.974656 0.000000 0.814472
0.000000 0.246238 0.828347
0.197855 0.246334 0.827287
0.474800 0.247373 0.827393
0.751171 0.249284 0.828578
0.993825 0.251389 0.830146
0.000000 0.557288 0.840805
0.218942 0.558327 0.840911
0.495313 0.560238 0.842096
0.771162 0.562946 0.844266
1.000000 0.565753 0.846704
0.000000 0.869281 0.854429
0.239455 0.871192 0.855614
0.515304 0.873900 0.857784
0.790685 0.877320 0.860835
1.000000 0.880737 0.864028
0.000000 1.000000 0.863391
0.253772 1.000000 0.865628
0.529199 1.000000 0.868725
0.804203 1.000000 0.872565
1.000000 1.000000 0.876389
0.000000 0.000000 1.000000
0.180650 0.000000 1.000000
0.457609 0.000000 1.000000
0.733993 0.000000 1.000000
0.976655 0.000000 1.000000
0.000000 0.242647 1.000000
0.201751 0.243700 1.000000
0.478135 0.245623 1.000000
0.753992 0.248340 1.000000
0.995619 0.251153 1.000000
0.000000 0.554654 1.000000
0.222277 0.556577 1.000000
0.498133 0.559294 1.000000
0.773520 0.562719 1.000000
1.000000 0.566140 1.000000
0.000000 0.867531 1.000000
0.242275 0.870248 1.000000
0.517662 0.873673 1.000000
0.792642 0.877713 1.000000
1.000000 0.881630 1.000000
0.000000 1.000000 1.000000
0.256176 1.000000 1.000000
0.531184 1.000000 1.000000
0.805845 1.000000 1.000000
1.000000 1.000000 1.000000
