betterCam/LUTs/Fujicolor_C200.cube
TITLE "Fujicolor C200 Simulation"
LUT_3D_SIZE 5
0.000000 0.000000 0.000000
0.202190 0.000000 0.000000
0.463978 0.000000 0.000000
0.725490 0.000000 0.000000
0.986726 0.000000 0.000000
0.000000 0.271843 0.000000
0.215414 0.269986 0.000000
0.476926 0.268579 0.000000
0.738162 0.267622 0.000000
0.999122 0.267114 0.000000
0.000000 0.551759 0.000000
0.228362 0.550352 0.000000
0.489598 0.549395 0.000000
0.750558 0.548887 0.000000
1.000000 0.548829 0.000000
0.000000 0.832126 0.003310
0.241034 0.831169 0.003587
0.501994 0.830661 0.004167
0.762678 0.830603 0.005053
1.000000 0.830995 0.006243
0.000000 1.000000 0.011048
0.253430 1.000000 0.011628
0.514114 1.000000 0.012514
0.774522 1.000000 0.013704
1.000000 1.000000 0.015198
0.000000 0.000000 0.245911
0.206101 0.000000 0.245579
0.467613 0.000000 0.245550
0.728849 0.000000 0.245827
0.989809 0.000000 0.246408
0.000000 0.268134 0.253039
0.219049 0.266727 0.253011
0.480285 0.265770 0.253288
0.741245 0.265262 0.253868
1.000000 0.265204 0.254754
0.000000 0.548500 0.260472
0.231721 0.547543 0.260749
0.492681 0.547035 0.261329
0.753365 0.546977 0.262215
1.000000 0.547369 0.263405
0.000000 0.829316 0.268209
0.244117 0.828809 0.268790
0.504801 0.828751 0.269676
0.765209 0.829142 0.270866
1.000000 0.829984 0.272360
0.000000 1.000000 0.276251
0.256237 1.000000 0.277137
0.516645 1.000000 0.278327
0.776776 1.000000 0.279821
1.000000 1.000000 0.281620
0.000000 0.000000 0.510201
0.209736 0.000000 0.510173
0.470972 0.000000 0.510450
0.731932 0.000000 0.511030
0.992616 0.000000 0.511916
0.000000 0.264875 0.517634
0.222408 0.263917 0.517910
0.483368 0.263410 0.518491
0.744052 0.263352 0.519377
1.000000 0.263743 0.520567
0.000000 0.545691 0.525371
0.234804 0.545183 0.525952
0.495488 0.545125 0.526838
0.755896 0.545517 0.528027
1.000000 0.546358 0.529522
0.000000 0.826957 0.533413
0.246924 0.826899 0.534299
0.507331 0.827290 0.535488
0.767463 0.828131 0.536983
1.000000 0.829422 0.538782
0.000000 1.000000 0.541759
0.258767 1.000000 0.542949
0.518899 1.000000 0.544444
0.778755 1.000000 0.546243
1.000000 1.000000 0.548346
0.000000 0.000000 0.774796
0.213095 0.000000 0.775072
0.474055 0.000000 0.775653
0.734739 0.000000 0.776539
0.995147 0.000000 0.777728
0.000000 0.262065 0.782533
0.225490 0.261558 0.783114
0.486174 0.261499 0.783999
0.746582 0.261891 0.785189
1.000000 0.262732 0.786684
0.000000 0.543331 0.790575
0.237610 0.543273 0.791460
0.498018 0.543665 0.792650
0.758150 0.544506 0.794145
1.000000 0.545797 0.795944
0.000000 0.825046 0.798921
0.249454 0.825438 0.800111
0.509586 0.826279 0.801606
0.769442 0.827570 0.803405
1.000000 0.829311 0.805508
0.000890 1.000000 0.807572
0.261022 1.000000 0.809067
0.520878 1.000000 0.810866
0.780458 1.000000 0.812969
1.000000 1.000000 0.815377
0.000000 0.000000 1.000000
0.216177 0.000000 1.000000
0.476861 0.000000 1.000000
0.737269 0.000000 1.000000
0.997401 0.000000 1.000000
0.000000 0.259705 1.000000
0.228297 0.259647 1.000000
0.488705 0.260039 1.000000
0.748837 0.260880 1.000000
1.000000 0.262171 1.000000
0.000000 0.541421 1.000000
0.240141 0.541812 1.000000
0.500273 0.542654 1.000000
0.760129 0.543945 1.000000
1.000000 0.545685 1.000000
0.000000 0.823586 1.000000
0.251709 0.824427 1.000000
0.511565 0.825718 1.000000
0.771145 0.827459 1.000000
1.000000 0.829649 1.000000
0.003145 1.000000 1.000000
0.263001 1.000000 1.000000
0.522581 1.000000 1.000000
0.781885 1.000000 1.000000
1.000000 1.000000 1.000000
