betterCam/LUTs/Fujicolor_C200.cube
TITLE "Fujicolor C200 Simulation"
LUT_3D_SIZE 9
0.000000 0.000000 0.000000
0.071192 0.000000 0.000000
0.202190 0.000000 0.000000
0.333118 0.000000 0.000000
0.463978 0.000000 0.000000
0.594768 0.000000 0.000000
0.725490 0.000000 0.000000
0.856143 0.000000 0.000000
0.986726 0.000000 0.000000
0.000000 0.132053 0.000000
0.077908 0.130956 0.000000
0.208836 0.129971 0.000000
0.339696 0.129099 0.000000
0.470486 0.128340 0.000000
0.601208 0.127692 0.000000
0.731861 0.127157 0.000000
0.862444 0.126735 0.000000
0.992959 0.126425 0.000000
0.000000 0.271843 0.000000
0.084554 0.270858 0.000000
0.215414 0.269986 0.000000
0.346204 0.269226 0.000000
0.476926 0.268579 0.000000
0.607578 0.268044 0.000000
0.738162 0.267622 0.000000
0.868677 0.267312 0.000000
0.999122 0.267114 0.000000
0.000000 0.411745 0.000000
0.091132 0.410873 0.000000
0.221922 0.410113 0.000000
0.352644 0.409466 0.000000
0.483296 0.408931 0.000000
0.613880 0.408508 0.000000
0.744394 0.408198 0.000000
0.874840 0.408001 0.000000
1.000000 0.407916 0.000000
0.000000 0.551759 0.000000
0.097640 0.551000 0.000000
0.228362 0.550352 0.000000
0.359014 0.549818 0.000000
0.489598 0.549395 0.000000
0.620112 0.549085 0.000000
0.750558 0.548887 0.000000
0.880934 0.548802 0.000000
1.000000 0.548829 0.000000
0.000000 0.691886 0.000000
0.104080 0.691239 0.000000
0.234732 0.690704 0.000000
0.365316 0.690282 0.000000
0.495830 0.689972 0.000109
0.626276 0.689774 0.000437
0.756652 0.689689 0.000842
0.886960 0.689716 0.001322
1.000000 0.689856 0.001879
0.000000 0.832126 0.003310
0.110450 0.831591 0.003410
0.241034 0.831169 0.003587
0.371548 0.830859 0.003839
0.501994 0.830661 0.004167
0.632370 0.830576 0.004572
0.762678 0.830603 0.005053
0.892916 0.830742 0.005610
1.000000 0.830995 0.006243
0.000000 0.972478 0.007141
0.116752 0.972055 0.007317
0.247266 0.971745 0.007569
0.377712 0.971548 0.007898
0.508088 0.971462 0.008303
0.638396 0.971490 0.008783
0.768634 0.971629 0.009340
0.898804 0.971881 0.009973
1.000000 0.972246 0.010682
0.000000 1.000000 0.011048
0.122984 1.000000 0.011300
0.253430 1.000000 0.011628
0.383806 1.000000 0.012033
0.514114 1.000000 0.012514
0.644352 1.000000 0.013071
0.774522 1.000000 0.013704
0.904622 1.000000 0.014413
1.000000 1.000000 0.015198
0.000000 0.000000 0.113880
0.073251 0.000000 0.113600
0.204180 0.000000 0.113395
0.335039 0.000000 0.113267
0.465830 0.000000 0.113215
0.596551 0.000000 0.113239
0.727204 0.000000 0.113339
0.857788 0.000000 0.113515
0.988302 0.000000 0.113768
0.000000 0.130030 0.117330
0.079898 0.129045 0.117126
0.210757 0.128173 0.116998
0.341548 0.127414 0.116945
0.472269 0.126766 0.116969
0.602922 0.126231 0.117070
0.733505 0.125809 0.117246
0.864020 0.125499 0.117498
0.994465 0.125301 0.117827
0.000000 0.269932 0.120856
0.086475 0.269060 0.120728
0.217266 0.268300 0.120676
0.347987 0.267653 0.120700
0.478640 0.267118 0.120800
0.609223 0.266696 0.120976
0.739738 0.266386 0.121229
0.870183 0.266188 0.121557
1.000000 0.266103 0.121962
0.000000 0.409947 0.124458
0.092984 0.409187 0.124406
0.223705 0.408540 0.124430
0.354358 0.408005 0.124530
0.484941 0.407582 0.124707
0.615456 0.407272 0.124959
0.745901 0.407075 0.125288
0.876278 0.406989 0.125692
1.000000 0.407017 0.126173
0.000000 0.550074 0.128137
0.099423 0.549426 0.128161
0.230076 0.548892 0.128261
0.360659 0.548469 0.128437
0.491174 0.548159 0.128689
0.621619 0.547961 0.129018
0.751996 0.547876 0.129423
0.882303 0.547903 0.129903
1.000000 0.548043 0.130460
0.000000 0.690313 0.131891
0.105794 0.689778 0.131991
0.236377 0.689356 0.132168
0.366892 0.689046 0.132420
0.497337 0.688848 0.132748
0.627714 0.688763 0.133153
0.758021 0.688790 0.133634
0.888260 0.688930 0.134191
1.000000 0.689182 0.134824
0.000000 0.830665 0.135722
0.112095 0.830242 0.135898
0.242610 0.829932 0.136150
0.373055 0.829735 0.136479
0.503432 0.829650 0.136884
0.633739 0.829677 0.137364
0.763978 0.829816 0.137921
0.894147 0.830068 0.138554
1.000000 0.830433 0.139263
0.000000 0.971129 0.139628
0.118328 0.970819 0.139881
0.248773 0.970621 0.140209
0.379150 0.970536 0.140614
0.509457 0.970563 0.141095
0.639696 0.970703 0.141652
0.769865 0.970955 0.142285
0.899966 0.971320 0.142994
1.000000 0.971796 0.143779
0.000000 1.000000 0.143611
0.124491 1.000000 0.143940
0.254868 1.000000 0.144344
0.385175 1.000000 0.144825
0.515414 1.000000 0.145382
0.645583 1.000000 0.146015
0.775684 1.000000 0.146724
0.905715 1.000000 0.147510
1.000000 1.000000 0.148371
0.000000 0.000000 0.245911
0.075241 0.000000 0.245707
0.206101 0.000000 0.245579
0.336891 0.000000 0.245526
0.467613 0.000000 0.245550
0.598265 0.000000 0.245650
0.728849 0.000000 0.245827
0.859363 0.000000 0.246079
0.989809 0.000000 0.246408
0.000000 0.128119 0.249437
0.081819 0.127247 0.249309
0.212609 0.126487 0.249257
0.343331 0.125840 0.249281
0.473983 0.125305 0.249381
0.604567 0.124883 0.249557
0.735081 0.124573 0.249810
0.865527 0.124375 0.250138
0.995903 0.124290 0.250543
0.000000 0.268134 0.253039
0.088327 0.267374 0.252987
0.219049 0.266727 0.253011
0.349701 0.266192 0.253111
0.480285 0.265770 0.253288
0.610799 0.265460 0.253540
0.741245 0.265262 0.253868
0.871621 0.265177 0.254273
1.000000 0.265204 0.254754
0.000000 0.408261 0.256718
0.094767 0.407614 0.256742
0.225419 0.407079 0.256842
0.356003 0.406656 0.257018
0.486517 0.406346 0.257270
0.616963 0.406149 0.257599
0.747339 0.406063 0.258004
0.877647 0.406091 0.258484
1.000000 0.406230 0.259041
0.000000 0.548500 0.260472
0.101137 0.547965 0.260572
0.231721 0.547543 0.260749
0.362235 0.547233 0.261001
0.492681 0.547035 0.261329
0.623057 0.546950 0.261734
0.753365 0.546977 0.262215
0.883603 0.547117 0.262772
1.000000 0.547369 0.263405
0.000000 0.688852 0.264303
0.107439 0.688430 0.264479
0.237953 0.688120 0.264731
0.368399 0.687922 0.265060
0.498775 0.687837 0.265464
0.629083 0.687864 0.265945
0.759321 0.688004 0.266502
0.889491 0.688256 0.267135
1.000000 0.688620 0.267844
0.000000 0.829316 0.268209
0.113671 0.829006 0.268462
0.244117 0.828809 0.268790
0.374493 0.828723 0.269195
0.504801 0.828751 0.269676
0.635039 0.828890 0.270233
0.765209 0.829142 0.270866
0.895309 0.829507 0.271575
1.000000 0.829984 0.272360
0.000000 0.969893 0.272192
0.119835 0.969695 0.272521
0.250211 0.969610 0.272925
0.380519 0.969637 0.273406
0.510757 0.969777 0.273963
0.640927 0.970029 0.274596
0.771027 0.970393 0.275305
0.901059 0.970870 0.276090
1.000000 0.971460 0.276952
0.000000 1.000000 0.276251
0.125929 1.000000 0.276656
0.256237 1.000000 0.277137
0.386475 1.000000 0.277693
0.516645 1.000000 0.278327
0.646745 1.000000 0.279036
0.776776 1.000000 0.279821
0.906739 1.000000 0.280682
1.000000 1.000000 0.281620
0.000000 0.000000 0.378018
0.077162 0.000000 0.377890
0.207953 0.000000 0.377838
0.338674 0.000000 0.377862
0.469327 0.000000 0.377962
0.599910 0.000000 0.378138
0.730425 0.000000 0.378390
0.860870 0.000000 0.378719
0.991247 0.000000 0.379124
0.000000 0.126321 0.381620
0.083671 0.125561 0.381568
0.214392 0.124914 0.381592
0.345045 0.124379 0.381692
0.475628 0.123957 0.381869
0.606143 0.123647 0.382121
0.736588 0.123449 0.382449
0.866965 0.123364 0.382854
0.997272 0.123391 0.383335
0.000000 0.266448 0.385299
0.090110 0.265801 0.385323
0.220763 0.265266 0.385423
0.351346 0.264843 0.385599
0.481861 0.264533 0.385851
0.612306 0.264336 0.386180
0.742683 0.264251 0.386585
0.872990 0.264278 0.387065
1.000000 0.264417 0.387622
0.000000 0.406688 0.389053
0.096481 0.406153 0.389153
0.227064 0.405730 0.389329
0.357579 0.405420 0.389582
0.488024 0.405222 0.389910
0.618401 0.405137 0.390315
0.748708 0.405164 0.390796
0.878947 0.405304 0.391353
1.000000 0.405556 0.391986
0.000000 0.547039 0.392884
0.102782 0.546617 0.393060
0.233297 0.546307 0.393312
0.363742 0.546109 0.393641
0.494119 0.546024 0.394045
0.624426 0.546051 0.394526
0.754665 0.546191 0.395083
0.884834 0.546443 0.395716
1.000000 0.546807 0.396425
0.000000 0.687504 0.396790
0.109015 0.687194 0.397043
0.239460 0.686996 0.397371
0.369837 0.686911 0.397776
0.500144 0.686938 0.398257
0.630383 0.687078 0.398814
0.760552 0.687330 0.399447
0.890653 0.687694 0.400156
1.000000 0.688171 0.400941
0.000000 0.828080 0.400773
0.115178 0.827883 0.401102
0.245555 0.827797 0.401506
0.375862 0.827825 0.401987
0.506101 0.827964 0.402544
0.636270 0.828216 0.403177
0.766371 0.828581 0.403886
0.896402 0.829058 0.404671
1.000000 0.829647 0.405533
0.000000 0.968769 0.404832
0.121273 0.968684 0.405237
0.251580 0.968711 0.405718
0.381819 0.968851 0.406274
0.511988 0.969103 0.406907
0.642088 0.969467 0.407617
0.772120 0.969944 0.408402
0.902082 0.970534 0.409263
1.000000 0.971235 0.410201
0.000000 1.000000 0.408967
0.127298 1.000000 0.409448
0.257536 1.000000 0.410005
0.387706 1.000000 0.410638
0.517806 1.000000 0.411347
0.647838 1.000000 0.412132
0.777800 1.000000 0.412994
0.907694 1.000000 0.413931
1.000000 1.000000 0.414945
0.000000 0.000000 0.510201
0.079014 0.000000 0.510149
0.209736 0.000000 0.510173
0.340388 0.000000 0.510273
0.470972 0.000000 0.510450
0.601486 0.000000 0.510702
0.731932 0.000000 0.511030
0.862308 0.000000 0.511435
0.992616 0.000000 0.511916
0.000000 0.124635 0.513880
0.085454 0.123988 0.513904
0.216106 0.123453 0.514004
0.346690 0.123031 0.514180
0.477204 0.122721 0.514432
0.607650 0.122523 0.514761
0.738026 0.122438 0.515165
0.868334 0.122465 0.515646
0.998572 0.122605 0.516203
0.000000 0.264875 0.517634
0.091824 0.264340 0.517734
0.222408 0.263917 0.517910
0.352922 0.263607 0.518163
0.483368 0.263410 0.518491
0.613744 0.263324 0.518896
0.744052 0.263352 0.519377
0.874290 0.263491 0.519934
1.000000 0.263743 0.520567
0.000000 0.405227 0.521465
0.098126 0.404804 0.521641
0.228640 0.404494 0.521893
0.359086 0.404296 0.522222
0.489462 0.404211 0.522626
0.619770 0.404238 0.523107
0.750008 0.404378 0.523664
0.880178 0.404630 0.524297
1.000000 0.404994 0.525006
0.000000 0.545691 0.525371
0.104358 0.545381 0.525624
0.234804 0.545183 0.525952
0.365180 0.545098 0.526357
0.495488 0.545125 0.526838
0.625726 0.545265 0.527394
0.755896 0.545517 0.528027
0.885996 0.545881 0.528737
1.000000 0.546358 0.529522
0.000000 0.686267 0.529354
0.110522 0.686070 0.529683
0.240898 0.685985 0.530087
0.371206 0.686012 0.530568
0.501444 0.686151 0.531125
0.631614 0.686403 0.531758
0.761714 0.686768 0.532467
0.891745 0.687245 0.533252
1.000000 0.687834 0.534114
0.000000 0.826957 0.533413
0.116616 0.826871 0.533818
0.246924 0.826899 0.534299
0.377162 0.827038 0.534855
0.507331 0.827290 0.535488
0.637432 0.827655 0.536198
0.767463 0.828131 0.536983
0.897426 0.828721 0.537844
1.000000 0.829422 0.538782
0.000000 0.967758 0.537548
0.122641 0.967785 0.538029
0.252880 0.967925 0.538586
0.383049 0.968177 0.539219
0.513150 0.968541 0.539928
0.643181 0.969018 0.540713
0.773144 0.969607 0.541575
0.903037 0.970309 0.542512
1.000000 0.971123 0.543526
0.000000 1.000000 0.541759
0.128598 1.000000 0.542316
0.258767 1.000000 0.542949
0.388868 1.000000 0.543658
0.518899 1.000000 0.544444
0.648862 1.000000 0.545305
0.778755 1.000000 0.546243
0.908580 1.000000 0.547256
1.000000 1.000000 0.548346
0.000000 0.000000 0.642461
0.080797 0.000000 0.642485
0.211450 0.000000 0.642585
0.342033 0.000000 0.642761
0.472548 0.000000 0.643013
0.602993 0.000000 0.643342
0.733370 0.000000 0.643746
0.863677 0.000000 0.644227
0.993916 0.000000 0.644784
0.000000 0.123062 0.646215
0.087168 0.122527 0.646315
0.217751 0.122105 0.646491
0.348266 0.121795 0.646744
0.478711 0.121597 0.647072
0.609088 0.121512 0.647477
0.739395 0.121539 0.647958
0.869634 0.121678 0.648515
0.999803 0.121931 0.649148
0.000000 0.263414 0.650046
0.093469 0.262991 0.650222
0.223984 0.262681 0.650474
0.354429 0.262484 0.650803
0.484806 0.262398 0.651207
0.615113 0.262426 0.651688
0.745352 0.262565 0.652245
0.875521 0.262817 0.652878
1.000000 0.263182 0.653587
0.000000 0.403878 0.653952
0.099702 0.403568 0.654205
0.230147 0.403370 0.654533
0.360524 0.403285 0.654938
0.490831 0.403312 0.655419
0.621070 0.403452 0.655975
0.751239 0.403704 0.656608
0.881339 0.404068 0.657318
1.000000 0.404545 0.658103
0.000000 0.544455 0.657935
0.105865 0.544257 0.658264
0.236242 0.544172 0.658668
0.366549 0.544199 0.659149
0.496787 0.544339 0.659706
0.626957 0.544591 0.660339
0.757057 0.544955 0.661048
0.887089 0.545432 0.661833
1.000000 0.546021 0.662695
0.000000 0.685144 0.661994
0.111959 0.685059 0.662399
0.242267 0.685086 0.662879
0.372505 0.685225 0.663436
0.502675 0.685477 0.664069
0.632775 0.685842 0.664779
0.762807 0.686319 0.665564
0.892769 0.686908 0.666425
1.000000 0.687610 0.667363
0.000000 0.825945 0.666129
0.117985 0.825972 0.666610
0.248223 0.826112 0.667167
0.378393 0.826364 0.667800
0.508493 0.826729 0.668509
0.638525 0.827205 0.669294
0.768487 0.827795 0.670156
0.898381 0.828496 0.671093
1.000000 0.829310 0.672107
0.000000 0.966859 0.670340
0.123941 0.966999 0.670897
0.254111 0.967251 0.671530
0.384211 0.967615 0.672239
0.514243 0.968092 0.673025
0.644205 0.968681 0.673886
0.774099 0.969383 0.674824
0.903923 0.970197 0.675837
1.000000 0.971124 0.676927
0.000000 1.000000 0.674628
0.129829 1.000000 0.675261
0.259929 1.000000 0.675970
0.389961 1.000000 0.676755
0.519923 1.000000 0.677617
0.649817 1.000000 0.678554
0.779641 1.000000 0.679568
0.909396 1.000000 0.680658
1.000000 1.000000 0.681824
0.000000 0.000000 0.774796
0.082511 0.000000 0.774896
0.213095 0.000000 0.775072
0.343609 0.000000 0.775325
0.474055 0.000000 0.775653
0.604431 0.000000 0.776058
0.734739 0.000000 0.776539
0.864977 0.000000 0.777095
0.995147 0.000000 0.777728
0.000000 0.121601 0.778627
0.088813 0.121178 0.778803
0.219327 0.120868 0.779055
0.349773 0.120671 0.779384
0.480149 0.120586 0.779788
0.610457 0.120613 0.780269
0.740695 0.120752 0.780826
0.870865 0.121004 0.781459
1.000000 0.121369 0.782168
0.000000 0.262065 0.782533
0.095045 0.261755 0.782786
0.225490 0.261558 0.783114
0.355867 0.261472 0.783519
0.486174 0.261499 0.783999
0.616413 0.261639 0.784556
0.746582 0.261891 0.785189
0.876683 0.262256 0.785899
1.000000 0.262732 0.786684
0.000000 0.402642 0.786516
0.101208 0.402444 0.786845
0.231585 0.402359 0.787249
0.361892 0.402386 0.787730
0.492131 0.402526 0.788287
0.622300 0.402778 0.788920
0.752401 0.403142 0.789629
0.882432 0.403619 0.790414
1.000000 0.404208 0.791276
0.000000 0.543331 0.790575
0.107303 0.543246 0.790980
0.237610 0.543273 0.791460
0.367849 0.543413 0.792017
0.498018 0.543665 0.792650
0.628119 0.544029 0.793359
0.758150 0.544506 0.794145
0.888113 0.545095 0.795006
1.000000 0.545797 0.795944
0.000000 0.684132 0.794710
0.113328 0.684160 0.795191
0.243567 0.684299 0.795748
0.373736 0.684551 0.796381
0.503837 0.684916 0.797090
0.633868 0.685393 0.797875
0.763831 0.685982 0.798737
0.893724 0.686684 0.799674
1.000000 0.687498 0.800688
0.000000 0.825046 0.798921
0.119285 0.825186 0.799478
0.249454 0.825438 0.800111
0.379555 0.825802 0.800820
0.509586 0.826279 0.801606
0.639549 0.826869 0.802467
0.769442 0.827570 0.803405
0.899267 0.828384 0.804418
1.000000 0.829311 0.805508
0.000000 0.966073 0.803209
0.125172 0.966325 0.803842
0.255273 0.966689 0.804551
0.385304 0.967166 0.805336
0.515267 0.967755 0.806198
0.645160 0.968457 0.807135
0.774985 0.969271 0.808149
0.904740 0.970198 0.809239
1.000000 0.971237 0.810404
0.000890 1.000000 0.807572
0.130991 1.000000 0.808281
0.261022 1.000000 0.809067
0.390985 1.000000 0.809928
0.520878 1.000000 0.810866
0.650702 1.000000 0.811879
0.780458 1.000000 0.812969
0.910144 1.000000 0.814135
1.000000 1.000000 0.815377
0.000000 0.000000 0.907208
0.084156 0.000000 0.907384
0.214670 0.000000 0.907636
0.345116 0.000000 0.907965
0.475492 0.000000 0.908369
0.605800 0.000000 0.908850
0.736038 0.000000 0.909407
0.866208 0.000000 0.910040
0.996308 0.000000 0.910749
0.000000 0.120252 0.911114
0.090388 0.119942 0.911367
0.220834 0.119745 0.911695
0.351210 0.119659 0.912100
0.481518 0.119687 0.912580
0.611756 0.119826 0.913137
0.741926 0.120078 0.913770
0.872026 0.120443 0.914480
1.000000 0.120920 0.915265
0.000000 0.260829 0.915097
0.096552 0.260631 0.915426
0.226928 0.260546 0.915830
0.357236 0.260573 0.916311
0.487474 0.260713 0.916868
0.617644 0.260965 0.917501
0.747744 0.261329 0.918210
0.877776 0.261806 0.918995
1.000000 0.262396 0.919857
0.000000 0.401518 0.919156
0.102646 0.401433 0.919561
0.232954 0.401460 0.920041
0.363192 0.401600 0.920598
0.493362 0.401852 0.921231
0.623462 0.402216 0.921940
0.753494 0.402693 0.922726
0.883456 0.403282 0.923587
1.000000 0.403984 0.924525
0.000000 0.542320 0.923291
0.108672 0.542347 0.923772
0.238910 0.542486 0.924329
0.369080 0.542738 0.924962
0.499180 0.543103 0.925671
0.629212 0.543580 0.926456
0.759174 0.544169 0.927318
0.889068 0.544871 0.928255
1.000000 0.545685 0.929269
0.000000 0.683234 0.927502
0.114628 0.683373 0.928059
0.244798 0.683625 0.928692
0.374898 0.683990 0.929401
0.504930 0.684466 0.930187
0.634892 0.685056 0.931048
0.764786 0.685757 0.931986
0.894610 0.686572 0.932999
1.000000 0.687498 0.934089
0.000000 0.824260 0.931790
0.120516 0.824512 0.932423
0.250616 0.824876 0.933132
0.380648 0.825353 0.933917
0.510610 0.825942 0.934778
0.640504 0.826644 0.935716
0.770328 0.827458 0.936730
0.900083 0.828385 0.937820
1.000000 0.829424 0.938985
0.000000 0.965399 0.936153
0.126334 0.965763 0.936862
0.256366 0.966240 0.937648
0.386328 0.966829 0.938509
0.516221 0.967531 0.939446
0.646046 0.968345 0.940460
0.775801 0.969271 0.941550
0.905488 0.970310 0.942716
1.000000 0.971462 0.943958
0.002052 1.000000 0.940593
0.132084 1.000000 0.941378
0.262046 1.000000 0.942239
0.391939 1.000000 0.943177
0.521764 1.000000 0.944191
0.651519 1.000000 0.945280
0.781206 1.000000 0.946446
0.910823 1.000000 0.947688
1.000000 1.000000 0.949007
0.000000 0.000000 1.000000
0.085732 0.000000 1.000000
0.216177 0.000000 1.000000
0.346554 0.000000 1.000000
0.476861 0.000000 1.000000
0.607100 0.000000 1.000000
0.737269 0.000000 1.000000
0.867370 0.000000 1.000000
0.997401 0.000000 1.000000
0.000000 0.119016 1.000000
0.091895 0.118819 1.000000
0.222272 0.118733 1.000000
0.352579 0.118761 1.000000
0.482818 0.118900 1.000000
0.612987 0.119152 1.000000
0.743088 0.119517 1.000000
0.873119 0.119994 1.000000
1.000000 0.120583 1.000000
0.000000 0.259705 1.000000
0.097990 0.259620 1.000000
0.228297 0.259647 1.000000
0.358536 0.259787 1.000000
0.488705 0.260039 1.000000
0.618806 0.260403 1.000000
0.748837 0.260880 1.000000
0.878800 0.261470 1.000000
1.000000 0.262171 1.000000
0.000000 0.400507 1.000000
0.104015 0.400534 1.000000
0.234254 0.400674 1.000000
0.364423 0.400926 1.000000
0.494524 0.401290 1.000000
0.624555 0.401767 1.000000
0.754518 0.402356 1.000000
0.884411 0.403058 1.000000
1.000000 0.403872 1.000000
0.000000 0.541421 1.000000
0.109972 0.541560 1.000000
0.240141 0.541812 1.000000
0.370242 0.542177 1.000000
0.500273 0.542654 1.000000
0.630236 0.543243 1.000000
0.760129 0.543945 1.000000
0.889953 0.544759 1.000000
1.000000 0.545685 1.000000
0.000000 0.682447 1.000000
0.115859 0.682699 1.000000
0.245960 0.683064 1.000000
0.375991 0.683540 1.000000
0.505954 0.684130 1.000000
0.635847 0.684831 1.000000
0.765671 0.685645 1.000000
0.895427 0.686572 1.000000
1.000000 0.687611 1.000000
0.000000 0.823586 1.000000
0.121678 0.823950 1.000000
0.251709 0.824427 1.000000
0.381671 0.825016 1.000000
0.511565 0.825718 1.000000
0.641389 0.826532 1.000000
0.771145 0.827459 1.000000
0.900831 0.828498 1.000000
1.000000 0.829649 1.000000
0.000000 0.964837 1.000000
0.127427 0.965314 1.000000
0.257389 0.965903 1.000000
0.387283 0.966605 1.000000
0.517107 0.967419 1.000000
0.646863 0.968345 1.000000
0.776549 0.969384 1.000000
0.906167 0.970536 1.000000
1.000000 0.971799 1.000000
0.003145 1.000000 1.000000
0.133107 1.000000 1.000000
0.263001 1.000000 1.000000
0.392825 1.000000 1.000000
0.522581 1.000000 1.000000
0.652267 1.000000 1.000000
0.781885 1.000000 1.000000
0.911433 1.000000 1.000000
1.000000 1.000000 1.000000
