betterCam/LUTs/Fujicolor_400.cube
TITLE "Fujicolor 400 Simulation"
LUT_3D_SIZE 9
0.000000 0.000000 0.000000
0.016772 0.000000 0.000000
0.156896 0.000000 0.000000
0.296825 0.000000 0.000000
0.436565 0.000000 0.000000
0.576119 0.000000 0.000000
0.715493 0.000000 0.000000
0.854692 0.000000 0.000000
0.965648 0.000000 0.000000
0.000000 0.108199 0.000000
0.028967 0.106205 0.000000
0.168896 0.104507 0.000000
0.308636 0.103097 0.000000
0.448190 0.101969 0.000000
0.587564 0.101116 0.000000
0.726763 0.100530 0.000000
0.865791 0.100204 0.000000
0.975654 0.099604 0.000000
0.000000 0.261682 0.000000
0.040967 0.259984 0.000000
0.180707 0.258574 0.000000
0.320261 0.257446 0.000000
0.459635 0.256593 0.000000
0.598834 0.256007 0.000000
0.737862 0.255681 0.000000
0.876724 0.255607 0.000000
0.985588 0.255236 0.000000
0.000000 0.415461 0.000000
0.052778 0.414051 0.000000
0.192332 0.412923 0.000000
0.331706 0.412070 0.000000
0.470905 0.411484 0.000000
0.609933 0.411158 0.000000
0.748795 0.411084 0.000000
0.887497 0.411254 0.000000
0.995452 0.411105 0.000000
0.000000 0.569528 0.000000
0.064403 0.568400 0.000000
0.203777 0.567547 0.000000
0.342976 0.566961 0.000000
0.482004 0.566635 0.000000
0.620866 0.566561 0.000000
0.759568 0.566731 0.000000
0.898115 0.567137 0.000000
1.000000 0.567203 0.000000
0.000000 0.723877 0.000000
0.075848 0.723024 0.000000
0.215047 0.722438 0.000000
0.354075 0.722112 0.000000
0.492937 0.722038 0.000000
0.631639 0.722208 0.000000
0.770186 0.722614 0.000000
0.908584 0.723247 0.000000
1.000000 0.723520 0.000000
0.000000 0.878501 0.000000
0.087118 0.877915 0.000000
0.226146 0.877589 0.000000
0.365008 0.877515 0.000000
0.503710 0.877685 0.000000
0.642257 0.878091 0.000000
0.780655 0.878724 0.000000
0.918910 0.879575 0.000000
1.000000 0.880048 0.000000
0.000000 1.000000 0.000000
0.096750 1.000000 0.000000
0.235688 1.000000 0.000000
0.374458 1.000000 0.000000
0.513067 1.000000 0.000000
0.651519 1.000000 0.000000
0.789822 1.000000 0.000000
0.927981 1.000000 0.000000
1.000000 1.000000 0.000000
0.000000 1.000000 0.000000
0.103135 1.000000 0.000000
0.241905 1.000000 0.000000
0.380513 1.000000 0.000000
0.518966 1.000000 0.000000
0.657269 1.000000 0.000000
0.795428 1.000000 0.000000
0.933451 1.000000 0.000000
1.000000 1.000000 0.000000
0.000000 0.000000 0.107151
0.020634 0.000000 0.104096
0.160563 0.000000 0.101406
0.300303 0.000000 0.099073
0.439857 0.000000 0.097089
0.579232 0.000000 0.095445
0.718430 0.000000 0.094131
0.857458 0.000000 0.093138
0.967321 0.000000 0.091931
0.000000 0.104631 0.110855
0.032634 0.102933 0.108165
0.172374 0.101523 0.105832
0.311928 0.100395 0.103848
0.451303 0.099542 0.102204
0.590501 0.098956 0.100890
0.729529 0.098630 0.099897
0.868391 0.098556 0.099216
0.977255 0.098185 0.098296
0.000000 0.258410 0.114924
0.044445 0.257000 0.112591
0.183999 0.255872 0.110607
0.323374 0.255019 0.108963
0.462572 0.254433 0.107649
0.601600 0.254107 0.106656
0.740462 0.254033 0.105975
0.879164 0.254203 0.105596
0.987120 0.254054 0.104954
0.000000 0.412477 0.119350
0.056070 0.411349 0.117366
0.195445 0.410496 0.115722
0.334643 0.409910 0.114408
0.473671 0.409584 0.113415
0.612533 0.409510 0.112734
0.751235 0.409680 0.112355
0.889782 0.410086 0.112268
0.996917 0.410152 0.111894
0.000000 0.566826 0.124125
0.067516 0.565973 0.122481
0.206714 0.565387 0.121167
0.345742 0.565061 0.120174
0.484604 0.564987 0.119493
0.623306 0.565157 0.119114
0.761853 0.565563 0.119027
0.900251 0.566196 0.119220
1.000000 0.566469 0.119105
0.000000 0.721450 0.129240
0.078785 0.720864 0.127926
0.217813 0.720538 0.126933
0.356675 0.720464 0.126252
0.495377 0.720634 0.125873
0.633924 0.721040 0.125786
0.772322 0.721673 0.125979
0.910577 0.722524 0.126443
1.000000 0.722997 0.126577
0.000000 0.876341 0.134685
0.089884 0.876015 0.133692
0.228746 0.875941 0.133011
0.367448 0.876111 0.132632
0.505995 0.876517 0.132545
0.644393 0.877150 0.132738
0.782648 0.878001 0.133202
0.920765 0.879062 0.133923
1.000000 0.879725 0.134296
0.000000 1.000000 0.138985
0.099426 1.000000 0.138379
0.238197 1.000000 0.138069
0.376805 1.000000 0.138043
0.515258 1.000000 0.138291
0.653560 1.000000 0.138802
0.791720 1.000000 0.139566
0.929742 1.000000 0.140571
1.000000 1.000000 0.141201
0.000000 1.000000 0.140514
0.105643 1.000000 0.140203
0.244252 1.000000 0.140177
0.382704 1.000000 0.140425
0.521007 1.000000 0.140937
0.659166 1.000000 0.141701
0.797189 1.000000 0.142705
0.935081 1.000000 0.143938
1.000000 1.000000 0.144777
0.000000 0.000000 0.248434
0.024301 0.000000 0.245744
0.164041 0.000000 0.243411
0.303595 0.000000 0.241427
0.442970 0.000000 0.239783
0.582168 0.000000 0.238469
0.721196 0.000000 0.237476
0.860058 0.000000 0.236796
0.968922 0.000000 0.235875
0.000000 0.101359 0.252503
0.036112 0.099949 0.250170
0.175666 0.098821 0.248186
0.315041 0.097968 0.246542
0.454239 0.097382 0.245228
0.593267 0.097056 0.244235
0.732129 0.096982 0.243555
0.870831 0.097152 0.243175
0.978787 0.097003 0.242533
0.000000 0.255426 0.256929
0.047737 0.254298 0.254945
0.187112 0.253445 0.253301
0.326310 0.252859 0.251987
0.465338 0.252533 0.250994
0.604200 0.252459 0.250314
0.742902 0.252629 0.249934
0.881449 0.253035 0.249847
0.988584 0.253101 0.249473
0.000000 0.409775 0.261704
0.059183 0.408922 0.260060
0.198381 0.408336 0.258746
0.337409 0.408010 0.257753
0.476271 0.407936 0.257073
0.614973 0.408106 0.256693
0.753520 0.408512 0.256606
0.891918 0.409145 0.256799
0.998317 0.409418 0.256685
0.000000 0.564399 0.266819
0.070452 0.563813 0.265505
0.209480 0.563487 0.264512
0.348342 0.563413 0.263832
0.487044 0.563583 0.263452
0.625591 0.563989 0.263365
0.763989 0.564622 0.263558
0.902244 0.565473 0.264022
1.000000 0.565946 0.264156
0.000000 0.719290 0.272264
0.081551 0.718964 0.271271
0.220413 0.718890 0.270591
0.359115 0.719060 0.270211
0.497662 0.719466 0.270124
0.636060 0.720099 0.270317
0.774315 0.720950 0.270781
0.912432 0.722011 0.271503
1.000000 0.722674 0.271875
0.000000 0.874441 0.278030
0.092484 0.874367 0.277350
0.231186 0.874537 0.276970
0.369733 0.874943 0.276883
0.508131 0.875576 0.277076
0.646386 0.876427 0.277540
0.784503 0.877488 0.278262
0.922489 0.878747 0.279230
1.000000 0.879593 0.279829
0.000000 1.000000 0.282718
0.101935 1.000000 0.282407
0.240543 1.000000 0.282381
0.378996 1.000000 0.282629
0.517298 1.000000 0.283140
0.655458 1.000000 0.283904
0.793480 1.000000 0.284909
0.931373 1.000000 0.286141
1.000000 1.000000 0.286981
0.000000 1.000000 0.284541
0.107990 1.000000 0.284515
0.246442 1.000000 0.284763
0.384745 1.000000 0.285275
0.522904 1.000000 0.286039
0.660927 1.000000 0.287043
0.798820 1.000000 0.288276
0.936590 1.000000 0.289723
1.000000 1.000000 0.290760
0.000000 0.000000 0.390082
0.027779 0.000000 0.387750
0.167334 0.000000 0.385765
0.306708 0.000000 0.384121
0.445906 0.000000 0.382807
0.584934 0.000000 0.381815
0.723796 0.000000 0.381134
0.862498 0.000000 0.380755
0.970454 0.000000 0.380112
0.000000 0.098375 0.394509
0.039405 0.097247 0.392524
0.178779 0.096394 0.390880
0.317977 0.095808 0.389566
0.457005 0.095482 0.388574
0.595867 0.095408 0.387893
0.734569 0.095579 0.387514
0.873116 0.095984 0.387426
0.980251 0.096050 0.387052
0.000000 0.252724 0.399283
0.050850 0.251871 0.397639
0.190048 0.251285 0.396325
0.329076 0.250959 0.395333
0.467938 0.250885 0.394652
0.606640 0.251056 0.394273
0.745187 0.251461 0.394185
0.883585 0.252094 0.394378
0.989984 0.252367 0.394264
0.000000 0.407348 0.404398
0.062119 0.406762 0.403084
0.201147 0.406436 0.402091
0.340009 0.406362 0.401411
0.478711 0.406533 0.401032
0.617258 0.406938 0.400944
0.755656 0.407571 0.401137
0.893911 0.408423 0.401601
0.999655 0.408895 0.401735
0.000000 0.562239 0.409843
0.073218 0.561913 0.408850
0.212080 0.561839 0.408170
0.350782 0.562010 0.407791
0.489329 0.562415 0.407703
0.627727 0.563048 0.407896
0.765982 0.563900 0.408360
0.904099 0.564960 0.409082
1.000000 0.565624 0.409454
0.000000 0.717390 0.415609
0.084151 0.717316 0.414929
0.222853 0.717487 0.414550
0.361400 0.717892 0.414462
0.499798 0.718525 0.414655
0.638053 0.719377 0.415119
0.776170 0.720437 0.415841
0.914156 0.721696 0.416809
1.000000 0.722542 0.417408
0.000000 0.872793 0.421688
0.094924 0.872964 0.421309
0.233471 0.873369 0.421221
0.371869 0.874002 0.421414
0.510124 0.874854 0.421878
0.648241 0.875914 0.422600
0.786227 0.877173 0.423568
0.924090 0.878622 0.424770
1.000000 0.879640 0.425584
0.000000 1.000000 0.426745
0.104281 1.000000 0.426719
0.242734 1.000000 0.426967
0.381036 1.000000 0.427478
0.519196 1.000000 0.428242
0.657218 1.000000 0.429247
0.795111 1.000000 0.430479
0.932882 1.000000 0.431927
1.000000 1.000000 0.432963
0.000000 1.000000 0.428853
0.110180 1.000000 0.429101
0.248483 1.000000 0.429613
0.386642 1.000000 0.430377
0.524665 1.000000 0.431381
0.662558 1.000000 0.432614
0.800328 1.000000 0.434062
0.937984 1.000000 0.435710
1.000000 1.000000 0.436929
0.000000 0.000000 0.532088
0.031072 0.000000 0.530104
0.170446 0.000000 0.528459
0.309644 0.000000 0.527145
0.448672 0.000000 0.526153
0.587535 0.000000 0.525472
0.726236 0.000000 0.525093
0.864784 0.000000 0.525005
0.971918 0.000000 0.524631
0.000000 0.095674 0.536863
0.042517 0.094820 0.535218
0.181715 0.094235 0.533904
0.320743 0.093909 0.532912
0.459606 0.093835 0.532231
0.598307 0.094005 0.531852
0.736855 0.094410 0.531764
0.875252 0.095043 0.531958
0.981651 0.095316 0.531843
0.000000 0.250297 0.541977
0.053786 0.249712 0.540663
0.192814 0.249386 0.539671
0.331677 0.249312 0.538990
0.470378 0.249482 0.538611
0.608926 0.249887 0.538523
0.747323 0.250520 0.538717
0.885578 0.251372 0.539180
0.991322 0.251844 0.539314
0.000000 0.405189 0.547422
0.064885 0.404863 0.546430
0.203748 0.404789 0.545749
0.342449 0.404959 0.545370
0.480997 0.405364 0.545282
0.619394 0.405997 0.545476
0.757649 0.406849 0.545939
0.895766 0.407909 0.546661
1.000000 0.408573 0.547033
0.000000 0.560340 0.553189
0.075819 0.560266 0.552508
0.214520 0.560436 0.552129
0.353068 0.560841 0.552041
0.491465 0.561474 0.552235
0.629720 0.562326 0.552698
0.767837 0.563386 0.553420
0.905823 0.564645 0.554388
1.000000 0.565491 0.554987
0.000000 0.715743 0.559267
0.086591 0.715913 0.558888
0.225139 0.716318 0.558800
0.363536 0.716951 0.558994
0.501791 0.717803 0.559457
0.639908 0.718863 0.560179
0.777894 0.720122 0.561147
0.915757 0.721571 0.562349
1.000000 0.722589 0.563163
0.000000 0.871390 0.565647
0.097210 0.871795 0.565559
0.235607 0.872428 0.565753
0.373862 0.873280 0.566216
0.511979 0.874340 0.566938
0.649965 0.875599 0.567906
0.787828 0.877048 0.569108
0.925573 0.878674 0.570530
1.000000 0.879855 0.571546
0.000000 1.000000 0.571057
0.106472 1.000000 0.571305
0.244775 1.000000 0.571817
0.382934 1.000000 0.572580
0.520956 1.000000 0.573585
0.658849 1.000000 0.574817
0.796620 1.000000 0.576265
0.934276 1.000000 0.577914
1.000000 1.000000 0.579133
0.000000 1.000000 0.573439
0.112221 1.000000 0.573951
0.250380 1.000000 0.574715
0.388403 1.000000 0.575719
0.526296 1.000000 0.576952
0.664066 1.000000 0.578400
0.801723 1.000000 0.580049
0.939273 1.000000 0.581884
1.000000 1.000000 0.583270
0.000000 0.000000 0.674442
0.034184 0.000000 0.672797
0.173382 0.000000 0.671483
0.312410 0.000000 0.670491
0.451273 0.000000 0.669810
0.589975 0.000000 0.669431
0.728522 0.000000 0.669343
0.866920 0.000000 0.669537
0.973318 0.000000 0.669422
0.000000 0.093246 0.679556
0.045453 0.092661 0.678242
0.184481 0.092335 0.677250
0.323344 0.092261 0.676569
0.462046 0.092431 0.676190
0.600593 0.092837 0.676102
0.738991 0.093470 0.676296
0.877245 0.094321 0.676759
0.982989 0.094793 0.676893
0.000000 0.248138 0.685001
0.056552 0.247812 0.684009
0.195415 0.247738 0.683328
0.334117 0.247908 0.682949
0.472664 0.248314 0.682861
0.611062 0.248947 0.683055
0.749316 0.249798 0.683518
0.887433 0.250858 0.684240
0.992602 0.251522 0.684612
0.000000 0.403289 0.690768
0.067486 0.403215 0.690087
0.206188 0.403385 0.689708
0.344735 0.403791 0.689620
0.483133 0.404424 0.689814
0.621387 0.405275 0.690277
0.759504 0.406335 0.690999
0.897491 0.407594 0.691967
1.000000 0.408440 0.692566
0.000000 0.558692 0.696846
0.078259 0.558862 0.696467
0.216806 0.559268 0.696379
0.355204 0.559901 0.696573
0.493458 0.560752 0.697036
0.631575 0.561812 0.697758
0.769562 0.563071 0.698726
0.907424 0.564520 0.699928
1.000000 0.565538 0.700742
0.000000 0.714339 0.703226
0.088877 0.714745 0.703138
0.227275 0.715378 0.703332
0.365529 0.716229 0.703795
0.503646 0.717289 0.704517
0.641633 0.718548 0.705485
0.779495 0.719997 0.706687
0.917240 0.721624 0.708109
1.000000 0.722804 0.709125
0.000000 0.870222 0.709897
0.099346 0.870855 0.710091
0.237600 0.871706 0.710554
0.375717 0.872766 0.711276
0.513704 0.874025 0.712244
0.651566 0.875474 0.713446
0.789311 0.877101 0.714868
0.926947 0.878894 0.716497
1.000000 0.880225 0.717699
0.000000 1.000000 0.715643
0.108513 1.000000 0.716155
0.246672 1.000000 0.716919
0.384695 1.000000 0.717923
0.522587 1.000000 0.719156
0.660358 1.000000 0.720603
0.798014 1.000000 0.722252
0.935564 1.000000 0.724087
1.000000 1.000000 0.725473
0.000000 1.000000 0.718289
0.114118 1.000000 0.719053
0.252141 1.000000 0.720057
0.390034 1.000000 0.721290
0.527804 1.000000 0.722738
0.665461 1.000000 0.724387
0.803011 1.000000 0.726222
0.940465 1.000000 0.728227
1.000000 1.000000 0.729763
0.000000 0.000000 0.817135
0.037121 0.000000 0.815821
0.176148 0.000000 0.814829
0.315011 0.000000 0.814148
0.453713 0.000000 0.813769
0.592260 0.000000 0.813681
0.730658 0.000000 0.813875
0.868912 0.000000 0.814338
0.974656 0.000000 0.814472
0.000000 0.091087 0.822580
0.048219 0.090761 0.821588
0.187082 0.090687 0.820907
0.325784 0.090857 0.820528
0.464331 0.091263 0.820440
0.602729 0.091896 0.820634
0.740983 0.092747 0.821097
0.879100 0.093807 0.821819
0.984269 0.094471 0.822191
0.000000 0.246238 0.828347
0.059153 0.246164 0.827666
0.197855 0.246334 0.827287
0.336402 0.246740 0.827199
0.474800 0.247373 0.827393
0.613054 0.248224 0.827856
0.751171 0.249284 0.828578
0.889158 0.250544 0.829546
0.993825 0.251389 0.830146
0.000000 0.401641 0.834425
0.069926 0.401811 0.834046
0.208473 0.402217 0.833958
0.346871 0.402850 0.834152
0.485125 0.403701 0.834615
0.623242 0.404761 0.835337
0.761229 0.406021 0.836305
0.899091 0.407469 0.837507
1.000000 0.408487 0.838321
0.000000 0.557288 0.840805
0.080544 0.557694 0.840717
0.218942 0.558327 0.840911
0.357196 0.559178 0.841374
0.495313 0.560238 0.842096
0.633300 0.561498 0.843064
0.771162 0.562946 0.844266
0.908907 0.564573 0.845688
1.000000 0.565753 0.846704
0.000000 0.713171 0.847476
0.091013 0.713804 0.847670
0.229267 0.714655 0.848133
0.367384 0.715715 0.848855
0.505371 0.716975 0.849823
0.643233 0.718423 0.851025
0.780978 0.720050 0.852447
0.918614 0.721843 0.854076
1.000000 0.723174 0.855278
0.000000 0.869281 0.854429
0.101338 0.870132 0.854892
0.239455 0.871192 0.855614
0.377442 0.872452 0.856582
0.515304 0.873900 0.857784
0.653049 0.875527 0.859206
0.790685 0.877320 0.860835
0.928219 0.879267 0.862654
1.000000 0.880737 0.864028
0.000000 1.000000 0.860493
0.110410 1.000000 0.861257
0.248433 1.000000 0.862261
0.386325 1.000000 0.863494
0.524096 1.000000 0.864941
0.661752 1.000000 0.866590
0.799302 1.000000 0.868425
0.936756 1.000000 0.870430
1.000000 1.000000 0.871967
0.000000 1.000000 0.863391
0.115879 1.000000 0.864396
0.253772 1.000000 0.865628
0.391543 1.000000 0.867076
0.529199 1.000000 0.868725
0.666749 1.000000 0.870560
0.804203 1.000000 0.872565
0.941570 1.000000 0.874722
1.000000 1.000000 0.876389
0.000000 0.000000 0.942589
0.039787 0.000000 0.943273
0.178659 0.000000 0.944119
0.317370 0.000000 0.945121
0.455925 0.000000 0.946275
0.594329 0.000000 0.947574
0.732590 0.000000 0.949013
0.870712 0.000000 0.950587
0.975886 0.000000 0.951692
0.000000 0.089088 0.950032
0.050730 0.089023 0.950878
0.189441 0.089202 0.951880
0.327996 0.089615 0.953034
0.466400 0.090255 0.954333
0.604661 0.091113 0.955772
0.742783 0.092178 0.957346
0.880774 0.093442 0.959046
0.985446 0.094292 0.960266
0.000000 0.244500 0.957637
0.061512 0.244679 0.958639
0.200067 0.245092 0.959793
0.338471 0.245732 0.961092
0.476732 0.246590 0.962531
0.614854 0.247655 0.964105
0.752845 0.248919 0.965805
0.890711 0.250372 0.967628
0.994953 0.251393 0.968956
0.000000 0.400156 0.965398
0.072138 0.400569 0.966552
0.210542 0.401209 0.967851
0.348803 0.402067 0.969290
0.486925 0.403132 0.970864
0.624916 0.404396 0.972564
0.762782 0.405849 0.974387
0.900531 0.407478 0.976323
1.000000 0.408661 0.977753
0.000000 0.556046 0.973311
0.082613 0.556686 0.974610
0.220874 0.557544 0.976049
0.358996 0.558609 0.977623
0.496987 0.559873 0.979323
0.634853 0.561326 0.981146
0.772602 0.562955 0.983082
0.910240 0.564751 0.985125
1.000000 0.566084 0.986651
0.000000 0.712163 0.981369
0.092945 0.713021 0.982808
0.231067 0.714086 0.984381
0.369058 0.715350 0.986082
0.506924 0.716803 0.987905
0.644673 0.718432 0.989841
0.782311 0.720228 0.991884
0.919847 0.722178 0.994026
1.000000 0.723649 0.995640
0.000000 0.868498 0.989567
0.103138 0.869563 0.991140
0.241129 0.870827 0.992841
0.378995 0.872280 0.994664
0.516744 0.873909 0.996600
0.654382 0.875705 0.998643
0.791918 0.877655 1.000000
0.929362 0.879745 1.000000
1.000000 0.881339 1.000000
0.000000 1.000000 0.996783
0.112120 1.000000 0.998520
0.250017 1.000000 1.000000
0.387791 1.000000 1.000000
0.525450 1.000000 1.000000
0.663002 1.000000 1.000000
0.800457 1.000000 1.000000
0.937825 1.000000 1.000000
1.000000 1.000000 1.000000
0.000000 1.000000 1.000000
0.117464 1.000000 1.000000
0.255237 1.000000 1.000000
0.392896 1.000000 1.000000
0.530448 1.000000 1.000000
0.667904 1.000000 1.000000
0.805272 1.000000 1.000000
0.942565 1.000000 1.000000
1.000000 1.000000 1.000000
0.000000 0.000000 1.000000
0.041939 0.000000 1.000000
0.180650 0.000000 1.000000
0.319205 0.000000 1.000000
0.457609 0.000000 1.000000
0.595870 0.000000 1.000000
0.733993 0.000000 1.000000
0.871983 0.000000 1.000000
0.976655 0.000000 1.000000
0.000000 0.086991 1.000000
0.052721 0.087170 1.000000
0.191276 0.087584 1.000000
0.329680 0.088223 1.000000
0.467941 0.089081 1.000000
0.606064 0.090146 1.000000
0.744054 0.091410 1.000000
0.881921 0.092863 1.000000
0.986162 0.093884 1.000000
0.000000 0.242647 1.000000
0.063347 0.243061 1.000000
0.201751 0.243700 1.000000
0.340012 0.244558 1.000000
0.478135 0.245623 1.000000
0.616125 0.246887 1.000000
0.753992 0.248340 1.000000
0.891740 0.249969 1.000000
0.995619 0.251153 1.000000
0.000000 0.398538 1.000000
0.073822 0.399177 1.000000
0.212083 0.400035 1.000000
0.350206 0.401100 1.000000
0.488196 0.402364 1.000000
0.626062 0.403817 1.000000
0.763811 0.405446 1.000000
0.901449 0.407242 1.000000
1.000000 0.408576 1.000000
0.000000 0.554654 1.000000
0.084154 0.555512 1.000000
0.222277 0.556577 1.000000
0.360267 0.557841 1.000000
0.498133 0.559294 1.000000
0.635882 0.560923 1.000000
0.773520 0.562719 1.000000
0.911056 0.564669 1.000000
1.000000 0.566140 1.000000
0.000000 0.710989 1.000000
0.094348 0.712054 1.000000
0.232338 0.713318 1.000000
0.370204 0.714771 1.000000
0.507953 0.716400 1.000000
0.645591 0.718196 1.000000
0.783127 0.720146 1.000000
0.920571 0.722236 1.000000
1.000000 0.723830 1.000000
0.000000 0.867531 1.000000
0.104409 0.868795 1.000000
0.242275 0.870248 1.000000
0.380024 0.871877 1.000000
0.517662 0.873673 1.000000
0.655198 0.875623 1.000000
0.792642 0.877713 1.000000
0.930002 0.879928 1.000000
1.000000 0.881630 1.000000
0.000000 1.000000 1.000000
0.113297 1.000000 1.000000
0.251071 1.000000 1.000000
0.388730 1.000000 1.000000
0.526282 1.000000 1.000000
0.663737 1.000000 1.000000
0.801105 1.000000 1.000000
0.938398 1.000000 1.000000
1.000000 1.000000 1.000000
0.000000 1.000000 1.000000
0.118517 1.000000 1.000000
0.256176 1.000000 1.000000
0.393728 1.000000 1.000000
0.531184 1.000000 1.000000
0.668552 1.000000 1.000000
0.805845 1.000000 1.000000
0.943077 1.000000 1.000000
1.000000 1.000000 1.000000
