betterCam/LUTs/Fujicolor_C200.cube
TITLE "Fujicolor C200 Simulation"
LUT_3D_SIZE 33
0.000000 0.000000 0.000000
0.000000 0.000000 0.000000
0.005668 0.000000 0.000000
0.038432 0.000000 0.000000
0.071192 0.000000 0.000000
0.103948 0.000000 0.000000
0.136700 0.000000 0.000000
0.169447 0.000000 0.000000
0.202190 0.000000 0.000000
0.234928 0.000000 0.000000
0.267663 0.000000 0.000000
0.300393 0.000000 0.000000
0.333118 0.000000 0.000000
0.365840 0.000000 0.000000
0.398557 0.000000 0.000000
0.431270 0.000000 0.000000
0.463978 0.000000 0.000000
0.496682 0.000000 0.000000
0.529382 0.000000 0.000000
0.562077 0.000000 0.000000
0.594768 0.000000 0.000000
0.627455 0.000000 0.000000
0.660138 0.000000 0.000000
0.692816 0.000000 0.000000
0.725490 0.000000 0.000000
0.758160 0.000000 0.000000
0.790825 0.000000 0.000000
0.823486 0.000000 0.000000
0.856143 0.000000 0.000000
0.888795 0.000000 0.000000
0.921443 0.000000 0.000000
0.954087 0.000000 0.000000
0.986726 0.000000 0.000000
0.000000 0.027284 0.000000
0.000000 0.026979 0.000000
0.007362 0.026680 0.000000
0.040122 0.026388 0.000000
0.072878 0.026103 0.000000
0.105629 0.025825 0.000000
0.138376 0.025555 0.000000
0.171119 0.025291 0.000000
0.203858 0.025034 0.000000
0.236592 0.024785 0.000000
0.269322 0.024542 0.000000
0.302048 0.024306 0.000000
0.334769 0.024078 0.000000
0.367486 0.023856 0.000000
0.400199 0.023642 0.000000
0.432907 0.023434 0.000000
0.465612 0.023234 0.000000
0.498311 0.023040 0.000000
0.531007 0.022854 0.000000
0.563698 0.022675 0.000000
0.596385 0.022502 0.000000
0.629067 0.022337 0.000000
0.661746 0.022179 0.000000
0.694420 0.022027 0.000000
0.727089 0.021883 0.000000
0.759754 0.021746 0.000000
0.792415 0.021616 0.000000
0.825072 0.021492 0.000000
0.857724 0.021376 0.000000
0.890372 0.021267 0.000000
0.923016 0.021165 0.000000
0.955656 0.021070 0.000000
0.988291 0.020982 0.000000
0.000000 0.062200 0.000000
0.000000 0.061901 0.000000
0.009051 0.061610 0.000000
0.041807 0.061325 0.000000
0.074559 0.061047 0.000000
0.107306 0.060776 0.000000
0.140049 0.060513 0.000000
0.172787 0.060256 0.000000
0.205522 0.060006 0.000000
0.238252 0.059764 0.000000
0.270977 0.059528 0.000000
0.303699 0.059300 0.000000
0.336416 0.059078 0.000000
0.369128 0.058863 0.000000
0.401837 0.058656 0.000000
0.434541 0.058456 0.000000
0.467241 0.058262 0.000000
0.499936 0.058076 0.000000
0.532627 0.057896 0.000000
0.565314 0.057724 0.000000
0.597997 0.057559 0.000000
0.630675 0.057400 0.000000
0.663349 0.057249 0.000000
0.696019 0.057105 0.000000
0.728684 0.056968 0.000000
0.761345 0.056837 0.000000
0.794002 0.056714 0.000000
0.826654 0.056598 0.000000
0.859302 0.056489 0.000000
0.891946 0.056387 0.000000
0.924585 0.056292 0.000000
0.957220 0.056204 0.000000
0.989851 0.056123 0.000000
0.000000 0.097123 0.000000
0.000000 0.096831 0.000000
0.010737 0.096547 0.000000
0.043488 0.096269 0.000000
0.076235 0.095998 0.000000
0.108978 0.095734 0.000000
0.141717 0.095478 0.000000
0.174451 0.095228 0.000000
0.207181 0.094985 0.000000
0.239907 0.094750 0.000000
0.272628 0.094521 0.000000
0.305345 0.094300 0.000000
0.338058 0.094085 0.000000
0.370766 0.093878 0.000000
0.403471 0.093677 0.000000
0.436170 0.093484 0.000000
0.468866 0.093297 0.000000
0.501557 0.093118 0.000000
0.534244 0.092946 0.000000
0.566926 0.092780 0.000000
0.599605 0.092622 0.000000
0.632278 0.092471 0.000000
0.664948 0.092326 0.000000
0.697613 0.092189 0.000000
0.730274 0.092059 0.000000
0.762931 0.091936 0.000000
0.795583 0.091820 0.000000
0.828231 0.091711 0.000000
0.860875 0.091608 0.000000
0.893515 0.091513 0.000000
0.926150 0.091425 0.000000
0.958780 0.091344 0.000000
0.991407 0.091270 0.000000
0.000000 0.132053 0.000000
0.000000 0.131768 0.000000
0.012418 0.131490 0.000000
0.045165 0.131220 0.000000
0.077908 0.130956 0.000000
0.110646 0.130699 0.000000
0.143381 0.130450 0.000000
0.176111 0.130207 0.000000
0.208836 0.129971 0.000000
0.241558 0.129743 0.000000
0.274275 0.129521 0.000000
0.306987 0.129307 0.000000
0.339696 0.129099 0.000000
0.372400 0.128899 0.000000
0.405100 0.128705 0.000000
0.437795 0.128519 0.000000
0.470486 0.128340 0.000000
0.503173 0.128167 0.000000
0.535856 0.128002 0.000000
0.568534 0.127844 0.000000
0.601208 0.127692 0.000000
0.633878 0.127548 0.000000
0.666543 0.127411 0.000000
0.699204 0.127281 0.000000
0.731861 0.127157 0.000000
0.764513 0.127041 0.000000
0.797161 0.126932 0.000000
0.829805 0.126830 0.000000
0.862444 0.126735 0.000000
0.895079 0.126647 0.000000
0.927710 0.126566 0.000000
0.960336 0.126492 0.000000
0.992959 0.126425 0.000000
0.000000 0.166990 0.000000
0.000000 0.166712 0.000000
0.014094 0.166441 0.000000
0.046837 0.166178 0.000000
0.079576 0.165921 0.000000
0.112310 0.165671 0.000000
0.145040 0.165429 0.000000
0.177766 0.165193 0.000000
0.210487 0.164965 0.000000
0.243204 0.164743 0.000000
0.275917 0.164529 0.000000
0.308625 0.164321 0.000000
0.341329 0.164121 0.000000
0.374029 0.163927 0.000000
0.406725 0.163741 0.000000
0.439416 0.163561 0.000000
0.472103 0.163389 0.000000
0.504785 0.163224 0.000000
0.537464 0.163065 0.000000
0.570137 0.162914 0.000000
0.602807 0.162770 0.000000
0.635472 0.162633 0.000000
0.668133 0.162502 0.000000
0.700790 0.162379 0.000000
0.733442 0.162263 0.000000
0.766090 0.162154 0.000000
0.798734 0.162052 0.000000
0.831374 0.161957 0.000000
0.864009 0.161869 0.000000
0.896639 0.161788 0.000000
0.929266 0.161714 0.000000
0.961888 0.161647 0.000000
0.994506 0.161587 0.000000
0.000000 0.201934 0.000000
0.000000 0.201663 0.000000
0.015767 0.201399 0.000000
0.048505 0.201143 0.000000
0.081240 0.200893 0.000000
0.113970 0.200650 0.000000
0.146695 0.200415 0.000000
0.179417 0.200186 0.000000
0.212134 0.199965 0.000000
0.244846 0.199750 0.000000
0.277555 0.199543 0.000000
0.310259 0.199342 0.000000
0.342959 0.199149 0.000000
0.375654 0.198962 0.000000
0.408345 0.198783 0.000000
0.441032 0.198611 0.000000
0.473715 0.198445 0.000000
0.506393 0.198287 0.000000
0.539067 0.198136 0.000000
0.571737 0.197991 0.000000
0.604402 0.197854 0.000000
0.637063 0.197724 0.000000
0.669719 0.197601 0.000000
0.702372 0.197485 0.000000
0.735020 0.197376 0.000000
0.767664 0.197273 0.000000
0.800303 0.197178 0.000000
0.832938 0.197090 0.000000
0.865569 0.197009 0.000000
0.898195 0.196935 0.000000
0.930818 0.196868 0.000000
0.963435 0.196808 0.000000
0.996049 0.196755 0.000000
0.000000 0.236885 0.000000
0.000000 0.236621 0.000000
0.017435 0.236364 0.000000
0.050169 0.236115 0.000000
0.082899 0.235872 0.000000
0.115625 0.235637 0.000000
0.148346 0.235408 0.000000
0.181063 0.235186 0.000000
0.213776 0.234972 0.000000
0.246484 0.234764 0.000000
0.279188 0.234564 0.000000
0.311888 0.234370 0.000000
0.344584 0.234184 0.000000
0.377275 0.234005 0.000000
0.409962 0.233832 0.000000
0.442644 0.233667 0.000000
0.475323 0.233509 0.000000
0.507996 0.233357 0.000000
0.540666 0.233213 0.000000
0.573331 0.233076 0.000000
0.605992 0.232946 0.000000
0.638649 0.232823 0.000000
0.671301 0.232706 0.000000
0.703949 0.232597 0.000000
0.736593 0.232495 0.000000
0.769233 0.232400 0.000000
0.801868 0.232312 0.000000
0.834498 0.232231 0.000000
0.867125 0.232157 0.000000
0.899747 0.232090 0.000000
0.932365 0.232030 0.000000
0.964978 0.231977 0.000000
0.997588 0.231931 0.000000
0.000000 0.271843 0.000000
0.000000 0.271586 0.000000
0.019099 0.271336 0.000000
0.051829 0.271094 0.000000
0.084554 0.270858 0.000000
0.117276 0.270630 0.000000
0.149993 0.270408 0.000000
0.182705 0.270194 0.000000
0.215414 0.269986 0.000000
0.248118 0.269786 0.000000
0.280818 0.269592 0.000000
0.313513 0.269406 0.000000
0.346204 0.269226 0.000000
0.378891 0.269054 0.000000
0.411574 0.268889 0.000000
0.444252 0.268730 0.000000
0.476926 0.268579 0.000000
0.509596 0.268435 0.000000
0.542261 0.268298 0.000000
0.574922 0.268167 0.000000
0.607578 0.268044 0.000000
0.640231 0.267928 0.000000
0.672879 0.267819 0.000000
0.705523 0.267717 0.000000
0.738162 0.267622 0.000000
0.770797 0.267534 0.000000
0.803428 0.267453 0.000000
0.836054 0.267379 0.000000
0.868677 0.267312 0.000000
0.901294 0.267252 0.000000
0.933908 0.267199 0.000000
0.966517 0.267153 0.000000
0.999122 0.267114 0.000000
0.000000 0.306808 0.000000
0.000000 0.306558 0.000000
0.020758 0.306315 0.000000
0.053484 0.306080 0.000000
0.086205 0.305851 0.000000
0.118922 0.305630 0.000000
0.151635 0.305415 0.000000
0.184343 0.305208 0.000000
0.217047 0.305007 0.000000
0.249747 0.304814 0.000000
0.282443 0.304627 0.000000
0.315134 0.304448 0.000000
0.347821 0.304276 0.000000
0.380503 0.304110 0.000000
0.413182 0.303952 0.000000
0.445855 0.303801 0.000000
0.478525 0.303656 0.000000
0.511190 0.303519 0.000000
0.543851 0.303389 0.000000
0.576508 0.303266 0.000000
0.609160 0.303150 0.000000
0.641808 0.303041 0.000000
0.674452 0.302938 0.000000
0.707091 0.302843 0.000000
0.739727 0.302755 0.000000
0.772357 0.302674 0.000000
0.804984 0.302600 0.000000
0.837606 0.302533 0.000000
0.870224 0.302473 0.000000
0.902837 0.302420 0.000000
0.935447 0.302375 0.000000
0.968052 0.302336 0.000000
1.000000 0.302304 0.000000
0.000000 0.341780 0.000000
0.000000 0.341537 0.000000
0.022413 0.341302 0.000000
0.055135 0.341073 0.000000
0.087852 0.340851 0.000000
0.120564 0.340637 0.000000
0.153273 0.340429 0.000000
0.185977 0.340229 0.000000
0.218677 0.340036 0.000000
0.251372 0.339849 0.000000
0.284063 0.339670 0.000000
0.316750 0.339497 0.000000
0.349433 0.339332 0.000000
0.382111 0.339174 0.000000
0.414785 0.339022 0.000000
0.447455 0.338878 0.000000
0.480120 0.338741 0.000000
0.512781 0.338611 0.000000
0.545437 0.338488 0.000000
0.578090 0.338371 0.000000
0.610738 0.338262 0.000000
0.643382 0.338160 0.000000
0.676021 0.338065 0.000000
0.708656 0.337977 0.000000
0.741287 0.337896 0.000000
0.773913 0.337822 0.000000
0.806536 0.337755 0.000000
0.839153 0.337695 0.000000
0.871767 0.337642 0.000000
0.904376 0.337596 0.000000
0.936981 0.337557 0.000000
0.969582 0.337526 0.000000
1.000000 0.337501 0.000000
0.000000 0.376759 0.000000
0.000000 0.376523 0.000000
0.024064 0.376295 0.000000
0.056781 0.376073 0.000000
0.089494 0.375859 0.000000
0.122202 0.375651 0.000000
0.154906 0.375451 0.000000
0.187606 0.375257 0.000000
0.220302 0.375071 0.000000
0.252993 0.374891 0.000000
0.285680 0.374719 0.000000
0.318362 0.374554 0.000000
0.351040 0.374395 0.000000
0.383714 0.374244 0.000000
0.416384 0.374100 0.000000
0.449049 0.373963 0.000000
0.481710 0.373832 0.000000
0.514367 0.373709 0.000000
0.547019 0.373593 0.000000
0.579667 0.373484 0.000000
0.612311 0.373382 0.000000
0.644950 0.373287 0.000000
0.677586 0.373199 0.000000
0.710216 0.373118 0.000000
0.742843 0.373044 0.000000
0.775465 0.372977 0.000000
0.808083 0.372917 0.000000
0.840696 0.372864 0.000000
0.873306 0.372818 0.000000
0.905911 0.372779 0.000000
0.938511 0.372747 0.000000
0.971107 0.372722 0.000000
1.000000 0.372705 0.000000
0.000000 0.411745 0.000000
0.000000 0.411516 0.000000
0.025711 0.411295 0.000000
0.058423 0.411080 0.000000
0.091132 0.410873 0.000000
0.123836 0.410672 0.000000
0.156536 0.410479 0.000000
0.189231 0.410292 0.000000
0.221922 0.410113 0.000000
0.254609 0.409941 0.000000
0.287292 0.409775 0.000000
0.319970 0.409617 0.000000
0.352644 0.409466 0.000000
0.385314 0.409322 0.000000
0.417979 0.409184 0.000000
0.450640 0.409054 0.000000
0.483296 0.408931 0.000000
0.515949 0.408815 0.000000
0.548597 0.408706 0.000000
0.581241 0.408604 0.000000
0.613880 0.408508 0.000000
0.646515 0.408420 0.000000
0.679146 0.408339 0.000000
0.711772 0.408265 0.000000
0.744394 0.408198 0.000000
0.777012 0.408138 0.000000
0.809626 0.408086 0.000000
0.842235 0.408040 0.000000
0.874840 0.408001 0.000000
0.907441 0.407969 0.000000
0.940037 0.407944 0.000000
0.972629 0.407926 0.000000
1.000000 0.407916 0.000000
0.000000 0.446738 0.000000
0.000000 0.446516 0.000000
0.027353 0.446302 0.000000
0.060061 0.446094 0.000000
0.092765 0.445894 0.000000
0.125465 0.445701 0.000000
0.158161 0.445514 0.000000
0.190852 0.445335 0.000000
0.223539 0.445162 0.000000
0.256221 0.444997 0.000000
0.288899 0.444839 0.000000
0.321573 0.444687 0.000000
0.354243 0.444543 0.000000
0.386908 0.444406 0.000000
0.419569 0.444276 0.000000
0.452226 0.444153 0.000000
0.484878 0.444036 0.000000
0.517526 0.443927 0.000000
0.550170 0.443825 0.000000
0.582809 0.443730 0.000000
0.615445 0.443642 0.000000
0.648075 0.443561 0.000000
0.680702 0.443487 0.000000
0.713324 0.443420 0.000000
0.745942 0.443360 0.000000
0.778555 0.443307 0.000000
0.811165 0.443261 0.000000
0.843769 0.443222 0.000000
0.876370 0.443191 0.000000
0.908966 0.443166 0.000000
0.941558 0.443148 0.000000
0.974146 0.443137 0.000000
1.000000 0.443133 0.000000
0.000000 0.481738 0.000000
0.000000 0.481524 0.000000
0.028991 0.481316 0.000000
0.061695 0.481116 0.000000
0.094395 0.480922 0.000000
0.127090 0.480736 0.000000
0.159781 0.480556 0.000000
0.192468 0.480384 0.000000
0.225151 0.480219 0.000000
0.257829 0.480060 0.000000
0.290503 0.479909 0.000000
0.323172 0.479765 0.000000
0.355838 0.479628 0.000000
0.388499 0.479497 0.000000
0.421155 0.479374 0.000000
0.453808 0.479258 0.000000
0.486456 0.479149 0.000000
0.519100 0.479047 0.000000
0.551739 0.478952 0.000000
0.584374 0.478864 0.000000
0.617005 0.478783 0.000000
0.649631 0.478709 0.000000
0.682253 0.478642 0.000000
0.714871 0.478582 0.000000
0.747485 0.478529 0.000000
0.780094 0.478483 0.000000
0.812699 0.478444 0.000000
0.845300 0.478412 0.000000
0.877896 0.478387 0.000000
0.910488 0.478370 0.000000
0.943075 0.478359 0.000000
0.975659 0.478355 0.000000
1.000000 0.478358 0.000000
0.000000 0.516745 0.000000
0.000000 0.516538 0.000000
0.030624 0.516337 0.000000
0.063324 0.516144 0.000000
0.096020 0.515957 0.000000
0.128711 0.515778 0.000000
0.161398 0.515606 0.000000
0.194080 0.515440 0.000000
0.226758 0.515282 0.000000
0.259432 0.515131 0.000000
0.292102 0.514987 0.000000
0.324767 0.514849 0.000000
0.357428 0.514719 0.000000
0.390085 0.514596 0.000000
0.422737 0.514480 0.000000
0.455385 0.514371 0.000000
0.488029 0.514269 0.000000
0.520668 0.514173 0.000000
0.553304 0.514085 0.000000
0.585934 0.514004 0.000000
0.618561 0.513930 0.000000
0.651183 0.513863 0.000000
0.683801 0.513803 0.000000
0.716414 0.513751 0.000000
0.749024 0.513705 0.000000
0.781628 0.513666 0.000000
0.814229 0.513634 0.000000
0.846825 0.513609 0.000000
0.879417 0.513591 0.000000
0.912005 0.513581 0.000000
0.944588 0.513577 0.000000
0.977167 0.513580 0.000000
1.000000 0.513590 0.000000
0.000000 0.551759 0.000000
0.000000 0.551559 0.000000
0.032254 0.551366 0.000000
0.064949 0.551179 0.000000
0.097640 0.551000 0.000000
0.130327 0.550827 0.000000
0.163010 0.550662 0.000000
0.195688 0.550504 0.000000
0.228362 0.550352 0.000000
0.261031 0.550208 0.000000
0.293697 0.550071 0.000000
0.326358 0.549941 0.000000
0.359014 0.549818 0.000000
0.391667 0.549701 0.000000
0.424315 0.549592 0.000000
0.456959 0.549490 0.000000
0.489598 0.549395 0.000000
0.522233 0.549307 0.000000
0.554864 0.549226 0.000000
0.587490 0.549152 0.000000
0.620112 0.549085 0.000000
0.652730 0.549025 0.000000
0.685344 0.548972 0.000000
0.717953 0.548926 0.000000
0.750558 0.548887 0.000000
0.783159 0.548856 0.000000
0.815755 0.548831 0.000000
0.848347 0.548813 0.000000
0.880934 0.548802 0.000000
0.913518 0.548799 0.000000
0.946097 0.548802 0.000000
0.978672 0.548812 0.000000
1.000000 0.548829 0.000000
0.000000 0.586781 0.000000
0.001183 0.586587 0.000000
0.033879 0.586401 0.000000
0.066570 0.586221 0.000000
0.099257 0.586049 0.000000
0.131939 0.585884 0.000000
0.164617 0.585725 0.000000
0.197291 0.585574 0.000000
0.229961 0.585430 0.000000
0.262626 0.585293 0.000000
0.295287 0.585162 0.000000
0.327944 0.585039 0.000000
0.360596 0.584923 0.000000
0.393244 0.584814 0.000000
0.425888 0.584712 0.000000
0.458527 0.584617 0.000000
0.491163 0.584529 0.000000
0.523793 0.584448 0.000000
0.556420 0.584374 0.000000
0.589042 0.584307 0.000000
0.621660 0.584247 0.000000
0.654273 0.584194 0.000000
0.686883 0.584148 0.000000
0.719487 0.584109 0.000000
0.752088 0.584077 0.000000
0.784684 0.584052 0.000000
0.817276 0.584035 0.000000
0.849864 0.584024 0.000000
0.882447 0.584020 0.000000
0.915026 0.584023 0.000000
0.947601 0.584034 0.000000
0.980171 0.584051 0.000000
1.000000 0.584075 0.000000
0.000000 0.621809 0.000000
0.002808 0.621623 0.000000
0.035499 0.621443 0.000000
0.068186 0.621271 0.000000
0.100869 0.621105 0.000000
0.133547 0.620947 0.000000
0.166221 0.620796 0.000000
0.198890 0.620652 0.000000
0.231556 0.620514 0.000000
0.264217 0.620384 0.000000
0.296873 0.620261 0.000000
0.329526 0.620145 0.000000
0.362174 0.620036 0.000000
0.394817 0.619934 0.000000
0.427457 0.619838 0.000000
0.460092 0.619750 0.000000
0.492723 0.619669 0.000000
0.525349 0.619595 0.000000
0.557971 0.619528 0.000000
0.590589 0.619469 0.000000
0.623203 0.619416 0.000000
0.655812 0.619370 0.000000
0.688417 0.619331 0.000000
0.721018 0.619299 0.000000
0.753614 0.619274 0.000000
0.786206 0.619256 0.000000
0.818793 0.619246 0.000000
0.851377 0.619242 0.000000
0.883956 0.619245 0.000000
0.916531 0.619255 0.000000
0.949101 0.619273 0.000000
0.981667 0.619297 0.000000
1.000000 0.619329 0.000000
0.000000 0.656844 0.000000
0.004429 0.656665 0.000000
0.037116 0.656492 0.000000
0.069798 0.656327 0.000000
0.102476 0.656169 0.000000
0.135150 0.656018 0.000000
0.167820 0.655873 0.000000
0.200485 0.655736 0.000000
0.233146 0.655606 0.000000
0.265803 0.655483 0.000000
0.298455 0.655366 0.000000
0.331103 0.655257 0.000000
0.363747 0.655155 0.000000
0.396386 0.655060 0.000000
0.429021 0.654972 0.000000
0.461652 0.654891 0.000000
0.494279 0.654817 0.000000
0.526901 0.654750 0.000000
0.559519 0.654690 0.000000
0.592132 0.654637 0.000000
0.624742 0.654591 0.000000
0.657346 0.654552 0.000000
0.689947 0.654521 0.000000
0.722543 0.654496 0.000000
0.755135 0.654478 0.000000
0.787723 0.654467 0.000000
0.820306 0.654464 0.000022
0.852885 0.654467 0.000140
0.885460 0.654477 0.000262
0.918030 0.654494 0.000390
0.950597 0.654519 0.000522
0.983158 0.654550 0.000659
1.000000 0.654589 0.000800
0.000000 0.691886 0.000000
0.006045 0.691714 0.000000
0.038728 0.691549 0.000000
0.071406 0.691390 0.000000
0.104080 0.691239 0.000000
0.136749 0.691095 0.000000
0.169415 0.690958 0.000000
0.202076 0.690827 0.000000
0.234732 0.690704 0.000000
0.267385 0.690588 0.000000
0.300033 0.690479 0.000000
0.332676 0.690377 0.000000
0.365316 0.690282 0.000000
0.397951 0.690194 0.000000
0.430582 0.690113 0.000000
0.463208 0.690039 0.000038
0.495830 0.689972 0.000109
0.528448 0.689912 0.000184
0.561062 0.689859 0.000263
0.593671 0.689813 0.000348
0.626276 0.689774 0.000437
0.658877 0.689742 0.000531
0.691473 0.689718 0.000630
0.724065 0.689700 0.000733
0.756652 0.689689 0.000842
0.789236 0.689685 0.000955
0.821815 0.689689 0.001073
0.854390 0.689699 0.001195
0.886960 0.689716 0.001322
0.919526 0.689741 0.001454
0.952088 0.689772 0.001591
0.984645 0.689810 0.001733
1.000000 0.689856 0.001879
0.000000 0.726936 0.000487
0.007657 0.726770 0.000491
0.040335 0.726612 0.000499
0.073009 0.726461 0.000512
0.105679 0.726317 0.000530
0.138344 0.726179 0.000553
0.171005 0.726049 0.000580
0.203662 0.725926 0.000613
0.236314 0.725810 0.000649
0.268962 0.725701 0.000691
0.301606 0.725599 0.000738
0.334245 0.725504 0.000789
0.366880 0.725415 0.000845
0.399511 0.725334 0.000905
0.432138 0.725260 0.000971
0.464760 0.725193 0.001041
0.497378 0.725134 0.001116
0.529991 0.725081 0.001196
0.562600 0.725035 0.001280
0.595205 0.724996 0.001370
0.627806 0.724964 0.001464
0.660402 0.724939 0.001562
0.692994 0.724921 0.001666
0.725582 0.724911 0.001774
0.758165 0.724907 0.001887
0.790744 0.724910 0.002005
0.823319 0.724920 0.002128
0.855889 0.724938 0.002255
0.888455 0.724962 0.002387
0.921017 0.724994 0.002524
0.953575 0.725032 0.002666
0.986128 0.725077 0.002812
1.000000 0.725130 0.002963
0.000000 0.761992 0.001424
0.009265 0.761834 0.001432
0.041939 0.761683 0.001445
0.074608 0.761538 0.001463
0.107274 0.761401 0.001486
0.139935 0.761271 0.001513
0.172591 0.761148 0.001545
0.205244 0.761032 0.001582
0.237892 0.760922 0.001624
0.270535 0.760820 0.001670
0.303175 0.760725 0.001721
0.335810 0.760637 0.001777
0.368441 0.760556 0.001838
0.401067 0.760482 0.001904
0.433689 0.760415 0.001974
0.466307 0.760355 0.002049
0.498921 0.760302 0.002128
0.531530 0.760256 0.002213
0.564135 0.760218 0.002302
0.596735 0.760186 0.002396
0.629332 0.760161 0.002495
0.661924 0.760143 0.002599
0.694511 0.760132 0.002707
0.727095 0.760129 0.002820
0.759674 0.760132 0.002938
0.792248 0.760142 0.003060
0.824819 0.760160 0.003188
0.857385 0.760184 0.003320
0.889947 0.760215 0.003457
0.922504 0.760254 0.003598
0.955057 0.760299 0.003745
0.987606 0.760352 0.003896
1.000000 0.760411 0.004052
0.000000 0.797056 0.002365
0.010868 0.796904 0.002378
0.043538 0.796760 0.002396
0.076203 0.796623 0.002418
0.108864 0.796493 0.002446
0.141521 0.796369 0.002478
0.174173 0.796253 0.002515
0.206821 0.796144 0.002556
0.239465 0.796042 0.002603
0.272104 0.795947 0.002654
0.304739 0.795859 0.002710
0.337370 0.795778 0.002771
0.369997 0.795704 0.002836
0.402619 0.795637 0.002906
0.435237 0.795577 0.002981
0.467850 0.795524 0.003061
0.500459 0.795478 0.003146
0.533064 0.795439 0.003235
0.565665 0.795407 0.003329
0.598261 0.795383 0.003428
0.630853 0.795365 0.003531
0.663441 0.795354 0.003639
0.696024 0.795350 0.003753
0.728603 0.795354 0.003870
0.761178 0.795364 0.003993
0.793748 0.795381 0.004120
0.826314 0.795406 0.004252
0.858876 0.795437 0.004389
0.891434 0.795475 0.004531
0.923987 0.795521 0.004677
0.956536 0.795573 0.004828
0.989080 0.795633 0.004984
1.000000 0.795699 0.005145
0.000000 0.832126 0.003310
0.012467 0.831982 0.003328
0.045133 0.831844 0.003351
0.077794 0.831714 0.003378
0.110450 0.831591 0.003410
0.143103 0.831475 0.003447
0.175751 0.831366 0.003489
0.208394 0.831264 0.003535
0.241034 0.831169 0.003587
0.273669 0.831081 0.003643
0.306300 0.830999 0.003703
0.338926 0.830925 0.003769
0.371548 0.830859 0.003839
0.404166 0.830799 0.003914
0.436780 0.830746 0.003994
0.469389 0.830700 0.004078
0.501994 0.830661 0.004167
0.534594 0.830629 0.004261
0.567191 0.830604 0.004360
0.599783 0.830586 0.004464
0.632370 0.830576 0.004572
0.664954 0.830572 0.004685
0.697533 0.830575 0.004803
0.730107 0.830586 0.004926
0.762678 0.830603 0.005053
0.795244 0.830627 0.005185
0.827806 0.830659 0.005322
0.860363 0.830697 0.005463
0.892916 0.830742 0.005610
0.925465 0.830795 0.005761
0.958010 0.830854 0.005917
0.990550 0.830921 0.006077
1.000000 0.830995 0.006243
0.000000 0.867203 0.004261
0.014062 0.867066 0.004283
0.046723 0.866936 0.004311
0.079380 0.866813 0.004343
0.112032 0.866697 0.004380
0.144680 0.866587 0.004422
0.177324 0.866485 0.004468
0.209963 0.866390 0.004519
0.242598 0.866302 0.004575
0.275229 0.866221 0.004636
0.307856 0.866147 0.004701
0.340478 0.866080 0.004772
0.373096 0.866020 0.004847
0.405709 0.865967 0.004926
0.438318 0.865921 0.005011
0.470923 0.865883 0.005100
0.503524 0.865851 0.005194
0.536120 0.865826 0.005293
0.568712 0.865808 0.005396
0.601300 0.865797 0.005505
0.633883 0.865794 0.005618
0.666462 0.865797 0.005736
0.699037 0.865807 0.005858
0.731607 0.865825 0.005985
0.764173 0.865849 0.006118
0.796735 0.865880 0.006254
0.829293 0.865919 0.006396
0.861846 0.865964 0.006542
0.894395 0.866017 0.006693
0.926939 0.866076 0.006849
0.959479 0.866143 0.007010
0.992015 0.866216 0.007175
1.000000 0.866297 0.007346
0.000000 0.902288 0.005216
0.015653 0.902158 0.005243
0.048309 0.902034 0.005276
0.080962 0.901918 0.005313
0.113610 0.901809 0.005354
0.146253 0.901707 0.005401
0.178893 0.901612 0.005452
0.211528 0.901524 0.005508
0.244159 0.901443 0.005569
0.276785 0.901369 0.005634
0.309407 0.901302 0.005704
0.342025 0.901242 0.005779
0.374639 0.901189 0.005859
0.407248 0.901143 0.005943
0.439853 0.901104 0.006033
0.472453 0.901072 0.006127
0.505050 0.901048 0.006226
0.537642 0.901030 0.006329
0.570229 0.901019 0.006437
0.602813 0.901015 0.006550
0.635392 0.901019 0.006668
0.667966 0.901029 0.006791
0.700537 0.901046 0.006918
0.733103 0.901071 0.007050
0.765665 0.901102 0.007187
0.798222 0.901140 0.007329
0.830775 0.901186 0.007475
0.863324 0.901238 0.007626
0.895869 0.901298 0.007782
