betterCam/LUTs/Kodak_Gold_200.cube
TITLE "Kodak Gold 200 Simulation"
LUT_3D_SIZE 5
0.001184 0.000298 0.001184
0.194328 0.000298 0.001184
0.567318 0.000298 0.001184
0.903098 0.000298 0.001184
0.984614 0.000298 0.001184
0.001184 0.173456 0.001184
0.194328 0.173456 0.001184
0.567318 0.173456 0.001184
0.903098 0.173456 0.001184
0.984614 0.173456 0.001184
0.001184 0.529984 0.001184
0.194328 0.529984 0.001184
0.567318 0.529984 0.001184
0.903098 0.529984 0.001184
0.984614 0.529984 0.001184
0.001184 0.870906 0.001184
0.194328 0.870906 0.001184
0.567318 0.870906 0.001184
0.903098 0.870906 0.001184
0.984614 0.870906 0.001184
0.001184 0.997246 0.001184
0.194328 0.997246 0.001184
0.567318 0.997246 0.001184
0.903098 0.997246 0.001184
0.984614 0.997246 0.001184
0.001184 0.000298 0.142426
0.194328 0.000298 0.142426
0.567318 0.000298 0.142426
0.903098 0.000298 0.142426
0.984614 0.000298 0.142426
0.001184 0.173456 0.142426
0.194328 0.173456 0.142426
0.567318 0.173456 0.142426
0.903098 0.173456 0.142426
0.984614 0.173456 0.142426
0.001184 0.529984 0.142426
0.194328 0.529984 0.142426
0.567318 0.529984 0.142426
0.903098 0.529984 0.142426
0.984614 0.529984 0.142426
0.001184 0.870906 0.142426
0.194328 0.870906 0.142426
0.567318 0.870906 0.142426
0.903098 0.870906 0.142426
0.984614 0.870906 0.142426
0.001184 0.997246 0.142426
0.194328 0.997246 0.142426
0.567318 0.997246 0.142426
0.903098 0.997246 0.142426
0.984614 0.997246 0.142426
0.001184 0.000298 0.453281
0.194328 0.000298 0.453281
0.567318 0.000298 0.453281
0.903098 0.000298 0.453281
0.984614 0.000298 0.453281
0.001184 0.173456 0.453281
0.194328 0.173456 0.453281
0.567318 0.173456 0.453281
0.903098 0.173456 0.453281
0.984614 0.173456 0.453281
0.001184 0.529984 0.453281
0.194328 0.529984 0.453281
0.567318 0.529984 0.453281
0.903098 0.529984 0.453281
0.984614 0.529984 0.453281
0.001184 0.870906 0.453281
0.194328 0.870906 0.453281
0.567318 0.870906 0.453281
0.903098 0.870906 0.453281
0.984614 0.870906 0.453281
0.001184 0.997246 0.453281
0.194328 0.997246 0.453281
0.567318 0.997246 0.453281
0.903098 0.997246 0.453281
0.984614 0.997246 0.453281
0.001184 0.000298 0.799559
0.194328 0.000298 0.799559
0.567318 0.000298 0.799559
0.903098 0.000298 0.799559
0.984614 0.000298 0.799559
0.001184 0.173456 0.799559
0.194328 0.173456 0.799559
0.567318 0.173456 0.799559
0.903098 0.173456 0.799559
0.984614 0.173456 0.799559
0.001184 0.529984 0.799559
0.194328 0.529984 0.799559
0.567318 0.529984 0.799559
0.903098 0.529984 0.799559
0.984614 0.529984 0.799559
0.001184 0.870906 0.799559
0.194328 0.870906 0.799559
0.567318 0.870906 0.799559
0.903098 0.870906 0.799559
0.984614 0.870906 0.799559
0.001184 0.997246 0.799559
0.194328 0.997246 0.799559
0.567318 0.997246 0.799559
0.903098 0.997246 0.799559
0.984614 0.997246 0.799559
0.001184 0.000298 0.992750
0.194328 0.000298 0.992750
0.567318 0.000298 0.992750
0.903098 0.000298 0.992750
0.984614 0.000298 0.992750
0.001184 0.173456 0.992750
0.194328 0.173456 0.992750
0.567318 0.173456 0.992750
0.903098 0.173456 0.992750
0.984614 0.173456 0.992750
0.001184 0.529984 0.992750
0.194328 0.529984 0.992750
0.567318 0.529984 0.992750
0.903098 0.529984 0.992750
0.984614 0.529984 0.992750
0.001184 0.870906 0.992750
0.194328 0.870906 0.992750
0.567318 0.870906 0.992750
0.903098 0.870906 0.992750
0.984614 0.870906 0.992750
0.001184 0.997246 0.992750
0.194328 0.997246 0.992750
0.567318 0.997246 0.992750
0.903098 0.997246 0.992750
0.984614 0.997246 0.992750
