betterCam/LUTs/Kodak_Vision3_250D_5207.cube
TITLE "Kodak Vision3 5207 Simulation"
LUT_3D_SIZE 33
0.000000 0.000000 0.000000
0.000000 0.000000 0.000000
0.000000 0.000000 0.000000
0.025198 0.000000 0.000000
0.064795 0.000000 0.000000
0.104405 0.000000 0.000000
0.144027 0.000000 0.000000
0.183658 0.000000 0.000000
0.223299 0.000000 0.000000
0.262947 0.000000 0.000000
0.302604 0.000000 0.000000
0.342268 0.000000 0.000000
0.381939 0.000000 0.000000
0.421616 0.000000 0.000000
0.461299 0.000000 0.000000
0.500987 0.000000 0.000000
0.540681 0.000000 0.000000
0.580381 0.000000 0.000000
0.620085 0.000000 0.000000
0.659794 0.000000 0.000000
0.699507 0.000000 0.000000
0.739225 0.000000 0.000000
0.778946 0.000000 0.000000
0.818672 0.000000 0.000000
0.858402 0.000000 0.000000
0.898135 0.000000 0.000000
0.916367 0.000000 0.000000
0.932261 0.000000 0.000000
0.948157 0.000000 0.000000
0.964053 0.000000 0.000000
0.979949 0.000000 0.000000
0.995846 0.000000 0.000000
1.000000 0.000000 0.000000
0.000000 0.000000 0.000000
0.000000 0.000000 0.000000
0.000000 0.000000 0.000000
0.024373 0.000000 0.000000
0.063983 0.000000 0.000000
0.103604 0.000000 0.000000
0.143235 0.000000 0.000000
0.182876 0.000000 0.000000
0.222525 0.000000 0.000000
0.262181 0.000000 0.000000
0.301845 0.000000 0.000000
0.341515 0.000000 0.000000
0.381192 0.000000 0.000000
0.420875 0.000000 0.000000
0.460564 0.000000 0.000000
0.500258 0.000000 0.000000
0.539957 0.000000 0.000000
0.579661 0.000000 0.000000
0.619370 0.000000 0.000000
0.659083 0.000000 0.000000
0.698800 0.000000 0.000000
0.738522 0.000000 0.000000
0.778248 0.000000 0.000000
0.817977 0.000000 0.000000
0.857710 0.000000 0.000000
0.897447 0.000000 0.000000
0.915680 0.000000 0.000000
0.931576 0.000000 0.000000
0.947473 0.000000 0.000000
0.963370 0.000000 0.000000
0.979268 0.000000 0.000000
0.995166 0.000000 0.000000
1.000000 0.000000 0.000000
0.000000 0.018150 0.000000
0.000000 0.017590 0.000000
0.000000 0.017037 0.000000
0.023561 0.016489 0.000000
0.063182 0.015947 0.000000
0.102813 0.015410 0.000000
0.142453 0.014877 0.000000
0.182102 0.014349 0.000000
0.221758 0.013826 0.000000
0.261422 0.013306 0.000000
0.301092 0.012790 0.000000
0.340769 0.012278 0.000000
0.380451 0.011770 0.000000
0.420140 0.011266 0.000000
0.459834 0.010765 0.000000
0.499533 0.010268 0.000000
0.539237 0.009774 0.000000
0.578946 0.009283 0.000000
0.618659 0.008796 0.000000
0.658376 0.008312 0.000000
0.698098 0.007832 0.000000
0.737823 0.007354 0.000000
0.777553 0.006880 0.000000
0.817286 0.006409 0.000000
0.857022 0.005941 0.000000
0.896762 0.005476 0.000000
0.914997 0.005264 0.000000
0.930894 0.005079 0.000000
0.946792 0.004895 0.000000
0.962691 0.004712 0.000000
0.978590 0.004529 0.000000
0.994489 0.004346 0.000000
1.000000 0.004164 0.000000
0.000000 0.055393 0.000000
0.000000 0.054840 0.000000
0.000000 0.054292 0.000000
0.022759 0.053750 0.000000
0.062390 0.053213 0.000000
0.102030 0.052680 0.000000
0.141679 0.052152 0.000000
0.181335 0.051628 0.000000
0.220998 0.051108 0.000000
0.260669 0.050592 0.000000
0.300345 0.050080 0.000000
0.340028 0.049572 0.000000
0.379716 0.049068 0.000000
0.419410 0.048567 0.000000
0.459109 0.048069 0.000000
0.498813 0.047576 0.000000
0.538522 0.047085 0.000000
0.578235 0.046598 0.000000
0.617952 0.046114 0.000000
0.657674 0.045633 0.000000
0.697399 0.045156 0.000000
0.737128 0.044681 0.000000
0.776861 0.044210 0.000000
0.816598 0.043742 0.000000
0.856338 0.043277 0.000000
0.896081 0.042815 0.000000
0.914317 0.042605 0.000000
0.930215 0.042421 0.000000
0.946115 0.042238 0.000000
0.962014 0.042056 0.000000
0.977914 0.041874 0.000000
0.993815 0.041693 0.000000
1.000000 0.041512 0.000000
0.000000 0.092643 0.000000
0.000000 0.092095 0.000000
0.000000 0.091553 0.000000
0.021968 0.091015 0.000000
0.061608 0.090482 0.000000
0.101256 0.089954 0.000000
0.140912 0.089430 0.000000
0.180575 0.088910 0.000000
0.220245 0.088394 0.000000
0.259922 0.087882 0.000000
0.299604 0.087374 0.000000
0.339293 0.086870 0.000000
0.378986 0.086369 0.000000
0.418685 0.085871 0.000000
0.458389 0.085377 0.000000
0.498097 0.084887 0.000000
0.537810 0.084399 0.000000
0.577528 0.083915 0.000000
0.617249 0.083435 0.000000
0.656975 0.082957 0.000000
0.696704 0.082483 0.000000
0.736437 0.082012 0.000000
0.776173 0.081544 0.000000
0.815913 0.081079 0.000000
0.855656 0.080617 0.000000
0.895402 0.080158 0.000000
0.913640 0.079948 0.000000
0.929539 0.079766 0.000000
0.945440 0.079584 0.000000
0.961341 0.079403 0.000000
0.977242 0.079222 0.000000
0.993143 0.079042 0.000000
1.000000 0.078862 0.000000
0.000000 0.129898 0.000000
0.000000 0.129355 0.000000
0.000000 0.128818 0.000000
0.021185 0.128285 0.000000
0.060833 0.127757 0.000000
0.100489 0.127233 0.000000
0.140152 0.126713 0.000000
0.179822 0.126197 0.000000
0.219498 0.125685 0.000000
0.259181 0.125176 0.000000
0.298869 0.124672 0.000000
0.338563 0.124171 0.000000
0.378261 0.123673 0.000000
0.417965 0.123179 0.000000
0.457673 0.122688 0.000000
0.497386 0.122201 0.000000
0.537104 0.121717 0.000000
0.576825 0.121236 0.000000
0.616550 0.120759 0.000000
0.656279 0.120284 0.000000
0.696012 0.119813 0.000000
0.735749 0.119345 0.000000
0.775488 0.118880 0.000000
0.815231 0.118418 0.000000
0.854977 0.117959 0.000000
0.894726 0.117503 0.000000
0.912965 0.117295 0.000000
0.928866 0.117114 0.000000
0.944768 0.116933 0.000000
0.960670 0.116753 0.000000
0.976572 0.116573 0.000000
0.992475 0.116394 0.000000
1.000000 0.116216 0.000000
0.000000 0.167158 0.000000
0.000000 0.166620 0.000000
0.000000 0.166087 0.000000
0.020410 0.165559 0.000000
0.060066 0.165035 0.000000
0.099729 0.164515 0.000000
0.139399 0.163999 0.000000
0.179075 0.163487 0.000000
0.218757 0.162978 0.000000
0.258445 0.162474 0.000000
0.298139 0.161972 0.000000
0.337837 0.161475 0.000000
0.377541 0.160981 0.000000
0.417249 0.160490 0.000000
0.456962 0.160003 0.000000
0.496679 0.159518 0.000000
0.536401 0.159038 0.000000
0.576126 0.158560 0.000000
0.615855 0.158086 0.000000
0.655588 0.157614 0.000000
0.695324 0.157146 0.000000
0.735064 0.156681 0.000000
0.774806 0.156219 0.000000
0.814553 0.155760 0.000000
0.854302 0.155304 0.000000
0.894054 0.154851 0.000000
0.912294 0.154644 0.000000
0.928196 0.154464 0.000000
0.944098 0.154285 0.000000
0.960001 0.154106 0.000000
0.975904 0.153927 0.000000
0.991808 0.153749 0.000000
1.000000 0.153572 0.000000
0.000000 0.204423 0.000000
0.000000 0.203890 0.000000
0.000000 0.203361 0.000000
0.019643 0.202837 0.000000
0.059306 0.202317 0.000000
0.098975 0.201801 0.000000
0.138651 0.201289 0.000000
0.178334 0.200780 0.000000
0.218022 0.200275 0.000000
0.257715 0.199774 0.000000
0.297414 0.199277 0.000000
0.337117 0.198782 0.000000
0.376825 0.198292 0.000000
0.416538 0.197804 0.000000
0.456255 0.197320 0.000000
0.495976 0.196839 0.000000
0.535702 0.196361 0.000000
0.575431 0.195887 0.000000
0.615163 0.195416 0.000000
0.654899 0.194947 0.000000
0.694639 0.194482 0.000000
0.734382 0.194020 0.000000
0.774128 0.193561 0.000000
0.813877 0.193105 0.000000
0.853629 0.192652 0.000000
0.893383 0.192201 0.000000
0.911625 0.191996 0.000000
0.927528 0.191817 0.000000
0.943431 0.191639 0.000000
0.959335 0.191461 0.000000
0.975240 0.191284 0.000000
0.991144 0.191107 0.000000
1.000000 0.190931 0.000000
0.000000 0.241692 0.000000
0.000000 0.241164 0.000000
0.000000 0.240639 0.000000
0.018882 0.240119 0.000000
0.058552 0.239603 0.000000
0.098228 0.239091 0.000000
0.137910 0.238582 0.000000
0.177598 0.238077 0.000000
0.217291 0.237576 0.000000
0.256990 0.237078 0.000000
0.296693 0.236584 0.000000
0.336401 0.236093 0.000000
0.376114 0.235606 0.000000
0.415831 0.235122 0.000000
0.455552 0.234641 0.000000
0.495277 0.234163 0.000000
0.535006 0.233688 0.000000
0.574739 0.233217 0.000000
0.614475 0.232748 0.000000
0.654214 0.232283 0.000000
0.693957 0.231821 0.000000
0.733703 0.231362 0.000000
0.773452 0.230906 0.000000
0.813204 0.230453 0.000000
0.852958 0.230002 0.000000
0.892716 0.229555 0.000000
0.910958 0.229351 0.000000
0.926862 0.229173 0.000000
0.942767 0.228996 0.000000
0.958672 0.228820 0.000000
0.974577 0.228644 0.000000
0.990483 0.228468 0.000000
1.000000 0.228293 0.000000
0.000000 0.278966 0.000000
0.000000 0.278442 0.000000
0.000000 0.277922 0.000000
0.018129 0.277405 0.000000
0.057805 0.276893 0.000000
0.097487 0.276384 0.000000
0.137174 0.275879 0.000000
0.176867 0.275378 0.000000
0.216566 0.274880 0.000000
0.256269 0.274386 0.000000
0.295977 0.273895 0.000000
0.335690 0.273407 0.000000
0.375407 0.272923 0.000000
0.415128 0.272442 0.000000
0.454853 0.271964 0.000000
0.494582 0.271490 0.000000
0.534314 0.271018 0.000000
0.574050 0.270550 0.000000
0.613790 0.270084 0.000000
0.653532 0.269622 0.000000
0.693278 0.269163 0.000000
0.733027 0.268707 0.000000
0.772779 0.268253 0.000000
0.812533 0.267803 0.000000
0.852291 0.267356 0.000000
0.892051 0.266912 0.000000
0.910294 0.266709 0.000000
0.926199 0.266532 0.000000
0.942105 0.266356 0.000000
0.958011 0.266181 0.000000
0.973917 0.266006 0.000000
0.989823 0.265831 0.000000
1.000000 0.265657 0.000000
0.000000 0.316244 0.000000
0.000000 0.315724 0.000000
0.000000 0.315207 0.000000
0.017381 0.314695 0.000000
0.057063 0.314186 0.000000
0.096751 0.313681 0.000000
0.136444 0.313180 0.000000
0.176142 0.312682 0.000000
0.215845 0.312188 0.000000
0.255553 0.311697 0.000000
0.295266 0.311209 0.000000
0.334982 0.310725 0.000000
0.374703 0.310244 0.000000
0.414428 0.309766 0.000000
0.454157 0.309291 0.000000
0.493890 0.308819 0.000000
0.533626 0.308351 0.000000
0.573365 0.307886 0.000000
0.613108 0.307423 0.000000
0.652853 0.306964 0.000000
0.692602 0.306508 0.000000
0.732354 0.306054 0.000000
0.772108 0.305604 0.000000
0.811866 0.305157 0.000000
0.851626 0.304712 0.000000
0.891388 0.304271 0.000000
0.909633 0.304069 0.000000
0.925539 0.303894 0.000000
0.941445 0.303719 0.000000
0.957352 0.303545 0.000000
0.973259 0.303371 0.000000
0.989166 0.303198 0.000000
1.000000 0.303025 0.000000
0.000000 0.353526 0.000000
0.000000 0.353010 0.000000
0.000000 0.352497 0.000000
0.016639 0.351988 0.000000
0.056327 0.351483 0.000000
0.096020 0.350982 0.000000
0.135718 0.350484 0.000000
0.175421 0.349989 0.000000
0.215129 0.349498 0.000000
0.254841 0.349011 0.000000
0.294558 0.348526 0.000000
0.334279 0.348045 0.000000
0.374004 0.347567 0.000000
0.413733 0.347092 0.000000
0.453465 0.346621 0.000000
0.493201 0.346152 0.000000
0.532940 0.345687 0.000000
0.572683 0.345224 0.000000
0.612429 0.344765 0.000000
0.652177 0.344309 0.000000
0.691929 0.343855 0.000000
0.731684 0.343405 0.000000
0.771441 0.342958 0.000000
0.811200 0.342513 0.000000
0.850963 0.342072 0.000000
0.890727 0.341633 0.000000
0.908973 0.341433 0.000000
0.924880 0.341258 0.000000
0.940787 0.341085 0.000000
0.956695 0.340912 0.000000
0.972603 0.340739 0.000000
0.988511 0.340567 0.000000
1.000000 0.340395 0.000000
0.000000 0.390812 0.000000
0.000000 0.390299 0.000000
0.000000 0.389790 0.000000
0.015903 0.389285 0.000000
0.055596 0.388784 0.000000
0.095294 0.388286 0.000000
0.134997 0.387791 0.000000
0.174705 0.387300 0.000000
0.214417 0.386812 0.000000
0.254134 0.386328 0.000000
0.293855 0.385847 0.000000
0.333580 0.385369 0.000000
0.373308 0.384894 0.000000
0.413041 0.384422 0.000000
0.452776 0.383953 0.000000
0.492516 0.383488 0.000000
0.532258 0.383025 0.000000
0.572004 0.382566 0.000000
0.611753 0.382110 0.000000
0.651504 0.381656 0.000000
0.691259 0.381206 0.000000
0.731016 0.380758 0.000000
0.770775 0.380314 0.000000
0.810538 0.379872 0.000000
0.850302 0.379434 0.000000
0.890069 0.378998 0.000000
0.908316 0.378799 0.000000
0.924224 0.378626 0.000000
0.940132 0.378453 0.000000
0.956040 0.378281 0.000000
0.971949 0.378110 0.000000
0.987858 0.377938 0.000000
1.000000 0.377768 0.000000
0.000000 0.428101 0.000000
0.000000 0.427592 0.000000
0.000000 0.427087 0.000000
0.015172 0.426586 0.000000
0.054870 0.426088 0.000000
0.094573 0.425593 0.000000
0.134281 0.425102 0.000000
0.173993 0.424614 0.000000
0.213710 0.424129 0.000000
0.253431 0.423648 0.000000
0.293155 0.423170 0.000000
0.332884 0.422695 0.000000
0.372616 0.422223 0.000000
0.412352 0.421755 0.000000
0.452091 0.421289 0.000000
0.491833 0.420827 0.000000
0.531579 0.420367 0.000000
0.571328 0.419911 0.000000
0.611079 0.419457 0.000000
0.650834 0.419007 0.000000
0.690591 0.418559 0.000000
0.730350 0.418115 0.000000
0.770113 0.417673 0.000000
0.809877 0.417234 0.000000
0.849644 0.416798 0.000000
0.889413 0.416365 0.000000
0.907661 0.416168 0.000000
0.923569 0.415996 0.000000
0.939478 0.415824 0.000000
0.955388 0.415653 0.000000
0.971297 0.415483 0.000000
0.987207 0.415313 0.000000
1.000000 0.415143 0.000000
0.000000 0.465394 0.000000
0.000000 0.464889 0.000000
0.000000 0.464387 0.000000
0.014447 0.463889 0.000000
0.054149 0.463395 0.000000
0.093857 0.462903 0.000000
0.133569 0.462415 0.000000
0.173286 0.461931 0.000000
0.213006 0.461449 0.000000
0.252731 0.460971 0.000000
0.292459 0.460496 0.000000
0.332192 0.460025 0.000000
0.371927 0.459556 0.000000
0.411666 0.459090 0.000000
0.451409 0.458628 0.000000
0.491154 0.458168 0.000000
0.530903 0.457712 0.000000
0.570654 0.457258 0.000000
0.610409 0.456808 0.000000
0.650166 0.456360 0.000000
0.689925 0.455915 0.000000
0.729687 0.455474 0.000000
0.769452 0.455035 0.000000
0.809219 0.454599 0.000000
0.848988 0.454166 0.000000
0.888759 0.453736 0.000000
0.907008 0.453539 0.000000
0.922917 0.453369 0.000000
0.938827 0.453198 0.000000
0.954737 0.453029 0.000000
0.970647 0.452859 0.000000
0.986558 0.452690 0.000000
1.000000 0.452522 0.000000
0.000000 0.502691 0.000000
0.000000 0.502189 0.000000
0.000000 0.501691 0.000000
0.013725 0.501196 0.000000
0.053433 0.500705 0.000000
0.093145 0.500217 0.000000
0.132861 0.499732 0.000000
0.172582 0.499251 0.000000
0.212306 0.498773 0.000000
0.252035 0.498298 0.000000
0.291767 0.497826 0.000000
0.331503 0.497357 0.000000
0.371242 0.496891 0.000000
0.410984 0.496429 0.000000
0.450730 0.495969 0.000000
0.490478 0.495513 0.000000
0.530230 0.495059 0.000000
0.569984 0.494609 0.000000
0.609741 0.494161 0.000000
0.649500 0.493716 0.000000
0.689262 0.493274 0.000000
0.729027 0.492836 0.000000
0.768794 0.492400 0.000000
0.808563 0.491966 0.000000
0.848334 0.491536 0.000000
0.888107 0.491109 0.000000
0.906356 0.490914 0.000000
0.922267 0.490744 0.000000
0.938177 0.490575 0.000000
0.954088 0.490406 0.000000
0.969999 0.490238 0.000000
0.985910 0.490070 0.000000
1.000000 0.489903 0.000000
0.000000 0.539991 0.000000
0.000000 0.539493 0.000000
0.000000 0.538998 0.000000
0.013009 0.538507 0.000000
0.052721 0.538019 0.000000
0.092437 0.537534 0.000000
0.132158 0.537052 0.000000
0.171882 0.536574 0.000000
0.211610 0.536099 0.000000
0.251342 0.535627 0.000000
0.291078 0.535158 0.000000
0.330817 0.534693 0.000000
0.370559 0.534230 0.000000
0.410305 0.533770 0.000000
0.450053 0.533314 0.000000
0.489805 0.532860 0.000000
0.529559 0.532409 0.000000
0.569316 0.531962 0.000000
0.609075 0.531517 0.000000
0.648837 0.531075 0.000000
0.688602 0.530636 0.000000
0.728368 0.530200 0.000000
0.768137 0.529767 0.000000
0.807908 0.529337 0.000000
0.847682 0.528909 0.000000
0.887457 0.528485 0.000000
0.905707 0.528291 0.000000
0.921618 0.528122 0.000000
0.937529 0.527954 0.000000
0.953441 0.527787 0.000000
0.969352 0.527620 0.000000
0.985264 0.527453 0.000000
1.000000 0.527287 0.000000
0.000000 0.577295 0.000000
0.000000 0.576800 0.000000
0.000000 0.576308 0.000000
0.012297 0.575820 0.000000
0.052013 0.575336 0.000000
0.091733 0.574854 0.000000
0.131458 0.574376 0.000000
0.171186 0.573900 0.000000
0.210918 0.573429 0.000000
0.250653 0.572960 0.000000
0.290392 0.572494 0.000000
0.330135 0.572031 0.000000
0.369880 0.571571 0.000000
0.409628 0.571115 0.000000
0.449380 0.570661 0.000000
0.489134 0.570210 0.000000
0.528891 0.569763 0.000000
0.568650 0.569318 0.000000
0.608412 0.568876 0.000000
0.648177 0.568437 0.000000
0.687943 0.568001 0.000000
0.727712 0.567568 0.000000
0.767483 0.567137 0.000000
0.807256 0.566710 0.000000
0.847031 0.566285 0.000000
0.886808 0.565863 0.000000
0.905059 0.565671 0.000000
0.920971 0.565504 0.000000
0.936883 0.565337 0.000000
0.952795 0.565170 0.000000
0.968707 0.565004 0.000000
0.984620 0.564839 0.000000
1.000000 0.564674 0.000000
0.000000 0.614602 0.000000
0.000000 0.614110 0.000000
0.000000 0.613622 0.000000
0.011589 0.613137 0.000000
0.051309 0.612655 0.000000
0.091033 0.612177 0.000000
0.130762 0.611702 0.000000
0.170493 0.611230 0.000000
0.210229 0.610761 0.000000
0.249968 0.610295 0.000000
0.289710 0.609832 0.000000
0.329455 0.609372 0.000000
0.369204 0.608916 0.000000
0.408955 0.608462 0.000000
0.448709 0.608011 0.000000
0.488466 0.607563 0.000000
0.528225 0.607119 0.000000
0.567987 0.606677 0.000000
0.607751 0.606238 0.000000
0.647518 0.605801 0.000000
0.687287 0.605368 0.000000
0.727058 0.604938 0.000000
0.766831 0.604510 0.000000
0.806606 0.604086 0.000000
0.846383 0.603664 0.000000
0.886162 0.603245 0.000000
0.904414 0.603054 0.000000
0.920326 0.602887 0.000000
0.936238 0.602722 0.000000
0.952151 0.602556 0.000000
0.968064 0.602391 0.000000
0.983977 0.602227 0.000000
0.999891 0.602063 0.000000
0.000000 0.651912 0.000000
0.000000 0.651424 0.000000
0.000000 0.650939 0.000000
0.010885 0.650457 0.000000
0.050609 0.649978 0.000000
0.090337 0.649503 0.000000
0.130069 0.649031 0.000000
0.169804 0.648562 0.000000
0.209543 0.648096 0.000000
0.249285 0.647633 0.000000
0.289030 0.647174 0.000000
0.328779 0.646717 0.000000
0.368530 0.646263 0.000000
0.408284 0.645812 0.000000
0.448041 0.645364 0.000000
0.487800 0.644919 0.000000
0.527562 0.644477 0.000000
0.567326 0.644038 0.000000
0.607093 0.643602 0.000000
0.646862 0.643169 0.000000
0.686633 0.642738 0.000000
0.726406 0.642311 0.000000
0.766181 0.641886 0.000000
0.805958 0.641464 0.000000
0.845736 0.641045 0.000000
0.885517 0.640629 0.000000
0.903769 0.640439 0.000000
0.919682 0.640274 0.000000
0.935595 0.640109 0.000000
0.951509 0.639945 0.000000
0.967422 0.639781 0.000000
0.983336 0.639618 0.000000
0.999250 0.639455 0.000000
0.000000 0.689225 0.000000
0.000000 0.688740 0.000000
0.000000 0.688258 0.000000
0.010185 0.687780 0.000000
0.049913 0.687305 0.000000
0.089644 0.686832 0.000000
0.129380 0.686363 0.000000
0.169118 0.685897 0.000000
0.208861 0.685434 0.000000
0.248606 0.684975 0.000000
0.288354 0.684518 0.000000
0.328105 0.684064 0.000000
0.367859 0.683613 0.000000
0.407616 0.683165 0.000000
0.447375 0.682720 0.000000
0.487137 0.682278 0.000000
0.526901 0.681839 0.000000
0.566668 0.681403 0.000000
0.606437 0.680969 0.000000
0.646207 0.680539 0.000000
0.685980 0.680111 0.000000
0.725755 0.679686 0.000000
0.765532 0.679264 0.000000
0.805311 0.678845 0.000000
0.845091 0.678429 0.000000
0.884873 0.678016 0.000000
0.903126 0.677827 0.000000
0.919040 0.677663 0.000000
0.934954 0.677500 0.000000
0.950868 0.677336 0.000000
0.966782 0.677174 0.000000
0.982696 0.677012 0.000000
0.998611 0.676850 0.000000
0.000000 0.726542 0.000000
0.000000 0.726060 0.000000
0.000000 0.725581 0.000000
0.009488 0.725106 0.000000
0.049220 0.724634 0.000000
0.088955 0.724165 0.000000
0.128694 0.723699 0.000000
0.168436 0.723236 0.000000
0.208181 0.722776 0.000000
0.247929 0.722319 0.000000
0.287680 0.721865 0.000000
0.327434 0.721414 0.000000
0.367191 0.720966 0.000000
0.406950 0.720521 0.000000
0.446712 0.720079 0.000000
0.486476 0.719639 0.000000
0.526243 0.719203 0.000000
0.566011 0.718770 0.000000
0.605782 0.718339 0.000000
0.645555 0.717912 0.000000
0.685330 0.717487 0.000000
0.725107 0.717065 0.000000
0.764885 0.716646 0.000000
0.804666 0.716229 0.000000
0.844448 0.715816 0.000000
0.884231 0.715405 0.000000
0.902485 0.715218 0.000000
0.918399 0.715055 0.000000
0.934313 0.714893 0.000000
0.950228 0.714731 0.000000
0.966143 0.714569 0.000000
0.982058 0.714408 0.000000
0.997973 0.714247 0.000000
0.000000 0.763861 0.000000
0.000000 0.763383 0.000000
0.000000 0.762907 0.000000
0.008795 0.762435 0.000000
0.048531 0.761966 0.000000
0.088269 0.761500 0.000000
0.128011 0.761037 0.000000
0.167756 0.760577 0.000000
0.207504 0.760120 0.000000
0.247255 0.759666 0.000000
0.287009 0.759215 0.000000
0.326766 0.758767 0.000000
0.366525 0.758322 0.000000
0.406287 0.757879 0.000000
0.446051 0.757440 0.000000
0.485817 0.757004 0.000000
0.525586 0.756570 0.000000
0.565357 0.756140 0.000000
0.605130 0.755712 0.000000
0.644905 0.755287 0.000000
0.684681 0.754865 0.000000
0.724460 0.754446 0.000000
0.764240 0.754030 0.000000
0.804022 0.753616 0.000000
0.843806 0.753206 0.000000
0.883590 0.752798 0.000000
0.901845 0.752612 0.000000
0.917760 0.752450 0.000000
0.933675 0.752288 0.000000
0.949590 0.752128 0.000000
0.965505 0.751967 0.000000
0.981420 0.751807 0.000000
0.997336 0.751648 0.000000
0.000000 0.801184 0.000000
0.000000 0.800709 0.000000
0.000000 0.800236 0.000000
0.008106 0.799767 0.000000
0.047845 0.799301 0.000000
0.087586 0.798838 0.000000
0.127331 0.798378 0.000000
0.167079 0.797921 0.000000
0.206830 0.797467 0.000000
0.246584 0.797016 0.000000
0.286341 0.796568 0.000000
0.326100 0.796122 0.000000
0.365862 0.795680 0.000000
0.405626 0.795241 0.000000
0.445392 0.794804 0.000000
0.485161 0.794371 0.000000
0.524932 0.793940 0.000000
0.564705 0.793512 0.000000
0.604479 0.793087 0.000000
0.644256 0.792665 0.000000
0.684035 0.792246 0.000000
0.723815 0.791830 0.000000
0.763597 0.791416 0.000000
0.803380 0.791006 0.000000
0.843165 0.790598 0.000000
0.882951 0.790193 0.000000
0.901207 0.790008 0.000000
0.917122 0.789847 0.000000
0.933037 0.789687 0.000000
0.948952 0.789527 0.000000
0.964868 0.789368 0.000000
0.980784 0.789209 0.000000
0.996700 0.789051 0.000000
0.000000 0.838510 0.000000
0.000000 0.838038 0.000000
0.000000 0.837568 0.000000
0.007420 0.837102 0.000000
0.047162 0.836639 0.000000
0.086907 0.836179 0.000000
0.126655 0.835722 0.000000
0.166406 0.835268 0.000000
0.206159 0.834817 0.000000
0.245916 0.834368 0.000000
0.285675 0.833923 0.000000
0.325437 0.833481 0.000000
0.365201 0.833041 0.000000
0.404967 0.832605 0.000000
0.444736 0.832171 0.000000
0.484506 0.831741 0.000000
0.524279 0.831313 0.000000
0.564054 0.830888 0.000000
0.603831 0.830466 0.000000
0.643609 0.830046 0.000000
0.683389 0.829630 0.000000
0.723171 0.829216 0.000000
0.762955 0.828806 0.000000
0.802739 0.828398 0.000000
0.842526 0.827993 0.000000
0.882313 0.827591 0.000000
0.900569 0.827407 0.000000
0.916485 0.827247 0.000000
0.932401 0.827088 0.000000
0.948317 0.826930 0.000000
0.964233 0.826771 0.000000
0.980149 0.826614 0.000000
0.996065 0.826456 0.000000
0.000000 0.875839 0.000000
0.000000 0.875370 0.000000
0.000000 0.874903 0.000000
0.006737 0.874440 0.000000
0.046482 0.873980 0.000000
0.086230 0.873523 0.000000
0.125981 0.873069 0.000000
0.165734 0.872617 0.000000
0.205491 0.872169 0.000000
0.245250 0.871724 0.000000
0.285011 0.871282 0.000000
0.324776 0.870842 0.000000
0.364542 0.870406 0.000000
0.404310 0.869972 0.000000
0.444081 0.869541 0.000000
0.483854 0.869113 0.000000
0.523629 0.868688 0.000000
0.563405 0.868266 0.000000
0.603184 0.867847 0.000000
0.642964 0.867430 0.000000
0.682746 0.867017 0.000000
0.722529 0.866606 0.000000
0.762314 0.866198 0.000000
0.802100 0.865793 0.000000
0.841888 0.865391 0.000000
0.881676 0.864991 0.000000
0.899933 0.864809 0.000000
0.915849 0.864650 0.000000
0.931765 0.864492 0.000000
0.947682 0.864335 0.000000
0.963598 0.864178 0.000000
0.979515 0.864021 0.000000
0.995432 0.863865 0.000000
0.000000 0.904211 0.000000
0.000000 0.903744 0.000000
0.000000 0.903280 0.000000
0.006220 0.902819 0.000000
0.045967 0.902361 0.000000
0.085717 0.901906 0.000000
0.125470 0.901454 0.000000
0.165226 0.901005 0.000000
0.204984 0.900559 0.000000
0.244745 0.900116 0.000000
0.284509 0.899676 0.000000
0.324275 0.899239 0.000000
0.364043 0.898804 0.000000
0.403813 0.898373 0.000000
0.443585 0.897944 0.000000
0.483359 0.897518 0.000000
0.523135 0.897095 0.000000
0.562913 0.896675 0.000000
0.602693 0.896258 0.000000
0.642475 0.895844 0.000000
0.682258 0.895432 0.000000
0.722042 0.895024 0.000000
0.761828 0.894618 0.000000
0.801615 0.894215 0.000000
0.841404 0.893815 0.000000
0.881193 0.893417 0.000000
0.899450 0.893236 0.000000
0.915366 0.893078 0.000000
