betterCam/LUTs/Kodak_Gold_200.cube
TITLE "Kodak Gold 200 Simulation"
LUT_3D_SIZE 9
0.001184 0.000298 0.001184
0.061710 0.000298 0.001184
0.194328 0.000298 0.001184
0.371908 0.000298 0.001184
0.567318 0.000298 0.001184
0.753425 0.000298 0.001184
0.903098 0.000298 0.001184
0.989205 0.000298 0.001184
0.984614 0.000298 0.001184
0.001184 0.051520 0.001184
0.061710 0.051520 0.001184
0.194328 0.051520 0.001184
0.371908 0.051520 0.001184
0.567318 0.051520 0.001184
0.753425 0.051520 0.001184
0.903098 0.051520 0.001184
0.989205 0.051520 0.001184
0.984614 0.051520 0.001184
0.001184 0.173456 0.001184
0.061710 0.173456 0.001184
0.194328 0.173456 0.001184
0.371908 0.173456 0.001184
0.567318 0.173456 0.001184
0.753425 0.173456 0.001184
0.903098 0.173456 0.001184
0.989205 0.173456 0.001184
0.984614 0.173456 0.001184
0.001184 0.341235 0.001184
0.061710 0.341235 0.001184
0.194328 0.341235 0.001184
0.371908 0.341235 0.001184
0.567318 0.341235 0.001184
0.753425 0.341235 0.001184
0.903098 0.341235 0.001184
0.989205 0.341235 0.001184
0.984614 0.341235 0.001184
0.001184 0.529984 0.001184
0.061710 0.529984 0.001184
0.194328 0.529984 0.001184
0.371908 0.529984 0.001184
0.567318 0.529984 0.001184
0.753425 0.529984 0.001184
0.903098 0.529984 0.001184
0.989205 0.529984 0.001184
0.984614 0.529984 0.001184
0.001184 0.714832 0.001184
0.061710 0.714832 0.001184
0.194328 0.714832 0.001184
0.371908 0.714832 0.001184
0.567318 0.714832 0.001184
0.753425 0.714832 0.001184
0.903098 0.714832 0.001184
0.989205 0.714832 0.001184
0.984614 0.714832 0.001184
0.001184 0.870906 0.001184
0.061710 0.870906 0.001184
0.194328 0.870906 0.001184
0.371908 0.870906 0.001184
0.567318 0.870906 0.001184
0.753425 0.870906 0.001184
0.903098 0.870906 0.001184
0.989205 0.870906 0.001184
0.984614 0.870906 0.001184
0.001184 0.973335 0.001184
0.061710 0.973335 0.001184
0.194328 0.973335 0.001184
0.371908 0.973335 0.001184
0.567318 0.973335 0.001184
0.753425 0.973335 0.001184
0.903098 0.973335 0.001184
0.989205 0.973335 0.001184
0.984614 0.973335 0.001184
0.001184 0.997246 0.001184
0.061710 0.997246 0.001184
0.194328 0.997246 0.001184
0.371908 0.997246 0.001184
0.567318 0.997246 0.001184
0.753425 0.997246 0.001184
0.903098 0.997246 0.001184
0.989205 0.997246 0.001184
0.984614 0.997246 0.001184
0.001184 0.000298 0.043793
0.061710 0.000298 0.043793
0.194328 0.000298 0.043793
0.371908 0.000298 0.043793
0.567318 0.000298 0.043793
0.753425 0.000298 0.043793
0.903098 0.000298 0.043793
0.989205 0.000298 0.043793
0.984614 0.000298 0.043793
0.001184 0.051520 0.043793
0.061710 0.051520 0.043793
0.194328 0.051520 0.043793
0.371908 0.051520 0.043793
0.567318 0.051520 0.043793
0.753425 0.051520 0.043793
0.903098 0.051520 0.043793
0.989205 0.051520 0.043793
0.984614 0.051520 0.043793
0.001184 0.173456 0.043793
0.061710 0.173456 0.043793
0.194328 0.173456 0.043793
0.371908 0.173456 0.043793
0.567318 0.173456 0.043793
0.753425 0.173456 0.043793
0.903098 0.173456 0.043793
0.989205 0.173456 0.043793
0.984614 0.173456 0.043793
0.001184 0.341235 0.043793
0.061710 0.341235 0.043793
0.194328 0.341235 0.043793
0.371908 0.341235 0.043793
0.567318 0.341235 0.043793
0.753425 0.341235 0.043793
0.903098 0.341235 0.043793
0.989205 0.341235 0.043793
0.984614 0.341235 0.043793
0.001184 0.529984 0.043793
0.061710 0.529984 0.043793
0.194328 0.529984 0.043793
0.371908 0.529984 0.043793
0.567318 0.529984 0.043793
0.753425 0.529984 0.043793
0.903098 0.529984 0.043793
0.989205 0.529984 0.043793
0.984614 0.529984 0.043793
0.001184 0.714832 0.043793
0.061710 0.714832 0.043793
0.194328 0.714832 0.043793
0.371908 0.714832 0.043793
0.567318 0.714832 0.043793
0.753425 0.714832 0.043793
0.903098 0.714832 0.043793
0.989205 0.714832 0.043793
0.984614 0.714832 0.043793
0.001184 0.870906 0.043793
0.061710 0.870906 0.043793
0.194328 0.870906 0.043793
0.371908 0.870906 0.043793
0.567318 0.870906 0.043793
0.753425 0.870906 0.043793
0.903098 0.870906 0.043793
0.989205 0.870906 0.043793
0.984614 0.870906 0.043793
0.001184 0.973335 0.043793
0.061710 0.973335 0.043793
0.194328 0.973335 0.043793
0.371908 0.973335 0.043793
0.567318 0.973335 0.043793
0.753425 0.973335 0.043793
0.903098 0.973335 0.043793
0.989205 0.973335 0.043793
0.984614 0.973335 0.043793
0.001184 0.997246 0.043793
0.061710 0.997246 0.043793
0.194328 0.997246 0.043793
0.371908 0.997246 0.043793
0.567318 0.997246 0.043793
0.753425 0.997246 0.043793
0.903098 0.997246 0.043793
0.989205 0.997246 0.043793
0.984614 0.997246 0.043793
0.001184 0.000298 0.142426
0.061710 0.000298 0.142426
0.194328 0.000298 0.142426
0.371908 0.000298 0.142426
0.567318 0.000298 0.142426
0.753425 0.000298 0.142426
0.903098 0.000298 0.142426
0.989205 0.000298 0.142426
0.984614 0.000298 0.142426
0.001184 0.051520 0.142426
0.061710 0.051520 0.142426
0.194328 0.051520 0.142426
0.371908 0.051520 0.142426
0.567318 0.051520 0.142426
0.753425 0.051520 0.142426
0.903098 0.051520 0.142426
0.989205 0.051520 0.142426
0.984614 0.051520 0.142426
0.001184 0.173456 0.142426
0.061710 0.173456 0.142426
0.194328 0.173456 0.142426
0.371908 0.173456 0.142426
0.567318 0.173456 0.142426
0.753425 0.173456 0.142426
0.903098 0.173456 0.142426
0.989205 0.173456 0.142426
0.984614 0.173456 0.142426
0.001184 0.341235 0.142426
0.061710 0.341235 0.142426
0.194328 0.341235 0.142426
0.371908 0.341235 0.142426
0.567318 0.341235 0.142426
0.753425 0.341235 0.142426
0.903098 0.341235 0.142426
0.989205 0.341235 0.142426
0.984614 0.341235 0.142426
0.001184 0.529984 0.142426
0.061710 0.529984 0.142426
0.194328 0.529984 0.142426
0.371908 0.529984 0.142426
0.567318 0.529984 0.142426
0.753425 0.529984 0.142426
0.903098 0.529984 0.142426
0.989205 0.529984 0.142426
0.984614 0.529984 0.142426
0.001184 0.714832 0.142426
0.061710 0.714832 0.142426
0.194328 0.714832 0.142426
0.371908 0.714832 0.142426
0.567318 0.714832 0.142426
0.753425 0.714832 0.142426
0.903098 0.714832 0.142426
0.989205 0.714832 0.142426
0.984614 0.714832 0.142426
0.001184 0.870906 0.142426
0.061710 0.870906 0.142426
0.194328 0.870906 0.142426
0.371908 0.870906 0.142426
0.567318 0.870906 0.142426
0.753425 0.870906 0.142426
0.903098 0.870906 0.142426
0.989205 0.870906 0.142426
0.984614 0.870906 0.142426
0.001184 0.973335 0.142426
0.061710 0.973335 0.142426
0.194328 0.973335 0.142426
0.371908 0.973335 0.142426
0.567318 0.973335 0.142426
0.753425 0.973335 0.142426
0.903098 0.973335 0.142426
0.989205 0.973335 0.142426
0.984614 0.973335 0.142426
0.001184 0.997246 0.142426
0.061710 0.997246 0.142426
0.194328 0.997246 0.142426
0.371908 0.997246 0.142426
0.567318 0.997246 0.142426
0.753425 0.997246 0.142426
0.903098 0.997246 0.142426
0.989205 0.997246 0.142426
0.984614 0.997246 0.142426
0.001184 0.000298 0.284510
0.061710 0.000298 0.284510
0.194328 0.000298 0.284510
0.371908 0.000298 0.284510
0.567318 0.000298 0.284510
0.753425 0.000298 0.284510
0.903098 0.000298 0.284510
0.989205 0.000298 0.284510
0.984614 0.000298 0.284510
0.001184 0.051520 0.284510
0.061710 0.051520 0.284510
0.194328 0.051520 0.284510
0.371908 0.051520 0.284510
0.567318 0.051520 0.284510
0.753425 0.051520 0.284510
0.903098 0.051520 0.284510
0.989205 0.051520 0.284510
0.984614 0.051520 0.284510
0.001184 0.173456 0.284510
0.061710 0.173456 0.284510
0.194328 0.173456 0.284510
0.371908 0.173456 0.284510
0.567318 0.173456 0.284510
0.753425 0.173456 0.284510
0.903098 0.173456 0.284510
0.989205 0.173456 0.284510
0.984614 0.173456 0.284510
0.001184 0.341235 0.284510
0.061710 0.341235 0.284510
0.194328 0.341235 0.284510
0.371908 0.341235 0.284510
0.567318 0.341235 0.284510
0.753425 0.341235 0.284510
0.903098 0.341235 0.284510
0.989205 0.341235 0.284510
0.984614 0.341235 0.284510
0.001184 0.529984 0.284510
0.061710 0.529984 0.284510
0.194328 0.529984 0.284510
0.371908 0.529984 0.284510
0.567318 0.529984 0.284510
0.753425 0.529984 0.284510
0.903098 0.529984 0.284510
0.989205 0.529984 0.284510
0.984614 0.529984 0.284510
0.001184 0.714832 0.284510
0.061710 0.714832 0.284510
0.194328 0.714832 0.284510
0.371908 0.714832 0.284510
0.567318 0.714832 0.284510
0.753425 0.714832 0.284510
0.903098 0.714832 0.284510
0.989205 0.714832 0.284510
0.984614 0.714832 0.284510
0.001184 0.870906 0.284510
0.061710 0.870906 0.284510
0.194328 0.870906 0.284510
0.371908 0.870906 0.284510
0.567318 0.870906 0.284510
0.753425 0.870906 0.284510
0.903098 0.870906 0.284510
0.989205 0.870906 0.284510
0.984614 0.870906 0.284510
0.001184 0.973335 0.284510
0.061710 0.973335 0.284510
0.194328 0.973335 0.284510
0.371908 0.973335 0.284510
0.567318 0.973335 0.284510
0.753425 0.973335 0.284510
0.903098 0.973335 0.284510
0.989205 0.973335 0.284510
0.984614 0.973335 0.284510
0.001184 0.997246 0.284510
0.061710 0.997246 0.284510
0.194328 0.997246 0.284510
0.371908 0.997246 0.284510
0.567318 0.997246 0.284510
0.753425 0.997246 0.284510
0.903098 0.997246 0.284510
0.989205 0.997246 0.284510
0.984614 0.997246 0.284510
0.001184 0.000298 0.453281
0.061710 0.000298 0.453281
0.194328 0.000298 0.453281
0.371908 0.000298 0.453281
0.567318 0.000298 0.453281
0.753425 0.000298 0.453281
0.903098 0.000298 0.453281
0.989205 0.000298 0.453281
0.984614 0.000298 0.453281
0.001184 0.051520 0.453281
0.061710 0.051520 0.453281
0.194328 0.051520 0.453281
0.371908 0.051520 0.453281
0.567318 0.051520 0.453281
0.753425 0.051520 0.453281
0.903098 0.051520 0.453281
0.989205 0.051520 0.453281
0.984614 0.051520 0.453281
0.001184 0.173456 0.453281
0.061710 0.173456 0.453281
0.194328 0.173456 0.453281
0.371908 0.173456 0.453281
0.567318 0.173456 0.453281
0.753425 0.173456 0.453281
0.903098 0.173456 0.453281
0.989205 0.173456 0.453281
0.984614 0.173456 0.453281
0.001184 0.341235 0.453281
0.061710 0.341235 0.453281
0.194328 0.341235 0.453281
0.371908 0.341235 0.453281
0.567318 0.341235 0.453281
0.753425 0.341235 0.453281
0.903098 0.341235 0.453281
0.989205 0.341235 0.453281
0.984614 0.341235 0.453281
0.001184 0.529984 0.453281
0.061710 0.529984 0.453281
0.194328 0.529984 0.453281
0.371908 0.529984 0.453281
0.567318 0.529984 0.453281
0.753425 0.529984 0.453281
0.903098 0.529984 0.453281
0.989205 0.529984 0.453281
0.984614 0.529984 0.453281
0.001184 0.714832 0.453281
0.061710 0.714832 0.453281
0.194328 0.714832 0.453281
0.371908 0.714832 0.453281
0.567318 0.714832 0.453281
0.753425 0.714832 0.453281
0.903098 0.714832 0.453281
0.989205 0.714832 0.453281
0.984614 0.714832 0.453281
0.001184 0.870906 0.453281
0.061710 0.870906 0.453281
0.194328 0.870906 0.453281
0.371908 0.870906 0.453281
0.567318 0.870906 0.453281
0.753425 0.870906 0.453281
0.903098 0.870906 0.453281
0.989205 0.870906 0.453281
0.984614 0.870906 0.453281
0.001184 0.973335 0.453281
0.061710 0.973335 0.453281
0.194328 0.973335 0.453281
0.371908 0.973335 0.453281
0.567318 0.973335 0.453281
0.753425 0.973335 0.453281
0.903098 0.973335 0.453281
0.989205 0.973335 0.453281
0.984614 0.973335 0.453281
0.001184 0.997246 0.453281
0.061710 0.997246 0.453281
0.194328 0.997246 0.453281
0.371908 0.997246 0.453281
0.567318 0.997246 0.453281
0.753425 0.997246 0.453281
0.903098 0.997246 0.453281
0.989205 0.997246 0.453281
0.984614 0.997246 0.453281
0.001184 0.000298 0.626198
0.061710 0.000298 0.626198
0.194328 0.000298 0.626198
0.371908 0.000298 0.626198
0.567318 0.000298 0.626198
0.753425 0.000298 0.626198
0.903098 0.000298 0.626198
0.989205 0.000298 0.626198
0.984614 0.000298 0.626198
0.001184 0.051520 0.626198
0.061710 0.051520 0.626198
0.194328 0.051520 0.626198
0.371908 0.051520 0.626198
0.567318 0.051520 0.626198
0.753425 0.051520 0.626198
0.903098 0.051520 0.626198
0.989205 0.051520 0.626198
0.984614 0.051520 0.626198
0.001184 0.173456 0.626198
0.061710 0.173456 0.626198
0.194328 0.173456 0.626198
0.371908 0.173456 0.626198
0.567318 0.173456 0.626198
0.753425 0.173456 0.626198
0.903098 0.173456 0.626198
0.989205 0.173456 0.626198
0.984614 0.173456 0.626198
0.001184 0.341235 0.626198
0.061710 0.341235 0.626198
0.194328 0.341235 0.626198
0.371908 0.341235 0.626198
0.567318 0.341235 0.626198
0.753425 0.341235 0.626198
0.903098 0.341235 0.626198
0.989205 0.341235 0.626198
0.984614 0.341235 0.626198
0.001184 0.529984 0.626198
0.061710 0.529984 0.626198
0.194328 0.529984 0.626198
0.371908 0.529984 0.626198
0.567318 0.529984 0.626198
0.753425 0.529984 0.626198
0.903098 0.529984 0.626198
0.989205 0.529984 0.626198
0.984614 0.529984 0.626198
0.001184 0.714832 0.626198
0.061710 0.714832 0.626198
0.194328 0.714832 0.626198
0.371908 0.714832 0.626198
0.567318 0.714832 0.626198
0.753425 0.714832 0.626198
0.903098 0.714832 0.626198
0.989205 0.714832 0.626198
0.984614 0.714832 0.626198
0.001184 0.870906 0.626198
0.061710 0.870906 0.626198
0.194328 0.870906 0.626198
0.371908 0.870906 0.626198
0.567318 0.870906 0.626198
0.753425 0.870906 0.626198
0.903098 0.870906 0.626198
0.989205 0.870906 0.626198
0.984614 0.870906 0.626198
0.001184 0.973335 0.626198
0.061710 0.973335 0.626198
0.194328 0.973335 0.626198
0.371908 0.973335 0.626198
0.567318 0.973335 0.626198
0.753425 0.973335 0.626198
0.903098 0.973335 0.626198
0.989205 0.973335 0.626198
0.984614 0.973335 0.626198
0.001184 0.997246 0.626198
0.061710 0.997246 0.626198
0.194328 0.997246 0.626198
0.371908 0.997246 0.626198
0.567318 0.997246 0.626198
0.753425 0.997246 0.626198
0.903098 0.997246 0.626198
0.989205 0.997246 0.626198
0.984614 0.997246 0.626198
0.001184 0.000298 0.799559
0.061710 0.000298 0.799559
0.194328 0.000298 0.799559
0.371908 0.000298 0.799559
0.567318 0.000298 0.799559
0.753425 0.000298 0.799559
0.903098 0.000298 0.799559
0.989205 0.000298 0.799559
0.984614 0.000298 0.799559
0.001184 0.051520 0.799559
0.061710 0.051520 0.799559
0.194328 0.051520 0.799559
0.371908 0.051520 0.799559
0.567318 0.051520 0.799559
0.753425 0.051520 0.799559
0.903098 0.051520 0.799559
0.989205 0.051520 0.799559
0.984614 0.051520 0.799559
0.001184 0.173456 0.799559
0.061710 0.173456 0.799559
0.194328 0.173456 0.799559
0.371908 0.173456 0.799559
0.567318 0.173456 0.799559
0.753425 0.173456 0.799559
0.903098 0.173456 0.799559
0.989205 0.173456 0.799559
0.984614 0.173456 0.799559
0.001184 0.341235 0.799559
0.061710 0.341235 0.799559
0.194328 0.341235 0.799559
0.371908 0.341235 0.799559
0.567318 0.341235 0.799559
0.753425 0.341235 0.799559
0.903098 0.341235 0.799559
0.989205 0.341235 0.799559
0.984614 0.341235 0.799559
0.001184 0.529984 0.799559
0.061710 0.529984 0.799559
0.194328 0.529984 0.799559
0.371908 0.529984 0.799559
0.567318 0.529984 0.799559
0.753425 0.529984 0.799559
0.903098 0.529984 0.799559
0.989205 0.529984 0.799559
0.984614 0.529984 0.799559
0.001184 0.714832 0.799559
0.061710 0.714832 0.799559
0.194328 0.714832 0.799559
0.371908 0.714832 0.799559
0.567318 0.714832 0.799559
0.753425 0.714832 0.799559
0.903098 0.714832 0.799559
0.989205 0.714832 0.799559
0.984614 0.714832 0.799559
0.001184 0.870906 0.799559
0.061710 0.870906 0.799559
0.194328 0.870906 0.799559
0.371908 0.870906 0.799559
0.567318 0.870906 0.799559
0.753425 0.870906 0.799559
0.903098 0.870906 0.799559
0.989205 0.870906 0.799559
0.984614 0.870906 0.799559
0.001184 0.973335 0.799559
0.061710 0.973335 0.799559
0.194328 0.973335 0.799559
0.371908 0.973335 0.799559
0.567318 0.973335 0.799559
0.753425 0.973335 0.799559
0.903098 0.973335 0.799559
0.989205 0.973335 0.799559
0.984614 0.973335 0.799559
0.001184 0.997246 0.799559
0.061710 0.997246 0.799559
0.194328 0.997246 0.799559
0.371908 0.997246 0.799559
0.567318 0.997246 0.799559
0.753425 0.997246 0.799559
0.903098 0.997246 0.799559
0.989205 0.997246 0.799559
0.984614 0.997246 0.799559
0.001184 0.000298 0.924181
0.061710 0.000298 0.924181
0.194328 0.000298 0.924181
0.371908 0.000298 0.924181
0.567318 0.000298 0.924181
0.753425 0.000298 0.924181
0.903098 0.000298 0.924181
0.989205 0.000298 0.924181
0.984614 0.000298 0.924181
0.001184 0.051520 0.924181
0.061710 0.051520 0.924181
0.194328 0.051520 0.924181
0.371908 0.051520 0.924181
0.567318 0.051520 0.924181
0.753425 0.051520 0.924181
0.903098 0.051520 0.924181
0.989205 0.051520 0.924181
0.984614 0.051520 0.924181
0.001184 0.173456 0.924181
0.061710 0.173456 0.924181
0.194328 0.173456 0.924181
0.371908 0.173456 0.924181
0.567318 0.173456 0.924181
0.753425 0.173456 0.924181
0.903098 0.173456 0.924181
0.989205 0.173456 0.924181
0.984614 0.173456 0.924181
0.001184 0.341235 0.924181
0.061710 0.341235 0.924181
0.194328 0.341235 0.924181
0.371908 0.341235 0.924181
0.567318 0.341235 0.924181
0.753425 0.341235 0.924181
0.903098 0.341235 0.924181
0.989205 0.341235 0.924181
0.984614 0.341235 0.924181
0.001184 0.529984 0.924181
0.061710 0.529984 0.924181
0.194328 0.529984 0.924181
0.371908 0.529984 0.924181
0.567318 0.529984 0.924181
0.753425 0.529984 0.924181
0.903098 0.529984 0.924181
0.989205 0.529984 0.924181
0.984614 0.529984 0.924181
0.001184 0.714832 0.924181
0.061710 0.714832 0.924181
0.194328 0.714832 0.924181
0.371908 0.714832 0.924181
0.567318 0.714832 0.924181
0.753425 0.714832 0.924181
0.903098 0.714832 0.924181
0.989205 0.714832 0.924181
0.984614 0.714832 0.924181
0.001184 0.870906 0.924181
0.061710 0.870906 0.924181
0.194328 0.870906 0.924181
0.371908 0.870906 0.924181
0.567318 0.870906 0.924181
0.753425 0.870906 0.924181
0.903098 0.870906 0.924181
0.989205 0.870906 0.924181
0.984614 0.870906 0.924181
0.001184 0.973335 0.924181
0.061710 0.973335 0.924181
0.194328 0.973335 0.924181
0.371908 0.973335 0.924181
0.567318 0.973335 0.924181
0.753425 0.973335 0.924181
0.903098 0.973335 0.924181
0.989205 0.973335 0.924181
0.984614 0.973335 0.924181
0.001184 0.997246 0.924181
0.061710 0.997246 0.924181
0.194328 0.997246 0.924181
0.371908 0.997246 0.924181
0.567318 0.997246 0.924181
0.753425 0.997246 0.924181
0.903098 0.997246 0.924181
0.989205 0.997246 0.924181
0.984614 0.997246 0.924181
0.001184 0.000298 0.992750
0.061710 0.000298 0.992750
0.194328 0.000298 0.992750
0.371908 0.000298 0.992750
0.567318 0.000298 0.992750
0.753425 0.000298 0.992750
0.903098 0.000298 0.992750
0.989205 0.000298 0.992750
0.984614 0.000298 0.992750
0.001184 0.051520 0.992750
0.061710 0.051520 0.992750
0.194328 0.051520 0.992750
0.371908 0.051520 0.992750
0.567318 0.051520 0.992750
0.753425 0.051520 0.992750
0.903098 0.051520 0.992750
0.989205 0.051520 0.992750
0.984614 0.051520 0.992750
0.001184 0.173456 0.992750
0.061710 0.173456 0.992750
0.194328 0.173456 0.992750
0.371908 0.173456 0.992750
0.567318 0.173456 0.992750
0.753425 0.173456 0.992750
0.903098 0.173456 0.992750
0.989205 0.173456 0.992750
0.984614 0.173456 0.992750
0.001184 0.341235 0.992750
0.061710 0.341235 0.992750
0.194328 0.341235 0.992750
0.371908 0.341235 0.992750
0.567318 0.341235 0.992750
0.753425 0.341235 0.992750
0.903098 0.341235 0.992750
0.989205 0.341235 0.992750
0.984614 0.341235 0.992750
0.001184 0.529984 0.992750
0.061710 0.529984 0.992750
0.194328 0.529984 0.992750
0.371908 0.529984 0.992750
0.567318 0.529984 0.992750
0.753425 0.529984 0.992750
0.903098 0.529984 0.992750
0.989205 0.529984 0.992750
0.984614 0.529984 0.992750
0.001184 0.714832 0.992750
0.061710 0.714832 0.992750
0.194328 0.714832 0.992750
0.371908 0.714832 0.992750
0.567318 0.714832 0.992750
0.753425 0.714832 0.992750
0.903098 0.714832 0.992750
0.989205 0.714832 0.992750
0.984614 0.714832 0.992750
0.001184 0.870906 0.992750
0.061710 0.870906 0.992750
0.194328 0.870906 0.992750
0.371908 0.870906 0.992750
0.567318 0.870906 0.992750
0.753425 0.870906 0.992750
0.903098 0.870906 0.992750
0.989205 0.870906 0.992750
0.984614 0.870906 0.992750
0.001184 0.973335 0.992750
0.061710 0.973335 0.992750
0.194328 0.973335 0.992750
0.371908 0.973335 0.992750
0.567318 0.973335 0.992750
0.753425 0.973335 0.992750
0.903098 0.973335 0.992750
0.989205 0.973335 0.992750
0.984614 0.973335 0.992750
0.001184 0.997246 0.992750
0.061710 0.997246 0.992750
0.194328 0.997246 0.992750
0.371908 0.997246 0.992750
0.567318 0.997246 0.992750
0.753425 0.997246 0.992750
0.903098 0.997246 0.992750
0.989205 0.997246 0.992750
0.984614 0.997246 0.992750
