betterCam/LUTs/Kodak_Vision3_250D_5207.cube
TITLE "Kodak Vision3 5207 Simulation"
LUT_3D_SIZE 9
0.000000 0.000000 0.000000
0.064795 0.000000 0.000000
0.223299 0.000000 0.000000
0.381939 0.000000 0.000000
0.540681 0.000000 0.000000
0.699507 0.000000 0.000000
0.858402 0.000000 0.000000
0.948157 0.000000 0.000000
1.000000 0.000000 0.000000
0.000000 0.092643 0.000000
0.061608 0.090482 0.000000
0.220245 0.088394 0.000000
0.378986 0.086369 0.000000
0.537810 0.084399 0.000000
0.696704 0.082483 0.000000
0.855656 0.080617 0.000000
0.945440 0.079584 0.000000
1.000000 0.078862 0.000000
0.000000 0.241692 0.000000
0.058552 0.239603 0.000000
0.217291 0.237576 0.000000
0.376114 0.235606 0.000000
0.535006 0.233688 0.000000
0.693957 0.231821 0.000000
0.852958 0.230002 0.000000
0.942767 0.228996 0.000000
1.000000 0.228293 0.000000
0.000000 0.390812 0.000000
0.055596 0.388784 0.000000
0.214417 0.386812 0.000000
0.373308 0.384894 0.000000
0.532258 0.383025 0.000000
0.691259 0.381206 0.000000
0.850302 0.379434 0.000000
0.940132 0.378453 0.000000
1.000000 0.377768 0.000000
0.000000 0.539991 0.000000
0.052721 0.538019 0.000000
0.211610 0.536099 0.000000
0.370559 0.534230 0.000000
0.529559 0.532409 0.000000
0.688602 0.530636 0.000000
0.847682 0.528909 0.000000
0.937529 0.527954 0.000000
1.000000 0.527287 0.000000
0.000000 0.689225 0.000000
0.049913 0.687305 0.000000
0.208861 0.685434 0.000000
0.367859 0.683613 0.000000
0.526901 0.681839 0.000000
0.685980 0.680111 0.000000
0.845091 0.678429 0.000000
0.934954 0.677500 0.000000
0.998611 0.676850 0.000000
0.000000 0.838510 0.000000
0.047162 0.836639 0.000000
0.206159 0.834817 0.000000
0.365201 0.833041 0.000000
0.524279 0.831313 0.000000
0.683389 0.829630 0.000000
0.842526 0.827993 0.000000
0.932401 0.827088 0.000000
0.996065 0.826456 0.000000
0.000000 0.934078 0.000000
0.045427 0.932238 0.000000
0.204453 0.930445 0.000000
0.363518 0.928699 0.000000
0.522617 0.926999 0.000000
0.681745 0.925345 0.000000
0.840895 0.923736 0.000000
0.930776 0.922848 0.000000
0.994445 0.922228 0.000000
0.000000 0.993818 0.000000
0.044352 0.991996 0.000000
0.203395 0.990222 0.000000
0.362474 0.988494 0.000000
0.521584 0.986813 0.000000
0.680721 0.985176 0.000000
0.839879 0.983585 0.000000
0.929764 0.982707 0.000000
0.993435 0.982094 0.000000
0.000000 0.000000 0.117383
0.066317 0.000000 0.113300
0.224953 0.000000 0.109206
0.383692 0.000000 0.105115
0.542514 0.000000 0.101035
0.701407 0.000000 0.096972
0.860358 0.000000 0.092932
0.950141 0.000000 0.090662
1.000000 0.000000 0.089060
0.000000 0.091580 0.109673
0.063259 0.089490 0.105579
0.221997 0.087462 0.101488
0.380818 0.085490 0.097408
0.539709 0.083572 0.093345
0.698659 0.081704 0.089304
0.857659 0.079884 0.085290
0.947467 0.078877 0.083037
1.000000 0.078173 0.081447
0.000000 0.240699 0.101953
0.060302 0.238669 0.097862
0.219121 0.236697 0.093781
0.378011 0.234777 0.089718
0.536960 0.232908 0.085676
0.695959 0.231088 0.081662
0.855002 0.229314 0.077678
0.944831 0.228333 0.075443
1.000000 0.227648 0.073867
0.000000 0.389877 0.094235
0.057425 0.387903 0.090154
0.216313 0.385983 0.086090
0.375261 0.384113 0.082049
0.534260 0.382291 0.078034
0.693302 0.380517 0.074049
0.852381 0.378789 0.070099
0.942228 0.377834 0.067885
1.000000 0.377166 0.066324
0.000000 0.539110 0.086527
0.054616 0.537188 0.082463
0.213562 0.535317 0.078421
0.372560 0.533495 0.074405
0.531601 0.531720 0.070420
0.690680 0.529991 0.066469
0.849790 0.528308 0.062556
0.939652 0.527378 0.060365
1.000000 0.526728 0.058821
0.000000 0.688394 0.078836
0.051863 0.686522 0.074793
0.210860 0.684698 0.070777
0.369901 0.682922 0.066791
0.528979 0.681193 0.062840
0.688088 0.679509 0.058926
0.847224 0.677871 0.055054
0.937099 0.676966 0.052888
1.000000 0.676334 0.051363
0.000000 0.837726 0.071166
0.049161 0.835902 0.067149
0.208200 0.834125 0.063162
0.367277 0.832395 0.059210
0.526386 0.830710 0.055296
0.685522 0.829071 0.051423
0.844679 0.827477 0.047596
0.934563 0.826598 0.045457
0.998234 0.825983 0.043952
0.000000 0.933324 0.066270
0.047453 0.931529 0.062272
0.206517 0.929782 0.058306
0.365615 0.928080 0.054377
0.524741 0.926424 0.050488
0.683890 0.924813 0.046644
0.843058 0.923248 0.042848
0.932947 0.922385 0.040728
0.996620 0.921782 0.039236
0.000000 0.993082 0.063216
0.046394 0.991306 0.059230
0.205472 0.989576 0.055278
0.364582 0.987892 0.051364
0.523717 0.986254 0.047493
0.682875 0.984662 0.043667
0.842048 0.983115 0.039891
0.931939 0.982261 0.037783
0.995614 0.981666 0.036301
0.000000 0.000000 0.266252
0.067967 0.000000 0.262159
0.226702 0.000000 0.258067
0.385522 0.000000 0.253987
0.544412 0.000000 0.249923
0.703361 0.000000 0.245882
0.862360 0.000000 0.241867
0.952168 0.000000 0.239614
1.000000 0.000000 0.238024
0.000000 0.090585 0.258532
0.065007 0.088555 0.254441
0.223826 0.086581 0.250360
0.382714 0.084661 0.246296
0.541662 0.082791 0.242254
0.700660 0.080969 0.238239
0.859702 0.079195 0.234255
0.949531 0.078214 0.232019
1.000000 0.077527 0.230443
0.000000 0.239763 0.250814
0.062129 0.237788 0.246733
0.221016 0.235866 0.242669
0.379963 0.233995 0.238627
0.538961 0.232173 0.234611
0.698002 0.230398 0.230626
0.857080 0.228669 0.226675
0.946927 0.227713 0.224460
1.000000 0.227045 0.222899
0.000000 0.388994 0.243106
0.059318 0.387072 0.239042
0.218264 0.385200 0.234999
0.377261 0.383376 0.230983
0.536301 0.381600 0.226997
0.695379 0.379871 0.223045
0.854489 0.378187 0.219132
0.944351 0.377256 0.216940
1.000000 0.376606 0.215396
0.000000 0.538277 0.235415
0.056565 0.536404 0.231371
0.215561 0.534580 0.227355
0.374601 0.532803 0.223368
0.533678 0.531073 0.219416
0.692787 0.529388 0.215501
0.851922 0.527749 0.211629
0.941797 0.526843 0.209462
1.000000 0.526211 0.207936
0.000000 0.687609 0.227744
0.053861 0.685784 0.223726
0.212900 0.684006 0.219739
0.371977 0.682274 0.215786
0.531085 0.680589 0.211871
0.690220 0.678949 0.207998
0.849377 0.677355 0.204170
0.939261 0.676474 0.202030
1.000000 0.675860 0.200525
0.000000 0.836987 0.220098
0.051200 0.835209 0.216110
0.210276 0.833476 0.212157
0.369384 0.831790 0.208241
0.528518 0.830149 0.204366
0.687674 0.828554 0.200538
0.846847 0.827004 0.196759
0.936738 0.826149 0.194649
1.000000 0.825553 0.193165
0.000000 0.932613 0.215220
0.049516 0.930864 0.211253
0.208612 0.929161 0.207323
0.367738 0.927503 0.203432
0.526886 0.925890 0.199586
0.686053 0.924324 0.195788
0.845233 0.922803 0.192043
0.935128 0.921965 0.189953
0.998804 0.921380 0.188485
0.000000 0.992389 0.212178
0.048470 0.990658 0.208225
0.207579 0.988972 0.204309
0.366714 0.987332 0.200436
0.525870 0.985738 0.196608
0.685043 0.984189 0.192830
0.844227 0.982686 0.189107
0.934122 0.981858 0.187031
0.997799 0.981281 0.185572
0.000000 0.000000 0.415111
0.069713 0.000000 0.411020
0.228530 0.000000 0.406939
0.387417 0.000000 0.402874
0.546363 0.000000 0.398832
0.705361 0.000000 0.394817
0.864402 0.000000 0.390831
0.954231 0.000000 0.388596
1.000000 0.000000 0.387019
0.000000 0.089648 0.407393
0.066833 0.087672 0.403312
0.225719 0.085750 0.399247
0.384665 0.083878 0.395205
0.543661 0.082054 0.391188
0.702702 0.080278 0.387202
0.861780 0.078549 0.383251
0.951626 0.077592 0.381036
1.000000 0.076924 0.379475
0.000000 0.238879 0.399685
0.064021 0.236955 0.395620
0.222966 0.235082 0.391577
0.381962 0.233258 0.387560
0.541001 0.231481 0.383574
0.700079 0.229751 0.379621
0.859188 0.228066 0.375707
0.949049 0.227135 0.373515
1.000000 0.226484 0.371970
0.000000 0.388161 0.391993
0.061267 0.386287 0.387949
0.220262 0.384462 0.383932
0.379301 0.382684 0.379945
0.538377 0.380953 0.375992
0.697486 0.379267 0.372077
0.856621 0.377627 0.368203
0.946495 0.376721 0.366036
1.000000 0.376088 0.364510
0.000000 0.537492 0.384322
0.058562 0.535665 0.380304
0.217600 0.533887 0.376316
0.376676 0.532154 0.372362
0.535784 0.530468 0.368446
0.694919 0.528827 0.364572
0.854075 0.527232 0.360743
0.943959 0.526351 0.358603
1.000000 0.525736 0.357097
0.000000 0.686869 0.376676
0.055900 0.685089 0.372687
0.214975 0.683356 0.368733
0.374082 0.681669 0.364816
0.533216 0.680027 0.360941
0.692372 0.678431 0.357111
0.851544 0.676880 0.353331
0.941435 0.676025 0.351221
1.000000 0.675428 0.349737
0.000000 0.836292 0.369058
0.053274 0.834558 0.365103
0.212381 0.832870 0.361186
0.371514 0.831227 0.357310
0.530669 0.829630 0.353479
0.689841 0.828079 0.349698
0.849025 0.826573 0.345972
0.938920 0.825744 0.343893
1.000000 0.825165 0.342433
0.000000 0.931946 0.364200
0.051610 0.930241 0.360268
0.210734 0.928582 0.356376
0.369882 0.926968 0.352528
0.529048 0.925399 0.348729
0.688228 0.923876 0.344981
0.847417 0.922400 0.341291
0.937313 0.921587 0.339235
1.000000 0.921021 0.337791
0.000000 0.991740 0.361171
0.050576 0.990052 0.357254
0.209710 0.988411 0.353379
0.368865 0.986814 0.349550
0.528038 0.985264 0.345770
0.687222 0.983759 0.342044
0.846412 0.982301 0.338379
0.936309 0.981499 0.336337
0.999985 0.980940 0.334904
0.000000 0.000000 0.563972
0.071537 0.000000 0.559891
0.230422 0.000000 0.555826
0.389366 0.000000 0.551783
0.548362 0.000000 0.547766
0.707402 0.000000 0.543779
0.866479 0.000000 0.539827
0.956325 0.000000 0.537612
1.000000 0.000000 0.536050
0.000000 0.088764 0.556264
0.068724 0.086839 0.552199
0.227668 0.084965 0.548155
0.386663 0.083140 0.544138
0.545702 0.081362 0.540150
0.704778 0.079631 0.536197
0.863886 0.077945 0.532282
0.953748 0.077013 0.530089
1.000000 0.076362 0.528545
0.000000 0.238045 0.548571
0.065969 0.236170 0.544527
0.224963 0.234343 0.540509
0.384001 0.232565 0.536522
0.543077 0.230832 0.532568
0.702185 0.229146 0.528652
0.861319 0.227505 0.524778
0.951193 0.226599 0.522610
1.000000 0.225965 0.521083
0.000000 0.387374 0.540900
0.063263 0.385547 0.536881
0.222301 0.383767 0.532893
0.381376 0.382034 0.528938
0.540483 0.380347 0.525022
0.699617 0.378705 0.521146
0.858773 0.377109 0.517317
0.948656 0.376228 0.515176
1.000000 0.375612 0.513670
0.000000 0.536751 0.533253
0.060600 0.534970 0.529264
0.219675 0.533236 0.525309
0.378781 0.531548 0.521391
0.537915 0.529905 0.517515
0.697070 0.528308 0.513685
0.856242 0.526757 0.509904
0.946133 0.525901 0.507793
1.000000 0.525304 0.506308
0.000000 0.686173 0.525635
0.057974 0.684438 0.521679
0.217080 0.682749 0.517761
0.376213 0.681105 0.513884
0.535368 0.679507 0.510053
0.694539 0.677955 0.506271
0.853723 0.676449 0.502543
0.943618 0.675619 0.500464
1.000000 0.675040 0.499003
0.000000 0.835640 0.518050
0.055378 0.833950 0.514131
0.214511 0.832306 0.510253
0.373665 0.830707 0.506421
0.532836 0.829153 0.502638
0.692020 0.827646 0.498909
0.851210 0.826186 0.495240
0.941107 0.825382 0.493196
1.000000 0.824822 0.491761
0.000000 0.931322 0.513214
0.053731 0.929661 0.509320
0.212878 0.928045 0.505471
0.372043 0.926474 0.501669
0.531223 0.924950 0.497919
0.690411 0.923472 0.494227
0.849603 0.922041 0.490598
0.939499 0.921255 0.488578
1.000000 0.920707 0.487162
0.000000 0.991132 0.510200
0.052706 0.989489 0.506323
0.211861 0.987891 0.502491
0.371033 0.986338 0.498709
0.530216 0.984832 0.494982
0.689406 0.983372 0.491313
0.848598 0.981961 0.487710
0.938492 0.981185 0.485707
1.000000 0.980645 0.484302
0.000000 0.000000 0.712843
0.073427 0.000000 0.708777
0.232370 0.000000 0.704733
0.391364 0.000000 0.700715
0.550402 0.000000 0.696727
0.709477 0.000000 0.692773
0.868585 0.000000 0.688858
0.958447 0.000000 0.686664
1.000000 0.000000 0.685119
0.000000 0.087928 0.705150
0.070671 0.086052 0.701105
0.229664 0.084225 0.697087
0.388701 0.082446 0.693098
0.547776 0.080712 0.689144
0.706884 0.079025 0.685227
0.866018 0.077383 0.681352
0.955891 0.076476 0.679184
1.000000 0.075843 0.677657
0.000000 0.237257 0.697478
0.067964 0.235429 0.693459
0.227001 0.233648 0.689470
0.386075 0.231914 0.685514
0.545182 0.230226 0.681597
0.704315 0.228583 0.677721
0.863471 0.226986 0.673890
0.953354 0.226105 0.671749
1.000000 0.225489 0.670242
0.000000 0.386633 0.689831
0.065300 0.384851 0.685841
0.224374 0.383116 0.681885
0.383480 0.381427 0.677967
0.542613 0.379784 0.674090
0.701768 0.378186 0.670258
0.860940 0.376633 0.666477
0.950831 0.375777 0.664365
1.000000 0.375179 0.662880
0.000000 0.536054 0.682212
0.062673 0.534318 0.678256
0.221779 0.532628 0.674336
0.380911 0.530984 0.670459
0.540066 0.529385 0.666626
0.699237 0.527831 0.662844
0.858420 0.526324 0.659115
0.948316 0.525494 0.657035
1.000000 0.524914 0.655574
0.000000 0.685520 0.674626
0.060077 0.683829 0.670706
0.219209 0.682184 0.666828
0.378363 0.680584 0.662994
0.537534 0.679030 0.659211
0.696717 0.677522 0.655481
0.855907 0.676060 0.651810
0.945804 0.675256 0.649765
1.000000 0.674696 0.648330
0.000000 0.835030 0.667076
0.057507 0.833384 0.663197
0.216661 0.831783 0.659362
0.375831 0.830228 0.655578
0.535014 0.828719 0.651847
0.694204 0.827257 0.648175
0.853396 0.825842 0.644567
0.943291 0.825065 0.642562
1.000000 0.824524 0.641155
0.000000 0.930740 0.662265
0.055873 0.929122 0.658413
0.215038 0.927550 0.654609
0.374218 0.926024 0.650858
0.533406 0.924544 0.647163
0.692597 0.923111 0.643531
0.851787 0.921727 0.639968
0.941678 0.920968 0.637989
1.000000 0.920440 0.636603
0.000000 0.990567 0.659266
0.054856 0.988967 0.655433
0.214028 0.987413 0.651649
0.373211 0.985905 0.647919
0.532401 0.984444 0.644248
0.691592 0.983030 0.640642
0.850779 0.981665 0.637108
0.940668 0.980917 0.635147
1.000000 0.980397 0.633775
0.000000 0.000000 0.861728
0.075373 0.000000 0.857683
0.234365 0.000000 0.853664
0.393401 0.000000 0.849675
0.552476 0.000000 0.845720
0.711583 0.000000 0.841803
0.870716 0.000000 0.837927
0.960590 0.000000 0.835758
1.000000 0.000000 0.834230
0.000000 0.087140 0.854056
0.072665 0.085311 0.850036
0.231701 0.083529 0.846046
0.390775 0.081794 0.842091
0.549881 0.080105 0.838172
0.709014 0.078462 0.834295
0.868169 0.076864 0.830464
0.958052 0.075981 0.828322
1.000000 0.075365 0.826815
0.000000 0.236514 0.846408
0.070001 0.234732 0.842418
0.229074 0.232996 0.838461
0.388179 0.231306 0.834542
0.547312 0.229662 0.830664
0.706466 0.228063 0.826832
0.865638 0.226510 0.823049
0.955528 0.225653 0.820937
1.000000 0.225055 0.819451
0.000000 0.385935 0.838789
0.067373 0.384198 0.834832
0.226477 0.382507 0.830912
0.385610 0.380862 0.827033
0.544764 0.379262 0.823200
0.703935 0.377708 0.819416
0.863118 0.376200 0.815686
0.953013 0.375369 0.813606
1.000000 0.374789 0.812144
0.000000 0.535400 0.831202
0.064776 0.533708 0.827282
0.223907 0.532062 0.823402
0.383061 0.530461 0.819568
0.542232 0.528906 0.815783
0.701415 0.527397 0.812052
0.860605 0.525935 0.808380
0.950502 0.525130 0.806335
1.000000 0.524569 0.804899
0.000000 0.684909 0.823651
0.062205 0.683262 0.819771
0.221359 0.681661 0.815936
0.380529 0.680105 0.812150
0.539712 0.678595 0.808418
0.698902 0.677131 0.804745
0.858093 0.675716 0.801136
0.947988 0.674938 0.799130
1.000000 0.674397 0.797723
0.000000 0.834462 0.816140
0.059656 0.832860 0.812304
0.218826 0.831303 0.808517
0.378009 0.829792 0.804784
0.537199 0.828328 0.801110
0.696390 0.826911 0.797500
0.855578 0.825544 0.793961
0.945467 0.824794 0.791998
1.000000 0.824273 0.790623
0.000000 0.930199 0.811355
0.058034 0.928625 0.807550
0.217212 0.927097 0.803796
0.376400 0.925616 0.800099
0.535592 0.924181 0.796464
0.694781 0.922795 0.792898
0.853962 0.921459 0.789409
0.943847 0.920728 0.787475
1.000000 0.920221 0.786123
0.000000 0.990044 0.808374
0.057023 0.988488 0.804589
0.216205 0.986978 0.800856
0.375395 0.985515 0.797183
0.534587 0.984099 0.793575
0.693774 0.982733 0.790038
0.852950 0.981417 0.786580
0.942829 0.980698 0.784667
1.000000 0.980199 0.783330
0.000000 0.000000 0.968695
0.076800 0.000000 0.964667
0.235824 0.000000 0.960669
0.394887 0.000000 0.956702
0.553984 0.000000 0.952773
0.713110 0.000000 0.948884
0.872259 0.000000 0.945039
0.962140 0.000000 0.942888
1.000000 0.000000 0.941375
0.000000 0.086601 0.961039
0.074124 0.084805 0.957040
0.233186 0.083056 0.953073
0.392283 0.081352 0.949143
0.551408 0.079695 0.945253
0.710557 0.078083 0.941407
0.869724 0.076516 0.937609
0.959613 0.075652 0.935488
1.000000 0.075048 0.933995
0.000000 0.236008 0.953411
0.071485 0.234258 0.949444
0.230581 0.232554 0.945513
0.389706 0.230895 0.941622
0.548854 0.229282 0.937775
0.708021 0.227715 0.933976
0.867201 0.226193 0.930230
0.957095 0.225354 0.928140
1.000000 0.224769 0.926671
0.000000 0.385460 0.945815
0.068880 0.383755 0.941883
0.228004 0.382096 0.937991
0.387152 0.380482 0.934143
0.546318 0.378913 0.930344
0.705498 0.377391 0.926597
0.864687 0.375915 0.922907
0.954583 0.375102 0.920851
1.000000 0.374536 0.919407
0.000000 0.534956 0.938253
0.066302 0.533296 0.934360
0.225450 0.531681 0.930512
0.384616 0.530112 0.926711
0.543795 0.528589 0.922963
0.702984 0.527112 0.919272
0.862175 0.525682 0.915644
0.952071 0.524896 0.913626
1.000000 0.524349 0.912210
0.000000 0.684497 0.930730
0.063747 0.682881 0.926880
0.222913 0.681311 0.923078
0.382092 0.679786 0.919329
0.541281 0.678309 0.915637
0.700472 0.676878 0.912008
0.859662 0.675496 0.908448
0.949553 0.674738 0.906471
1.000000 0.674211 0.905086
0.000000 0.834080 0.923248
0.061210 0.832509 0.919446
0.220390 0.830984 0.915696
0.379578 0.829505 0.912002
0.538769 0.828074 0.908372
0.697959 0.826691 0.904810
0.857139 0.825359 0.901326
0.947022 0.824629 0.899395
1.000000 0.824123 0.898046
0.000000 0.929837 0.918484
0.059594 0.928295 0.914714
0.218779 0.926799 0.910999
0.377970 0.925349 0.907344
0.537161 0.923948 0.903756
0.696346 0.922597 0.900242
0.855517 0.921297 0.896810
0.945392 0.920587 0.894913
1.000000 0.920095 0.893589
0.000000 0.989694 0.915517
0.058586 0.988170 0.911768
0.217774 0.986692 0.908076
0.376966 0.985261 0.904446
0.536155 0.983880 0.900886
0.695335 0.982548 0.897403
0.854499 0.981269 0.894007
0.944368 0.980572 0.892132
1.000000 0.980089 0.890824
0.000000 0.000000 1.000000
0.077605 0.000000 1.000000
0.236645 0.000000 1.000000
0.395722 0.000000 1.000000
0.554831 0.000000 1.000000
0.713966 0.000000 1.000000
0.873122 0.000000 1.000000
0.963007 0.000000 1.000000
1.000000 0.000000 1.000000
0.000000 0.086311 1.000000
0.074944 0.084533 1.000000
0.234020 0.082802 1.000000
0.393129 0.081116 1.000000
0.552264 0.079476 1.000000
0.711420 0.077881 1.000000
0.870593 0.076332 0.997280
0.960484 0.075478 0.995171
1.000000 0.074882 0.993687
0.000000 0.235736 1.000000
0.072319 0.234003 1.000000
0.231427 0.232317 1.000000
0.390561 0.230676 1.000000
0.549717 0.229080 0.997426
0.708890 0.227531 0.993647
0.868074 0.226027 0.989923
0.957969 0.225198 0.987845
1.000000 0.224620 0.986386
0.000000 0.385205 1.000000
0.069725 0.383518 1.000000
0.228859 0.381876 0.997624
0.388015 0.380280 0.993794
0.547187 0.378729 0.990014
0.706371 0.377224 0.986289
0.865561 0.375766 0.982622
0.955458 0.374964 0.980581
1.000000 0.374405 0.979148
0.000000 0.534719 0.997869
0.067157 0.533076 0.993993
0.226312 0.531479 0.990162
0.385484 0.529927 0.986381
0.544668 0.528421 0.982654
0.703858 0.526963 0.978987
0.863050 0.525552 0.975385
0.952944 0.524776 0.973382
1.000000 0.524237 0.971978
0.000000 0.684276 0.990362
0.064610 0.682678 0.986530
0.223781 0.681125 0.982748
0.382965 0.679619 0.979020
0.542155 0.678159 0.975352
0.701347 0.676747 0.971748
0.860533 0.675384 0.968217
0.950422 0.674637 0.966257
1.000000 0.674118 0.964886
0.000000 0.833877 0.982898
0.062079 0.832324 0.979115
0.221262 0.830816 0.975386
0.380452 0.829356 0.971716
0.539643 0.827943 0.968111
0.698830 0.826579 0.964579
0.858005 0.825266 0.961126
0.947884 0.824549 0.959215
1.000000 0.824051 0.957881
0.000000 0.929645 0.978146
0.060465 0.928120 0.974396
0.219653 0.926642 0.970704
0.378845 0.925211 0.967074
0.538034 0.923829 0.963514
0.697214 0.922497 0.960030
0.856378 0.921218 0.956633
0.946248 0.920520 0.954757
1.000000 0.920037 0.953449
0.000000 0.989509 0.975186
0.059458 0.988002 0.971459
0.218648 0.986542 0.967790
0.377840 0.985130 0.964187
0.537026 0.983768 0.960655
0.696201 0.982456 0.957204
0.855356 0.981199 0.953844
0.945218 0.980514 0.951992
1.000000 0.980041 0.950703
