betterCam/LUTs/Kodak_Gold_200.cube
TITLE "Kodak Gold 200 Simulation"
LUT_3D_SIZE 33
0.001184 0.000298 0.001184
0.008073 0.000298 0.001184
0.020739 0.000298 0.001184
0.038760 0.000298 0.001184
0.061710 0.000298 0.001184
0.089165 0.000298 0.001184
0.120703 0.000298 0.001184
0.155899 0.000298 0.001184
0.194328 0.000298 0.001184
0.235568 0.000298 0.001184
0.279194 0.000298 0.001184
0.324782 0.000298 0.001184
0.371908 0.000298 0.001184
0.420149 0.000298 0.001184
0.469080 0.000298 0.001184
0.518278 0.000298 0.001184
0.567318 0.000298 0.001184
0.615776 0.000298 0.001184
0.663230 0.000298 0.001184
0.709254 0.000298 0.001184
0.753425 0.000298 0.001184
0.795319 0.000298 0.001184
0.834511 0.000298 0.001184
0.870579 0.000298 0.001184
0.903098 0.000298 0.001184
0.931644 0.000298 0.001184
0.955793 0.000298 0.001184
0.975121 0.000298 0.001184
0.989205 0.000298 0.001184
0.997620 0.000298 0.001184
0.999942 0.000298 0.001184
0.995748 0.000298 0.001184
0.984614 0.000298 0.001184
0.001184 0.005114 0.001184
0.008073 0.005114 0.001184
0.020739 0.005114 0.001184
0.038760 0.005114 0.001184
0.061710 0.005114 0.001184
0.089165 0.005114 0.001184
0.120703 0.005114 0.001184
0.155899 0.005114 0.001184
0.194328 0.005114 0.001184
0.235568 0.005114 0.001184
0.279194 0.005114 0.001184
0.324782 0.005114 0.001184
0.371908 0.005114 0.001184
0.420149 0.005114 0.001184
0.469080 0.005114 0.001184
0.518278 0.005114 0.001184
0.567318 0.005114 0.001184
0.615776 0.005114 0.001184
0.663230 0.005114 0.001184
0.709254 0.005114 0.001184
0.753425 0.005114 0.001184
0.795319 0.005114 0.001184
0.834511 0.005114 0.001184
0.870579 0.005114 0.001184
0.903098 0.005114 0.001184
0.931644 0.005114 0.001184
0.955793 0.005114 0.001184
0.975121 0.005114 0.001184
0.989205 0.005114 0.001184
0.997620 0.005114 0.001184
0.999942 0.005114 0.001184
0.995748 0.005114 0.001184
0.984614 0.005114 0.001184
0.001184 0.015515 0.001184
0.008073 0.015515 0.001184
0.020739 0.015515 0.001184
0.038760 0.015515 0.001184
0.061710 0.015515 0.001184
0.089165 0.015515 0.001184
0.120703 0.015515 0.001184
0.155899 0.015515 0.001184
0.194328 0.015515 0.001184
0.235568 0.015515 0.001184
0.279194 0.015515 0.001184
0.324782 0.015515 0.001184
0.371908 0.015515 0.001184
0.420149 0.015515 0.001184
0.469080 0.015515 0.001184
0.518278 0.015515 0.001184
0.567318 0.015515 0.001184
0.615776 0.015515 0.001184
0.663230 0.015515 0.001184
0.709254 0.015515 0.001184
0.753425 0.015515 0.001184
0.795319 0.015515 0.001184
0.834511 0.015515 0.001184
0.870579 0.015515 0.001184
0.903098 0.015515 0.001184
0.931644 0.015515 0.001184
0.955793 0.015515 0.001184
0.975121 0.015515 0.001184
0.989205 0.015515 0.001184
0.997620 0.015515 0.001184
0.999942 0.015515 0.001184
0.995748 0.015515 0.001184
0.984614 0.015515 0.001184
0.001184 0.031113 0.001184
0.008073 0.031113 0.001184
0.020739 0.031113 0.001184
0.038760 0.031113 0.001184
0.061710 0.031113 0.001184
0.089165 0.031113 0.001184
0.120703 0.031113 0.001184
0.155899 0.031113 0.001184
0.194328 0.031113 0.001184
0.235568 0.031113 0.001184
0.279194 0.031113 0.001184
0.324782 0.031113 0.001184
0.371908 0.031113 0.001184
0.420149 0.031113 0.001184
0.469080 0.031113 0.001184
0.518278 0.031113 0.001184
0.567318 0.031113 0.001184
0.615776 0.031113 0.001184
0.663230 0.031113 0.001184
0.709254 0.031113 0.001184
0.753425 0.031113 0.001184
0.795319 0.031113 0.001184
0.834511 0.031113 0.001184
0.870579 0.031113 0.001184
0.903098 0.031113 0.001184
0.931644 0.031113 0.001184
0.955793 0.031113 0.001184
0.975121 0.031113 0.001184
0.989205 0.031113 0.001184
0.997620 0.031113 0.001184
0.999942 0.031113 0.001184
0.995748 0.031113 0.001184
0.984614 0.031113 0.001184
0.001184 0.051520 0.001184
0.008073 0.051520 0.001184
0.020739 0.051520 0.001184
0.038760 0.051520 0.001184
0.061710 0.051520 0.001184
0.089165 0.051520 0.001184
0.120703 0.051520 0.001184
0.155899 0.051520 0.001184
0.194328 0.051520 0.001184
0.235568 0.051520 0.001184
0.279194 0.051520 0.001184
0.324782 0.051520 0.001184
0.371908 0.051520 0.001184
0.420149 0.051520 0.001184
0.469080 0.051520 0.001184
0.518278 0.051520 0.001184
0.567318 0.051520 0.001184
0.615776 0.051520 0.001184
0.663230 0.051520 0.001184
0.709254 0.051520 0.001184
0.753425 0.051520 0.001184
0.795319 0.051520 0.001184
0.834511 0.051520 0.001184
0.870579 0.051520 0.001184
0.903098 0.051520 0.001184
0.931644 0.051520 0.001184
0.955793 0.051520 0.001184
0.975121 0.051520 0.001184
0.989205 0.051520 0.001184
0.997620 0.051520 0.001184
0.999942 0.051520 0.001184
0.995748 0.051520 0.001184
0.984614 0.051520 0.001184
0.001184 0.076346 0.001184
0.008073 0.076346 0.001184
0.020739 0.076346 0.001184
0.038760 0.076346 0.001184
0.061710 0.076346 0.001184
0.089165 0.076346 0.001184
0.120703 0.076346 0.001184
0.155899 0.076346 0.001184
0.194328 0.076346 0.001184
0.235568 0.076346 0.001184
0.279194 0.076346 0.001184
0.324782 0.076346 0.001184
0.371908 0.076346 0.001184
0.420149 0.076346 0.001184
0.469080 0.076346 0.001184
0.518278 0.076346 0.001184
0.567318 0.076346 0.001184
0.615776 0.076346 0.001184
0.663230 0.076346 0.001184
0.709254 0.076346 0.001184
0.753425 0.076346 0.001184
0.795319 0.076346 0.001184
0.834511 0.076346 0.001184
0.870579 0.076346 0.001184
0.903098 0.076346 0.001184
0.931644 0.076346 0.001184
0.955793 0.076346 0.001184
0.975121 0.076346 0.001184
0.989205 0.076346 0.001184
0.997620 0.076346 0.001184
0.999942 0.076346 0.001184
0.995748 0.076346 0.001184
0.984614 0.076346 0.001184
0.001184 0.105203 0.001184
0.008073 0.105203 0.001184
0.020739 0.105203 0.001184
0.038760 0.105203 0.001184
0.061710 0.105203 0.001184
0.089165 0.105203 0.001184
0.120703 0.105203 0.001184
0.155899 0.105203 0.001184
0.194328 0.105203 0.001184
0.235568 0.105203 0.001184
0.279194 0.105203 0.001184
0.324782 0.105203 0.001184
0.371908 0.105203 0.001184
0.420149 0.105203 0.001184
0.469080 0.105203 0.001184
0.518278 0.105203 0.001184
0.567318 0.105203 0.001184
0.615776 0.105203 0.001184
0.663230 0.105203 0.001184
0.709254 0.105203 0.001184
0.753425 0.105203 0.001184
0.795319 0.105203 0.001184
0.834511 0.105203 0.001184
0.870579 0.105203 0.001184
0.903098 0.105203 0.001184
0.931644 0.105203 0.001184
0.955793 0.105203 0.001184
0.975121 0.105203 0.001184
0.989205 0.105203 0.001184
0.997620 0.105203 0.001184
0.999942 0.105203 0.001184
0.995748 0.105203 0.001184
0.984614 0.105203 0.001184
0.001184 0.137702 0.001184
0.008073 0.137702 0.001184
0.020739 0.137702 0.001184
0.038760 0.137702 0.001184
0.061710 0.137702 0.001184
0.089165 0.137702 0.001184
0.120703 0.137702 0.001184
0.155899 0.137702 0.001184
0.194328 0.137702 0.001184
0.235568 0.137702 0.001184
0.279194 0.137702 0.001184
0.324782 0.137702 0.001184
0.371908 0.137702 0.001184
0.420149 0.137702 0.001184
0.469080 0.137702 0.001184
0.518278 0.137702 0.001184
0.567318 0.137702 0.001184
0.615776 0.137702 0.001184
0.663230 0.137702 0.001184
0.709254 0.137702 0.001184
0.753425 0.137702 0.001184
0.795319 0.137702 0.001184
0.834511 0.137702 0.001184
0.870579 0.137702 0.001184
0.903098 0.137702 0.001184
0.931644 0.137702 0.001184
0.955793 0.137702 0.001184
0.975121 0.137702 0.001184
0.989205 0.137702 0.001184
0.997620 0.137702 0.001184
0.999942 0.137702 0.001184
0.995748 0.137702 0.001184
0.984614 0.137702 0.001184
0.001184 0.173456 0.001184
0.008073 0.173456 0.001184
0.020739 0.173456 0.001184
0.038760 0.173456 0.001184
0.061710 0.173456 0.001184
0.089165 0.173456 0.001184
0.120703 0.173456 0.001184
0.155899 0.173456 0.001184
0.194328 0.173456 0.001184
0.235568 0.173456 0.001184
0.279194 0.173456 0.001184
0.324782 0.173456 0.001184
0.371908 0.173456 0.001184
0.420149 0.173456 0.001184
0.469080 0.173456 0.001184
0.518278 0.173456 0.001184
0.567318 0.173456 0.001184
0.615776 0.173456 0.001184
0.663230 0.173456 0.001184
0.709254 0.173456 0.001184
0.753425 0.173456 0.001184
0.795319 0.173456 0.001184
0.834511 0.173456 0.001184
0.870579 0.173456 0.001184
0.903098 0.173456 0.001184
0.931644 0.173456 0.001184
0.955793 0.173456 0.001184
0.975121 0.173456 0.001184
0.989205 0.173456 0.001184
0.997620 0.173456 0.001184
0.999942 0.173456 0.001184
0.995748 0.173456 0.001184
0.984614 0.173456 0.001184
0.001184 0.212074 0.001184
0.008073 0.212074 0.001184
0.020739 0.212074 0.001184
0.038760 0.212074 0.001184
0.061710 0.212074 0.001184
0.089165 0.212074 0.001184
0.120703 0.212074 0.001184
0.155899 0.212074 0.001184
0.194328 0.212074 0.001184
0.235568 0.212074 0.001184
0.279194 0.212074 0.001184
0.324782 0.212074 0.001184
0.371908 0.212074 0.001184
0.420149 0.212074 0.001184
0.469080 0.212074 0.001184
0.518278 0.212074 0.001184
0.567318 0.212074 0.001184
0.615776 0.212074 0.001184
0.663230 0.212074 0.001184
0.709254 0.212074 0.001184
0.753425 0.212074 0.001184
0.795319 0.212074 0.001184
0.834511 0.212074 0.001184
0.870579 0.212074 0.001184
0.903098 0.212074 0.001184
0.931644 0.212074 0.001184
0.955793 0.212074 0.001184
0.975121 0.212074 0.001184
0.989205 0.212074 0.001184
0.997620 0.212074 0.001184
0.999942 0.212074 0.001184
0.995748 0.212074 0.001184
0.984614 0.212074 0.001184
0.001184 0.253169 0.001184
0.008073 0.253169 0.001184
0.020739 0.253169 0.001184
0.038760 0.253169 0.001184
0.061710 0.253169 0.001184
0.089165 0.253169 0.001184
0.120703 0.253169 0.001184
0.155899 0.253169 0.001184
0.194328 0.253169 0.001184
0.235568 0.253169 0.001184
0.279194 0.253169 0.001184
0.324782 0.253169 0.001184
0.371908 0.253169 0.001184
0.420149 0.253169 0.001184
0.469080 0.253169 0.001184
0.518278 0.253169 0.001184
0.567318 0.253169 0.001184
0.615776 0.253169 0.001184
0.663230 0.253169 0.001184
0.709254 0.253169 0.001184
0.753425 0.253169 0.001184
0.795319 0.253169 0.001184
0.834511 0.253169 0.001184
0.870579 0.253169 0.001184
0.903098 0.253169 0.001184
0.931644 0.253169 0.001184
0.955793 0.253169 0.001184
0.975121 0.253169 0.001184
0.989205 0.253169 0.001184
0.997620 0.253169 0.001184
0.999942 0.253169 0.001184
0.995748 0.253169 0.001184
0.984614 0.253169 0.001184
0.001184 0.296352 0.001184
0.008073 0.296352 0.001184
0.020739 0.296352 0.001184
0.038760 0.296352 0.001184
0.061710 0.296352 0.001184
0.089165 0.296352 0.001184
0.120703 0.296352 0.001184
0.155899 0.296352 0.001184
0.194328 0.296352 0.001184
0.235568 0.296352 0.001184
0.279194 0.296352 0.001184
0.324782 0.296352 0.001184
0.371908 0.296352 0.001184
0.420149 0.296352 0.001184
0.469080 0.296352 0.001184
0.518278 0.296352 0.001184
0.567318 0.296352 0.001184
0.615776 0.296352 0.001184
0.663230 0.296352 0.001184
0.709254 0.296352 0.001184
0.753425 0.296352 0.001184
0.795319 0.296352 0.001184
0.834511 0.296352 0.001184
0.870579 0.296352 0.001184
0.903098 0.296352 0.001184
0.931644 0.296352 0.001184
0.955793 0.296352 0.001184
0.975121 0.296352 0.001184
0.989205 0.296352 0.001184
0.997620 0.296352 0.001184
0.999942 0.296352 0.001184
0.995748 0.296352 0.001184
0.984614 0.296352 0.001184
0.001184 0.341235 0.001184
0.008073 0.341235 0.001184
0.020739 0.341235 0.001184
0.038760 0.341235 0.001184
0.061710 0.341235 0.001184
0.089165 0.341235 0.001184
0.120703 0.341235 0.001184
0.155899 0.341235 0.001184
0.194328 0.341235 0.001184
0.235568 0.341235 0.001184
0.279194 0.341235 0.001184
0.324782 0.341235 0.001184
0.371908 0.341235 0.001184
0.420149 0.341235 0.001184
0.469080 0.341235 0.001184
0.518278 0.341235 0.001184
0.567318 0.341235 0.001184
0.615776 0.341235 0.001184
0.663230 0.341235 0.001184
0.709254 0.341235 0.001184
0.753425 0.341235 0.001184
0.795319 0.341235 0.001184
0.834511 0.341235 0.001184
0.870579 0.341235 0.001184
0.903098 0.341235 0.001184
0.931644 0.341235 0.001184
0.955793 0.341235 0.001184
0.975121 0.341235 0.001184
0.989205 0.341235 0.001184
0.997620 0.341235 0.001184
0.999942 0.341235 0.001184
0.995748 0.341235 0.001184
0.984614 0.341235 0.001184
0.001184 0.387428 0.001184
0.008073 0.387428 0.001184
0.020739 0.387428 0.001184
0.038760 0.387428 0.001184
0.061710 0.387428 0.001184
0.089165 0.387428 0.001184
0.120703 0.387428 0.001184
0.155899 0.387428 0.001184
0.194328 0.387428 0.001184
0.235568 0.387428 0.001184
0.279194 0.387428 0.001184
0.324782 0.387428 0.001184
0.371908 0.387428 0.001184
0.420149 0.387428 0.001184
0.469080 0.387428 0.001184
0.518278 0.387428 0.001184
0.567318 0.387428 0.001184
0.615776 0.387428 0.001184
0.663230 0.387428 0.001184
0.709254 0.387428 0.001184
0.753425 0.387428 0.001184
0.795319 0.387428 0.001184
0.834511 0.387428 0.001184
0.870579 0.387428 0.001184
0.903098 0.387428 0.001184
0.931644 0.387428 0.001184
0.955793 0.387428 0.001184
0.975121 0.387428 0.001184
0.989205 0.387428 0.001184
0.997620 0.387428 0.001184
0.999942 0.387428 0.001184
0.995748 0.387428 0.001184
0.984614 0.387428 0.001184
0.001184 0.434542 0.001184
0.008073 0.434542 0.001184
0.020739 0.434542 0.001184
0.038760 0.434542 0.001184
0.061710 0.434542 0.001184
0.089165 0.434542 0.001184
0.120703 0.434542 0.001184
0.155899 0.434542 0.001184
0.194328 0.434542 0.001184
0.235568 0.434542 0.001184
0.279194 0.434542 0.001184
0.324782 0.434542 0.001184
0.371908 0.434542 0.001184
0.420149 0.434542 0.001184
0.469080 0.434542 0.001184
0.518278 0.434542 0.001184
0.567318 0.434542 0.001184
0.615776 0.434542 0.001184
0.663230 0.434542 0.001184
0.709254 0.434542 0.001184
0.753425 0.434542 0.001184
0.795319 0.434542 0.001184
0.834511 0.434542 0.001184
0.870579 0.434542 0.001184
0.903098 0.434542 0.001184
0.931644 0.434542 0.001184
0.955793 0.434542 0.001184
0.975121 0.434542 0.001184
0.989205 0.434542 0.001184
0.997620 0.434542 0.001184
0.999942 0.434542 0.001184
0.995748 0.434542 0.001184
0.984614 0.434542 0.001184
0.001184 0.482191 0.001184
0.008073 0.482191 0.001184
0.020739 0.482191 0.001184
0.038760 0.482191 0.001184
0.061710 0.482191 0.001184
0.089165 0.482191 0.001184
0.120703 0.482191 0.001184
0.155899 0.482191 0.001184
0.194328 0.482191 0.001184
0.235568 0.482191 0.001184
0.279194 0.482191 0.001184
0.324782 0.482191 0.001184
0.371908 0.482191 0.001184
0.420149 0.482191 0.001184
0.469080 0.482191 0.001184
0.518278 0.482191 0.001184
0.567318 0.482191 0.001184
0.615776 0.482191 0.001184
0.663230 0.482191 0.001184
0.709254 0.482191 0.001184
0.753425 0.482191 0.001184
0.795319 0.482191 0.001184
0.834511 0.482191 0.001184
0.870579 0.482191 0.001184
0.903098 0.482191 0.001184
0.931644 0.482191 0.001184
0.955793 0.482191 0.001184
0.975121 0.482191 0.001184
0.989205 0.482191 0.001184
0.997620 0.482191 0.001184
0.999942 0.482191 0.001184
0.995748 0.482191 0.001184
0.984614 0.482191 0.001184
0.001184 0.529984 0.001184
0.008073 0.529984 0.001184
0.020739 0.529984 0.001184
0.038760 0.529984 0.001184
0.061710 0.529984 0.001184
0.089165 0.529984 0.001184
0.120703 0.529984 0.001184
0.155899 0.529984 0.001184
0.194328 0.529984 0.001184
0.235568 0.529984 0.001184
0.279194 0.529984 0.001184
0.324782 0.529984 0.001184
0.371908 0.529984 0.001184
0.420149 0.529984 0.001184
0.469080 0.529984 0.001184
0.518278 0.529984 0.001184
0.567318 0.529984 0.001184
0.615776 0.529984 0.001184
0.663230 0.529984 0.001184
0.709254 0.529984 0.001184
0.753425 0.529984 0.001184
0.795319 0.529984 0.001184
0.834511 0.529984 0.001184
0.870579 0.529984 0.001184
0.903098 0.529984 0.001184
0.931644 0.529984 0.001184
0.955793 0.529984 0.001184
0.975121 0.529984 0.001184
0.989205 0.529984 0.001184
0.997620 0.529984 0.001184
0.999942 0.529984 0.001184
0.995748 0.529984 0.001184
0.984614 0.529984 0.001184
0.001184 0.577533 0.001184
0.008073 0.577533 0.001184
0.020739 0.577533 0.001184
0.038760 0.577533 0.001184
0.061710 0.577533 0.001184
0.089165 0.577533 0.001184
0.120703 0.577533 0.001184
0.155899 0.577533 0.001184
0.194328 0.577533 0.001184
0.235568 0.577533 0.001184
0.279194 0.577533 0.001184
0.324782 0.577533 0.001184
0.371908 0.577533 0.001184
0.420149 0.577533 0.001184
0.469080 0.577533 0.001184
0.518278 0.577533 0.001184
0.567318 0.577533 0.001184
0.615776 0.577533 0.001184
0.663230 0.577533 0.001184
0.709254 0.577533 0.001184
0.753425 0.577533 0.001184
0.795319 0.577533 0.001184
0.834511 0.577533 0.001184
0.870579 0.577533 0.001184
0.903098 0.577533 0.001184
0.931644 0.577533 0.001184
0.955793 0.577533 0.001184
0.975121 0.577533 0.001184
0.989205 0.577533 0.001184
0.997620 0.577533 0.001184
0.999942 0.577533 0.001184
0.995748 0.577533 0.001184
0.984614 0.577533 0.001184
0.001184 0.624450 0.001184
0.008073 0.624450 0.001184
0.020739 0.624450 0.001184
0.038760 0.624450 0.001184
0.061710 0.624450 0.001184
0.089165 0.624450 0.001184
0.120703 0.624450 0.001184
0.155899 0.624450 0.001184
0.194328 0.624450 0.001184
0.235568 0.624450 0.001184
0.279194 0.624450 0.001184
0.324782 0.624450 0.001184
0.371908 0.624450 0.001184
0.420149 0.624450 0.001184
0.469080 0.624450 0.001184
0.518278 0.624450 0.001184
0.567318 0.624450 0.001184
0.615776 0.624450 0.001184
0.663230 0.624450 0.001184
0.709254 0.624450 0.001184
0.753425 0.624450 0.001184
0.795319 0.624450 0.001184
0.834511 0.624450 0.001184
0.870579 0.624450 0.001184
0.903098 0.624450 0.001184
0.931644 0.624450 0.001184
0.955793 0.624450 0.001184
0.975121 0.624450 0.001184
0.989205 0.624450 0.001184
0.997620 0.624450 0.001184
0.999942 0.624450 0.001184
0.995748 0.624450 0.001184
0.984614 0.624450 0.001184
0.001184 0.670346 0.001184
0.008073 0.670346 0.001184
0.020739 0.670346 0.001184
0.038760 0.670346 0.001184
0.061710 0.670346 0.001184
0.089165 0.670346 0.001184
0.120703 0.670346 0.001184
0.155899 0.670346 0.001184
0.194328 0.670346 0.001184
0.235568 0.670346 0.001184
0.279194 0.670346 0.001184
0.324782 0.670346 0.001184
0.371908 0.670346 0.001184
0.420149 0.670346 0.001184
0.469080 0.670346 0.001184
0.518278 0.670346 0.001184
0.567318 0.670346 0.001184
0.615776 0.670346 0.001184
0.663230 0.670346 0.001184
0.709254 0.670346 0.001184
0.753425 0.670346 0.001184
0.795319 0.670346 0.001184
0.834511 0.670346 0.001184
0.870579 0.670346 0.001184
0.903098 0.670346 0.001184
0.931644 0.670346 0.001184
0.955793 0.670346 0.001184
0.975121 0.670346 0.001184
0.989205 0.670346 0.001184
0.997620 0.670346 0.001184
0.999942 0.670346 0.001184
0.995748 0.670346 0.001184
0.984614 0.670346 0.001184
0.001184 0.714832 0.001184
0.008073 0.714832 0.001184
0.020739 0.714832 0.001184
0.038760 0.714832 0.001184
0.061710 0.714832 0.001184
0.089165 0.714832 0.001184
0.120703 0.714832 0.001184
0.155899 0.714832 0.001184
0.194328 0.714832 0.001184
0.235568 0.714832 0.001184
0.279194 0.714832 0.001184
0.324782 0.714832 0.001184
0.371908 0.714832 0.001184
0.420149 0.714832 0.001184
0.469080 0.714832 0.001184
0.518278 0.714832 0.001184
0.567318 0.714832 0.001184
0.615776 0.714832 0.001184
0.663230 0.714832 0.001184
0.709254 0.714832 0.001184
0.753425 0.714832 0.001184
0.795319 0.714832 0.001184
0.834511 0.714832 0.001184
0.870579 0.714832 0.001184
0.903098 0.714832 0.001184
0.931644 0.714832 0.001184
0.955793 0.714832 0.001184
0.975121 0.714832 0.001184
0.989205 0.714832 0.001184
0.997620 0.714832 0.001184
0.999942 0.714832 0.001184
0.995748 0.714832 0.001184
0.984614 0.714832 0.001184
0.001184 0.757520 0.001184
0.008073 0.757520 0.001184
0.020739 0.757520 0.001184
0.038760 0.757520 0.001184
0.061710 0.757520 0.001184
0.089165 0.757520 0.001184
0.120703 0.757520 0.001184
0.155899 0.757520 0.001184
0.194328 0.757520 0.001184
0.235568 0.757520 0.001184
0.279194 0.757520 0.001184
0.324782 0.757520 0.001184
0.371908 0.757520 0.001184
0.420149 0.757520 0.001184
0.469080 0.757520 0.001184
0.518278 0.757520 0.001184
0.567318 0.757520 0.001184
0.615776 0.757520 0.001184
0.663230 0.757520 0.001184
0.709254 0.757520 0.001184
0.753425 0.757520 0.001184
0.795319 0.757520 0.001184
0.834511 0.757520 0.001184
0.870579 0.757520 0.001184
0.903098 0.757520 0.001184
0.931644 0.757520 0.001184
0.955793 0.757520 0.001184
0.975121 0.757520 0.001184
0.989205 0.757520 0.001184
0.997620 0.757520 0.001184
0.999942 0.757520 0.001184
0.995748 0.757520 0.001184
0.984614 0.757520 0.001184
0.001184 0.798020 0.001184
0.008073 0.798020 0.001184
0.020739 0.798020 0.001184
0.038760 0.798020 0.001184
0.061710 0.798020 0.001184
0.089165 0.798020 0.001184
0.120703 0.798020 0.001184
0.155899 0.798020 0.001184
0.194328 0.798020 0.001184
0.235568 0.798020 0.001184
0.279194 0.798020 0.001184
0.324782 0.798020 0.001184
0.371908 0.798020 0.001184
0.420149 0.798020 0.001184
0.469080 0.798020 0.001184
0.518278 0.798020 0.001184
0.567318 0.798020 0.001184
0.615776 0.798020 0.001184
0.663230 0.798020 0.001184
0.709254 0.798020 0.001184
0.753425 0.798020 0.001184
0.795319 0.798020 0.001184
0.834511 0.798020 0.001184
0.870579 0.798020 0.001184
0.903098 0.798020 0.001184
0.931644 0.798020 0.001184
0.955793 0.798020 0.001184
0.975121 0.798020 0.001184
0.989205 0.798020 0.001184
0.997620 0.798020 0.001184
0.999942 0.798020 0.001184
0.995748 0.798020 0.001184
0.984614 0.798020 0.001184
0.001184 0.835945 0.001184
0.008073 0.835945 0.001184
0.020739 0.835945 0.001184
0.038760 0.835945 0.001184
0.061710 0.835945 0.001184
0.089165 0.835945 0.001184
0.120703 0.835945 0.001184
0.155899 0.835945 0.001184
0.194328 0.835945 0.001184
0.235568 0.835945 0.001184
0.279194 0.835945 0.001184
0.324782 0.835945 0.001184
0.371908 0.835945 0.001184
0.420149 0.835945 0.001184
0.469080 0.835945 0.001184
0.518278 0.835945 0.001184
0.567318 0.835945 0.001184
0.615776 0.835945 0.001184
0.663230 0.835945 0.001184
0.709254 0.835945 0.001184
0.753425 0.835945 0.001184
0.795319 0.835945 0.001184
0.834511 0.835945 0.001184
0.870579 0.835945 0.001184
0.903098 0.835945 0.001184
0.931644 0.835945 0.001184
0.955793 0.835945 0.001184
0.975121 0.835945 0.001184
0.989205 0.835945 0.001184
0.997620 0.835945 0.001184
0.999942 0.835945 0.001184
0.995748 0.835945 0.001184
0.984614 0.835945 0.001184
0.001184 0.870906 0.001184
0.008073 0.870906 0.001184
0.020739 0.870906 0.001184
0.038760 0.870906 0.001184
0.061710 0.870906 0.001184
0.089165 0.870906 0.001184
0.120703 0.870906 0.001184
0.155899 0.870906 0.001184
0.194328 0.870906 0.001184
0.235568 0.870906 0.001184
0.279194 0.870906 0.001184
0.324782 0.870906 0.001184
0.371908 0.870906 0.001184
0.420149 0.870906 0.001184
0.469080 0.870906 0.001184
0.518278 0.870906 0.001184
0.567318 0.870906 0.001184
0.615776 0.870906 0.001184
0.663230 0.870906 0.001184
0.709254 0.870906 0.001184
0.753425 0.870906 0.001184
0.795319 0.870906 0.001184
0.834511 0.870906 0.001184
0.870579 0.870906 0.001184
0.903098 0.870906 0.001184
0.931644 0.870906 0.001184
0.955793 0.870906 0.001184
0.975121 0.870906 0.001184
0.989205 0.870906 0.001184
0.997620 0.870906 0.001184
0.999942 0.870906 0.001184
0.995748 0.870906 0.001184
0.984614 0.870906 0.001184
0.001184 0.902514 0.001184
0.008073 0.902514 0.001184
0.020739 0.902514 0.001184
0.038760 0.902514 0.001184
0.061710 0.902514 0.001184
0.089165 0.902514 0.001184
0.120703 0.902514 0.001184
0.155899 0.902514 0.001184
0.194328 0.902514 0.001184
0.235568 0.902514 0.001184
0.279194 0.902514 0.001184
0.324782 0.902514 0.001184
0.371908 0.902514 0.001184
0.420149 0.902514 0.001184
0.469080 0.902514 0.001184
0.518278 0.902514 0.001184
0.567318 0.902514 0.001184
0.615776 0.902514 0.001184
0.663230 0.902514 0.001184
0.709254 0.902514 0.001184
0.753425 0.902514 0.001184
0.795319 0.902514 0.001184
0.834511 0.902514 0.001184
0.870579 0.902514 0.001184
0.903098 0.902514 0.001184
0.931644 0.902514 0.001184
0.955793 0.902514 0.001184
0.975121 0.902514 0.001184
0.989205 0.902514 0.001184
0.997620 0.902514 0.001184
0.999942 0.902514 0.001184
0.995748 0.902514 0.001184
0.984614 0.902514 0.001184
0.001184 0.930381 0.001184
0.008073 0.930381 0.001184
0.020739 0.930381 0.001184
0.038760 0.930381 0.001184
0.061710 0.930381 0.001184
0.089165 0.930381 0.001184
0.120703 0.930381 0.001184
0.155899 0.930381 0.001184
0.194328 0.930381 0.001184
0.235568 0.930381 0.001184
0.279194 0.930381 0.001184
0.324782 0.930381 0.001184
0.371908 0.930381 0.001184
0.420149 0.930381 0.001184
0.469080 0.930381 0.001184
0.518278 0.930381 0.001184
0.567318 0.930381 0.001184
0.615776 0.930381 0.001184
0.663230 0.930381 0.001184
0.709254 0.930381 0.001184
0.753425 0.930381 0.001184
0.795319 0.930381 0.001184
0.834511 0.930381 0.001184
0.870579 0.930381 0.001184
0.903098 0.930381 0.001184
0.931644 0.930381 0.001184
0.955793 0.930381 0.001184
0.975121 0.930381 0.001184
0.989205 0.930381 0.001184
