betterCam/LUTs/Kodak_Vision3_250D_5207.cube
TITLE "Kodak Vision3 5207 Simulation"
LUT_3D_SIZE 5
0.000000 0.000000 0.000000
0.223299 0.000000 0.000000
0.540681 0.000000 0.000000
0.858402 0.000000 0.000000
1.000000 0.000000 0.000000
0.000000 0.241692 0.000000
0.217291 0.237576 0.000000
0.535006 0.233688 0.000000
0.852958 0.230002 0.000000
1.000000 0.228293 0.000000
0.000000 0.539991 0.000000
0.211610 0.536099 0.000000
0.529559 0.532409 0.000000
0.847682 0.528909 0.000000
1.000000 0.527287 0.000000
0.000000 0.838510 0.000000
0.206159 0.834817 0.000000
0.524279 0.831313 0.000000
0.842526 0.827993 0.000000
0.996065 0.826456 0.000000
0.000000 0.993818 0.000000
0.203395 0.990222 0.000000
0.521584 0.986813 0.000000
0.839879 0.983585 0.000000
0.993435 0.982094 0.000000
0.000000 0.000000 0.266252
0.226702 0.000000 0.258067
0.544412 0.000000 0.249923
0.862360 0.000000 0.241867
1.000000 0.000000 0.238024
0.000000 0.239763 0.250814
0.221016 0.235866 0.242669
0.538961 0.232173 0.234611
0.857080 0.228669 0.226675
1.000000 0.227045 0.222899
0.000000 0.538277 0.235415
0.215561 0.534580 0.227355
0.533678 0.531073 0.219416
0.851922 0.527749 0.211629
1.000000 0.526211 0.207936
0.000000 0.836987 0.220098
0.210276 0.833476 0.212157
0.528518 0.830149 0.204366
0.846847 0.827004 0.196759
1.000000 0.825553 0.193165
0.000000 0.992389 0.212178
0.207579 0.988972 0.204309
0.525870 0.985738 0.196608
0.844227 0.982686 0.189107
0.997799 0.981281 0.185572
0.000000 0.000000 0.563972
0.230422 0.000000 0.555826
0.548362 0.000000 0.547766
0.866479 0.000000 0.539827
1.000000 0.000000 0.536050
0.000000 0.238045 0.548571
0.224963 0.234343 0.540509
0.543077 0.230832 0.532568
0.861319 0.227505 0.524778
1.000000 0.225965 0.521083
0.000000 0.536751 0.533253
0.219675 0.533236 0.525309
0.537915 0.529905 0.517515
0.856242 0.526757 0.509904
1.000000 0.525304 0.506308
0.000000 0.835640 0.518050
0.214511 0.832306 0.510253
0.532836 0.829153 0.502638
0.851210 0.826186 0.495240
1.000000 0.824822 0.491761
0.000000 0.991132 0.510200
0.211861 0.987891 0.502491
0.530216 0.984832 0.494982
0.848598 0.981961 0.487710
1.000000 0.980645 0.484302
0.000000 0.000000 0.861728
0.234365 0.000000 0.853664
0.552476 0.000000 0.845720
0.870716 0.000000 0.837927
1.000000 0.000000 0.834230
0.000000 0.236514 0.846408
0.229074 0.232996 0.838461
0.547312 0.229662 0.830664
0.865638 0.226510 0.823049
1.000000 0.225055 0.819451
0.000000 0.535400 0.831202
0.223907 0.532062 0.823402
0.542232 0.528906 0.815783
0.860605 0.525935 0.808380
1.000000 0.524569 0.804899
0.000000 0.834462 0.816140
0.218826 0.831303 0.808517
0.537199 0.828328 0.801110
0.855578 0.825544 0.793961
1.000000 0.824273 0.790623
0.000000 0.990044 0.808374
0.216205 0.986978 0.800856
0.534587 0.984099 0.793575
0.852950 0.981417 0.786580
1.000000 0.980199 0.783330
0.000000 0.000000 1.000000
0.236645 0.000000 1.000000
0.554831 0.000000 1.000000
0.873122 0.000000 1.000000
1.000000 0.000000 1.000000
0.000000 0.235736 1.000000
0.231427 0.232317 1.000000
0.549717 0.229080 0.997426
0.868074 0.226027 0.989923
1.000000 0.224620 0.986386
0.000000 0.534719 0.997869
0.226312 0.531479 0.990162
0.544668 0.528421 0.982654
0.863050 0.525552 0.975385
1.000000 0.524237 0.971978
0.000000 0.833877 0.982898
0.221262 0.830816 0.975386
0.539643 0.827943 0.968111
0.858005 0.825266 0.961126
1.000000 0.824051 0.957881
0.000000 0.989509 0.975186
0.218648 0.986542 0.967790
0.537026 0.983768 0.960655
0.855356 0.981199 0.953844
1.000000 0.980041 0.950703
